;FLAVOR:Marlin
;TIME:769
;Filament used: 1.40196m
;Layer height: 0.3
;MINX:82.2
;MINY:82.2
;MINZ:0.3
;MAXX:117.8
;MAXY:117.8
;MAXZ:20.1
;Generated with Cura_SteamEngine 5.2.1
M140 S60
M105
M190 S60
M104 S200
M105
M109 S200
M82 ;absolute extrusion mode
G28 ;Home
G1 Z15.0 F6000 ;Move the platform down 15mm
;Prime the extruder
G92 E0
G1 F200 E3
G92 E0
G92 E0
G92 E0
G1 F1500 E-6.5
;LAYER_COUNT:67
;LAYER:0
M107
G0 F3600 X84.623 Y84.349 Z0.3
;TYPE:SKIRT
G1 F1500 E0
G1 F1800 X85.222 Y83.834 E0.03941
G1 X85.87 Y83.383 E0.0788
G1 X86.561 Y82.999 E0.11824
G1 X87.286 Y82.687 E0.15762
G1 X88.039 Y82.45 E0.197
G1 X88.813 Y82.291 E0.23642
G1 X89.695 Y82.2 E0.28066
G1 X110 Y82.2 E1.29368
G1 X110.789 Y82.24 E1.33309
G1 X111.569 Y82.359 E1.37246
G1 X112.334 Y82.557 E1.41188
G1 X113.074 Y82.831 E1.45125
G1 X113.783 Y83.179 E1.49065
G1 X114.454 Y83.597 E1.53009
G1 X115.078 Y84.08 E1.56946
G1 X115.651 Y84.623 E1.60885
G1 X116.166 Y85.222 E1.64826
G1 X116.617 Y85.87 E1.68764
G1 X117.001 Y86.561 E1.72708
G1 X117.313 Y87.286 E1.76646
G1 X117.55 Y88.039 E1.80585
G1 X117.709 Y88.813 E1.84527
G1 X117.8 Y89.695 E1.8895
G1 X117.8 Y110 E2.90252
G1 X117.76 Y110.789 E2.94194
G1 X117.641 Y111.569 E2.9813
G1 X117.443 Y112.334 E3.02073
G1 X117.169 Y113.074 E3.0601
G1 X116.821 Y113.783 E3.0995
G1 X116.403 Y114.454 E3.13894
G1 X115.92 Y115.078 E3.17831
G1 X115.377 Y115.651 E3.21769
G1 X114.778 Y116.166 E3.2571
G1 X114.13 Y116.617 E3.29649
G1 X113.439 Y117.001 E3.33593
G1 X112.714 Y117.313 E3.37531
G1 X111.961 Y117.55 E3.41469
G1 X111.187 Y117.709 E3.45411
G1 X110.305 Y117.8 E3.49835
G1 X90 Y117.8 E4.51137
G1 X89.211 Y117.76 E4.55078
G1 X88.431 Y117.641 E4.59015
G1 X87.666 Y117.443 E4.62957
G1 X86.926 Y117.169 E4.66894
G1 X86.217 Y116.821 E4.70834
G1 X85.546 Y116.403 E4.74778
G1 X84.922 Y115.92 E4.78715
G1 X84.349 Y115.377 E4.82654
G1 X83.834 Y114.778 E4.86595
G1 X83.383 Y114.13 E4.90534
G1 X82.999 Y113.439 E4.94478
G1 X82.687 Y112.714 E4.98415
G1 X82.45 Y111.961 E5.02354
G1 X82.291 Y111.187 E5.06296
G1 X82.2 Y110.305 E5.1072
G1 X82.2 Y90 E6.12022
G1 X82.24 Y89.211 E6.15963
G1 X82.359 Y88.431 E6.19899
G1 X82.557 Y87.666 E6.23842
G1 X82.831 Y86.926 E6.27779
G1 X83.179 Y86.217 E6.31719
G1 X83.597 Y85.546 E6.35663
G1 X84.08 Y84.922 E6.396
G1 X84.623 Y84.349 E6.43538
G0 F3600 X85.016 Y84.53
G1 F1800 X85.611 Y84.042 E6.47377
G1 X86.253 Y83.619 E6.51213
G1 X86.936 Y83.264 E6.55053
G1 X87.651 Y82.983 E6.58886
G1 X88.393 Y82.777 E6.62728
G1 X89.151 Y82.649 E6.66563
G1 X90 Y82.6 E6.70806
G1 X110 Y82.6 E7.70586
G1 X110.768 Y82.64 E7.74423
G1 X111.528 Y82.759 E7.78261
G1 X112.271 Y82.957 E7.82097
G1 X112.99 Y83.231 E7.85936
G1 X113.676 Y83.578 E7.89771
G1 X114.323 Y83.994 E7.93609
G1 X114.923 Y84.475 E7.97445
G1 X115.47 Y85.016 E8.01284
G1 X115.958 Y85.611 E8.05123
G1 X116.381 Y86.253 E8.08959
G1 X116.736 Y86.936 E8.12799
G1 X117.017 Y87.651 E8.16632
G1 X117.223 Y88.393 E8.20473
G1 X117.351 Y89.151 E8.24309
G1 X117.4 Y90 E8.28551
G1 X117.4 Y110 E9.28332
G1 X117.36 Y110.768 E9.32169
G1 X117.241 Y111.528 E9.36006
G1 X117.043 Y112.271 E9.39843
G1 X116.769 Y112.99 E9.43681
G1 X116.422 Y113.676 E9.47517
G1 X116.006 Y114.323 E9.51354
G1 X115.525 Y114.923 E9.55191
G1 X114.984 Y115.47 E9.59029
G1 X114.389 Y115.958 E9.62868
G1 X113.747 Y116.381 E9.66704
G1 X113.064 Y116.736 E9.70544
G1 X112.349 Y117.017 E9.74377
G1 X111.607 Y117.223 E9.78219
G1 X110.849 Y117.351 E9.82054
G1 X110 Y117.4 E9.86297
G1 X90 Y117.4 E10.86077
G1 X89.232 Y117.36 E10.89914
G1 X88.472 Y117.241 E10.93752
G1 X87.729 Y117.043 E10.97588
G1 X87.01 Y116.769 E11.01427
G1 X86.324 Y116.422 E11.05262
G1 X85.677 Y116.006 E11.091
G1 X85.077 Y115.525 E11.12936
G1 X84.53 Y114.984 E11.16775
G1 X84.042 Y114.389 E11.20614
G1 X83.619 Y113.747 E11.24449
G1 X83.264 Y113.064 E11.2829
G1 X82.983 Y112.349 E11.32122
G1 X82.777 Y111.607 E11.35964
G1 X82.649 Y110.849 E11.398
G1 X82.6 Y110 E11.44042
G1 X82.6 Y90 E12.43823
G1 X82.64 Y89.232 E12.47659
G1 X82.759 Y88.472 E12.51497
G1 X82.957 Y87.729 E12.55334
G1 X83.231 Y87.01 E12.59172
G1 X83.578 Y86.324 E12.63008
G1 X83.994 Y85.677 E12.66845
G1 X84.475 Y85.077 E12.70682
G1 X85.016 Y84.53 E12.7452
G0 F3600 X85.408 Y84.716
G1 F1800 X85.998 Y84.257 E12.78249
G1 X86.634 Y83.862 E12.81985
G1 X87.308 Y83.538 E12.85716
G1 X88.013 Y83.288 E12.89447
G1 X88.741 Y83.114 E12.93182
G1 X89.483 Y83.019 E12.96914
G1 X90 Y83 E12.99495
G1 X110 Y83 E13.99275
G1 X110.747 Y83.04 E14.03007
G1 X111.485 Y83.159 E14.06737
G1 X112.207 Y83.357 E14.10472
G1 X112.903 Y83.63 E14.14202
G1 X113.566 Y83.977 E14.17935
G1 X114.189 Y84.392 E14.2167
G1 X114.763 Y84.871 E14.254
G1 X115.284 Y85.408 E14.29132
G1 X115.743 Y85.998 E14.32862
G1 X116.138 Y86.634 E14.36597
G1 X116.462 Y87.308 E14.40328
G1 X116.712 Y88.013 E14.4406
G1 X116.886 Y88.741 E14.47794
G1 X116.981 Y89.483 E14.51526
G1 X117 Y90 E14.54107
G1 X117 Y110 E15.53888
G1 X116.96 Y110.747 E15.5762
G1 X116.841 Y111.485 E15.61349
G1 X116.643 Y112.207 E15.65084
G1 X116.37 Y112.903 E15.68814
G1 X116.023 Y113.566 E15.72548
G1 X115.608 Y114.189 E15.76282
G1 X115.129 Y114.763 E15.80012
G1 X114.592 Y115.284 E15.83745
G1 X114.002 Y115.743 E15.87474
G1 X113.366 Y116.138 E15.91209
G1 X112.692 Y116.462 E15.9494
G1 X111.987 Y116.712 E15.98672
G1 X111.259 Y116.886 E16.02407
G1 X110.517 Y116.981 E16.06139
G1 X110 Y117 E16.0872
G1 X90 Y117 E17.085
G1 X89.253 Y116.96 E17.12232
G1 X88.515 Y116.841 E17.15962
G1 X87.793 Y116.643 E17.19697
G1 X87.097 Y116.37 E17.23427
G1 X86.434 Y116.023 E17.2716
G1 X85.811 Y115.608 E17.30895
G1 X85.237 Y115.129 E17.34624
G1 X84.716 Y114.592 E17.38357
G1 X84.257 Y114.002 E17.42087
G1 X83.862 Y113.366 E17.45822
G1 X83.538 Y112.692 E17.49553
G1 X83.288 Y111.987 E17.53285
G1 X83.114 Y111.259 E17.57019
G1 X83.019 Y110.517 E17.60751
G1 X83 Y110 E17.63332
G1 X83 Y90 E18.63112
G1 X83.04 Y89.253 E18.66845
G1 X83.159 Y88.515 E18.70574
G1 X83.357 Y87.793 E18.74309
G1 X83.63 Y87.097 E18.78039
G1 X83.977 Y86.434 E18.81772
G1 X84.392 Y85.811 E18.85507
G1 X84.871 Y85.237 E18.89237
G1 X85.408 Y84.716 E18.9297
G0 F3600 X85.799 Y84.909
G1 F1800 X86.384 Y84.479 E18.96592
G1 X87.013 Y84.115 E19.00218
G1 X87.678 Y83.822 E19.03843
G1 X88.371 Y83.604 E19.07467
G1 X89.083 Y83.464 E19.11088
G1 X90 Y83.4 E19.15674
G1 X110 Y83.4 E20.15454
G1 X110.725 Y83.44 E20.19077
G1 X111.442 Y83.559 E20.22703
G1 X112.141 Y83.757 E20.26327
G1 X112.814 Y84.03 E20.29951
G1 X113.453 Y84.375 E20.33574
G1 X114.05 Y84.789 E20.37198
G1 X114.598 Y85.265 E20.40819
G1 X115.091 Y85.799 E20.44445
G1 X115.521 Y86.384 E20.48068
G1 X115.885 Y87.013 E20.51693
G1 X116.178 Y87.678 E20.55319
G1 X116.396 Y88.371 E20.58943
G1 X116.536 Y89.083 E20.62563
G1 X116.6 Y90 E20.67149
G1 X116.6 Y110 E21.6693
G1 X116.56 Y110.725 E21.70552
G1 X116.441 Y111.442 E21.74178
G1 X116.243 Y112.141 E21.77803
G1 X115.97 Y112.814 E21.81426
G1 X115.625 Y113.453 E21.85049
G1 X115.211 Y114.05 E21.88674
G1 X114.735 Y114.598 E21.92295
G1 X114.201 Y115.091 E21.95921
G1 X113.616 Y115.521 E21.99543
G1 X112.987 Y115.885 E22.03169
G1 X112.322 Y116.178 E22.06794
G1 X111.629 Y116.396 E22.10419
G1 X110.917 Y116.536 E22.14039
G1 X110 Y116.6 E22.18625
G1 X90 Y116.6 E23.18405
G1 X89.275 Y116.56 E23.22028
G1 X88.558 Y116.441 E23.25654
G1 X87.859 Y116.243 E23.29279
G1 X87.186 Y115.97 E23.32902
G1 X86.547 Y115.625 E23.36525
G1 X85.95 Y115.211 E23.40149
G1 X85.402 Y114.735 E23.43771
G1 X84.909 Y114.201 E23.47397
G1 X84.479 Y113.616 E23.51019
G1 X84.115 Y112.987 E23.54644
G1 X83.822 Y112.322 E23.5827
G1 X83.604 Y111.629 E23.61894
G1 X83.464 Y110.917 E23.65515
G1 X83.4 Y110 E23.70101
G1 X83.4 Y90 E24.69881
G1 X83.44 Y89.275 E24.73504
G1 X83.559 Y88.558 E24.7713
G1 X83.757 Y87.859 E24.80754
G1 X84.03 Y87.186 E24.84378
G1 X84.375 Y86.547 E24.88
G1 X84.789 Y85.95 E24.91625
G1 X85.265 Y85.402 E24.95246
G1 X85.799 Y84.909 E24.98872
G0 F3600 X86.189 Y85.109
G1 F1800 X86.768 Y84.709 E25.02383
G1 X87.389 Y84.377 E25.05896
G1 X88.043 Y84.117 E25.09408
G1 X88.723 Y83.933 E25.12922
G1 X89.419 Y83.827 E25.16434
G1 X90 Y83.8 E25.19336
G1 X110 Y83.8 E26.19117
G1 X110.703 Y83.84 E26.2263
G1 X111.397 Y83.959 E26.26143
G1 X112.072 Y84.157 E26.29652
G1 X112.721 Y84.429 E26.33163
G1 X113.335 Y84.774 E26.36676
G1 X113.906 Y85.185 E26.40186
G1 X114.427 Y85.659 E26.437
G1 X114.891 Y86.189 E26.47215
G1 X115.291 Y86.768 E26.50726
G1 X115.623 Y87.389 E26.54239
G1 X115.883 Y88.043 E26.5775
G1 X116.067 Y88.723 E26.61265
G1 X116.173 Y89.419 E26.64777
G1 X116.2 Y90 E26.67679
G1 X116.2 Y110 E27.67459
G1 X116.16 Y110.703 E27.70972
G1 X116.041 Y111.397 E27.74485
G1 X115.843 Y112.072 E27.77994
G1 X115.571 Y112.721 E27.81505
G1 X115.226 Y113.335 E27.85019
G1 X114.815 Y113.906 E27.88529
G1 X114.341 Y114.427 E27.92043
G1 X113.811 Y114.891 E27.95557
G1 X113.232 Y115.291 E27.99068
G1 X112.611 Y115.623 E28.02581
G1 X111.957 Y115.883 E28.06093
G1 X111.277 Y116.067 E28.09607
G1 X110.581 Y116.173 E28.1312
G1 X110 Y116.2 E28.16021
G1 X90 Y116.2 E29.15802
G1 X89.297 Y116.16 E29.19315
G1 X88.603 Y116.041 E29.22828
G1 X87.928 Y115.843 E29.26337
G1 X87.279 Y115.571 E29.29848
G1 X86.665 Y115.226 E29.33361
G1 X86.094 Y114.815 E29.36871
G1 X85.573 Y114.341 E29.40385
G1 X85.109 Y113.811 E29.439
G1 X84.709 Y113.232 E29.47411
G1 X84.377 Y112.611 E29.50924
G1 X84.117 Y111.957 E29.54435
G1 X83.933 Y111.277 E29.5795
G1 X83.827 Y110.581 E29.61462
G1 X83.8 Y110 E29.64364
G1 X83.8 Y90 E30.64144
G1 X83.84 Y89.297 E30.67657
G1 X83.959 Y88.603 E30.7117
G1 X84.157 Y87.928 E30.7468
G1 X84.429 Y87.279 E30.7819
G1 X84.774 Y86.665 E30.81704
G1 X85.185 Y86.094 E30.85214
G1 X85.659 Y85.573 E30.88728
G1 X86.189 Y85.109 E30.92242
G0 F3600 X86.578 Y85.317
G1 F1800 X87.15 Y84.948 E30.95638
G1 X87.762 Y84.649 E30.99036
G1 X88.404 Y84.424 E31.0243
G1 X89.069 Y84.275 E31.0583
G1 X90 Y84.2 E31.1049
G1 X110 Y84.2 E32.10271
G1 X110.68 Y84.24 E32.13669
G1 X111.35 Y84.359 E32.17064
G1 X112.002 Y84.556 E32.20462
G1 X112.626 Y84.828 E32.23858
G1 X113.214 Y85.172 E32.27257
G1 X113.758 Y85.582 E32.30655
G1 X114.249 Y86.053 E32.3405
G1 X114.683 Y86.578 E32.37448
G1 X115.052 Y87.15 E32.40844
G1 X115.351 Y87.762 E32.44242
G1 X115.576 Y88.404 E32.47636
G1 X115.725 Y89.069 E32.51036
G1 X115.8 Y90 E32.55696
G1 X115.8 Y110 E33.55476
G1 X115.76 Y110.68 E33.58875
G1 X115.641 Y111.35 E33.6227
G1 X115.444 Y112.002 E33.65668
G1 X115.172 Y112.626 E33.69064
G1 X114.828 Y113.214 E33.72463
G1 X114.418 Y113.758 E33.75861
G1 X113.947 Y114.249 E33.79256
G1 X113.422 Y114.683 E33.82654
G1 X112.85 Y115.052 E33.8605
G1 X112.238 Y115.351 E33.89448
G1 X111.596 Y115.576 E33.92842
G1 X110.931 Y115.725 E33.96242
G1 X110 Y115.8 E34.00902
G1 X90 Y115.8 E35.00682
G1 X89.32 Y115.76 E35.04081
G1 X88.65 Y115.641 E35.07476
G1 X87.998 Y115.444 E35.10874
G1 X87.374 Y115.172 E35.1427
G1 X86.786 Y114.828 E35.17668
G1 X86.242 Y114.418 E35.21067
G1 X85.751 Y113.947 E35.24461
G1 X85.317 Y113.422 E35.2786
G1 X84.948 Y112.85 E35.31256
G1 X84.649 Y112.238 E35.34654
G1 X84.424 Y111.596 E35.38048
G1 X84.275 Y110.931 E35.41448
G1 X84.2 Y110 E35.46108
G1 X84.2 Y90 E36.45888
G1 X84.24 Y89.32 E36.49287
G1 X84.359 Y88.65 E36.52681
G1 X84.556 Y87.998 E36.5608
G1 X84.828 Y87.374 E36.59476
G1 X85.172 Y86.786 E36.62874
G1 X85.582 Y86.242 E36.66273
G1 X86.053 Y85.751 E36.69667
G1 X86.578 Y85.317 E36.73066
G0 F3600 X86.965 Y85.534
G1 F1800 X87.529 Y85.198 E36.76341
G1 X88.131 Y84.934 E36.7962
G1 X88.76 Y84.744 E36.82899
G1 X89.407 Y84.633 E36.86174
G1 X90 Y84.6 E36.89137
G1 X110 Y84.6 E37.88917
G1 X110.656 Y84.64 E37.92196
G1 X111.302 Y84.759 E37.95473
G1 X111.929 Y84.956 E37.98752
G1 X112.527 Y85.228 E38.0203
G1 X113.088 Y85.57 E38.05307
G1 X113.603 Y85.978 E38.08585
G1 X114.065 Y86.445 E38.11863
G1 X114.466 Y86.965 E38.15139
G1 X114.802 Y87.529 E38.18414
G1 X115.066 Y88.131 E38.21694
G1 X115.256 Y88.76 E38.24972
G1 X115.367 Y89.407 E38.28247
G1 X115.4 Y90 E38.3121
G1 X115.4 Y110 E39.3099
G1 X115.36 Y110.656 E39.34269
G1 X115.241 Y111.302 E39.37546
G1 X115.044 Y111.929 E39.40825
G1 X114.772 Y112.527 E39.44103
G1 X114.43 Y113.088 E39.47381
G1 X114.022 Y113.603 E39.50659
G1 X113.555 Y114.065 E39.53936
G1 X113.035 Y114.466 E39.57212
G1 X112.471 Y114.802 E39.60487
G1 X111.869 Y115.066 E39.63767
G1 X111.24 Y115.256 E39.67045
G1 X110.593 Y115.367 E39.7032
G1 X110 Y115.4 E39.73283
G1 X90 Y115.4 E40.73063
G1 X89.344 Y115.36 E40.76342
G1 X88.698 Y115.241 E40.79619
G1 X88.071 Y115.044 E40.82898
G1 X87.473 Y114.772 E40.86176
G1 X86.912 Y114.43 E40.89454
G1 X86.397 Y114.022 E40.92732
G1 X85.935 Y113.555 E40.96009
G1 X85.534 Y113.035 E40.99285
G1 X85.198 Y112.471 E41.0256
G1 X84.934 Y111.869 E41.0584
G1 X84.744 Y111.24 E41.09118
G1 X84.633 Y110.593 E41.12393
G1 X84.6 Y110 E41.15356
G1 X84.6 Y90 E42.15137
G1 X84.64 Y89.344 E42.18416
G1 X84.759 Y88.698 E42.21693
G1 X84.956 Y88.071 E42.24972
G1 X85.228 Y87.473 E42.28249
G1 X85.57 Y86.912 E42.31527
G1 X85.978 Y86.397 E42.34805
G1 X86.445 Y85.935 E42.38082
G1 X86.965 Y85.534 E42.41358
G0 F3600 X87.35 Y85.76
G1 F1800 X87.906 Y85.46 E42.4451
G1 X88.495 Y85.232 E42.47661
G1 X89.109 Y85.08 E42.50817
G1 X90 Y85 E42.5528
G1 X110 Y85 E43.55061
G1 X110.631 Y85.04 E43.58215
G1 X111.252 Y85.159 E43.61369
G1 X111.852 Y85.356 E43.6452
G1 X112.424 Y85.627 E43.67678
G1 X112.956 Y85.967 E43.70828
G1 X113.441 Y86.373 E43.73983
G1 X113.871 Y86.836 E43.77136
G1 X114.24 Y87.35 E43.80293
G1 X114.54 Y87.906 E43.83444
G1 X114.768 Y88.495 E43.86596
G1 X114.92 Y89.109 E43.89751
G1 X115 Y90 E43.94214
G1 X115 Y110 E44.93995
G1 X114.96 Y110.631 E44.97149
G1 X114.841 Y111.252 E45.00304
G1 X114.644 Y111.852 E45.03454
G1 X114.373 Y112.424 E45.06612
G1 X114.033 Y112.956 E45.09762
G1 X113.627 Y113.441 E45.12918
G1 X113.164 Y113.871 E45.1607
G1 X112.65 Y114.24 E45.19227
G1 X112.094 Y114.54 E45.22379
G1 X111.505 Y114.768 E45.2553
G1 X110.891 Y114.92 E45.28685
G1 X110 Y115 E45.33149
G1 X90 Y115 E46.32929
G1 X89.369 Y114.96 E46.36083
G1 X88.748 Y114.841 E46.39238
G1 X88.148 Y114.644 E46.42389
G1 X87.576 Y114.373 E46.45546
G1 X87.044 Y114.033 E46.48696
G1 X86.559 Y113.627 E46.51852
G1 X86.129 Y113.164 E46.55004
G1 X85.76 Y112.65 E46.58161
G1 X85.46 Y112.094 E46.61313
G1 X85.232 Y111.505 E46.64464
G1 X85.08 Y110.891 E46.6762
G1 X85 Y110 E46.72083
G1 X85 Y90 E47.71863
G1 X85.04 Y89.369 E47.75018
G1 X85.159 Y88.748 E47.78172
G1 X85.356 Y88.148 E47.81323
G1 X85.627 Y87.576 E47.84481
G1 X85.967 Y87.044 E47.8763
G1 X86.373 Y86.559 E47.90786
G1 X86.836 Y86.129 E47.93938
G1 X87.35 Y85.76 E47.97095
G0 F3600 X87.732 Y85.998
G1 F1800 X88.278 Y85.734 E48.00121
G1 X88.854 Y85.545 E48.03145
G1 X89.45 Y85.433 E48.06171
G1 X90 Y85.4 E48.0892
G1 X110 Y85.4 E49.087
G1 X110.605 Y85.44 E49.11725
G1 X111.199 Y85.559 E49.14747
G1 X111.773 Y85.755 E49.17773
G1 X112.316 Y86.026 E49.20801
G1 X112.819 Y86.365 E49.23827
G1 X113.272 Y86.767 E49.26849
G1 X113.669 Y87.225 E49.29873
G1 X114.002 Y87.732 E49.32899
G1 X114.266 Y88.278 E49.35925
G1 X114.455 Y88.854 E49.38949
G1 X114.567 Y89.45 E49.41975
G1 X114.6 Y90 E49.44724
G1 X114.6 Y110 E50.44504
G1 X114.56 Y110.605 E50.47529
G1 X114.441 Y111.199 E50.50551
G1 X114.245 Y111.773 E50.53577
G1 X113.974 Y112.316 E50.56605
G1 X113.635 Y112.819 E50.59631
G1 X113.233 Y113.272 E50.62653
G1 X112.775 Y113.669 E50.65677
G1 X112.268 Y114.002 E50.68703
G1 X111.722 Y114.266 E50.71729
G1 X111.146 Y114.455 E50.74753
G1 X110.55 Y114.567 E50.77779
G1 X110 Y114.6 E50.80528
G1 X90 Y114.6 E51.80308
G1 X89.395 Y114.56 E51.83333
G1 X88.801 Y114.441 E51.86355
G1 X88.227 Y114.245 E51.89381
G1 X87.684 Y113.974 E51.92409
G1 X87.181 Y113.635 E51.95435
G1 X86.728 Y113.233 E51.98457
G1 X86.331 Y112.775 E52.01481
G1 X85.998 Y112.268 E52.04507
G1 X85.734 Y111.722 E52.07533
G1 X85.545 Y111.146 E52.10557
G1 X85.433 Y110.55 E52.13583
G1 X85.4 Y110 E52.16332
G1 X85.4 Y90 E53.16112
G1 X85.44 Y89.395 E53.19137
G1 X85.559 Y88.801 E53.22159
G1 X85.755 Y88.227 E53.25185
G1 X86.026 Y87.684 E53.28213
G1 X86.365 Y87.181 E53.31239
G1 X86.767 Y86.728 E53.34261
G1 X87.225 Y86.331 E53.37285
G1 X87.732 Y85.998 E53.40311
G0 F3600 X88.111 Y86.249
G1 F1800 X88.645 Y86.024 E53.43202
G1 X89.205 Y85.876 E53.46092
G1 X90 Y85.8 E53.50076
G1 X110 Y85.8 E54.49856
G1 X110.578 Y85.84 E54.52747
