;FLAVOR:Marlin
;TIME:1891
;Filament used: 1.06423m
;Layer height: 0.2
;MINX:96.5
;MINY:101.5
;MINZ:0.2
;MAXX:138.5
;MAXY:133.5
;MAXZ:30
;Generated with Cura_SteamEngine 5.2.1
M140 S70
M105
M190 S70
M104 S200
M105
M109 S200
M82 ;absolute extrusion mode
; Ender 3 Custom Start G-code
G92 E0 ; Reset Extruder
G28 ; Home all axes
G1 Z2.0 F3000 ; Move Z Axis up little to prevent scratching of Heat Bed
G1 X0.1 Y20 Z0.3 F5000.0 ; Move to start position
G1 X0.1 Y200.0 Z0.3 F1500.0 E15 ; Draw the first line
G1 X0.4 Y200.0 Z0.3 F5000.0 ; Move to side a little
G1 X0.4 Y20 Z0.3 F1500.0 E30 ; Draw the second line
G92 E0 ; Reset Extruder
G1 Z2.0 F3000 ; Move Z Axis up little to prevent scratching of Heat Bed
G1 X5 Y20 Z0.3 F5000.0 ; Move over to prevent blob squish
G92 E0
G92 E0
G1 F2700 E-5
;LAYER_COUNT:150
;LAYER:0
M107
G0 F6000 X99.698 Y104.764 Z0.2
;TYPE:SKIRT
G1 F2700 E0
G1 F1200 X100.386 Y104.127 E0.03119
G1 X101.126 Y103.551 E0.06237
G1 X101.912 Y103.039 E0.09357
G1 X102.739 Y102.597 E0.12476
G1 X103.601 Y102.227 E0.15596
G1 X104.491 Y101.931 E0.18716
G1 X105.403 Y101.713 E0.21835
G1 X106.33 Y101.572 E0.24953
G1 X107.201 Y101.513 E0.27857
G1 X107.83 Y101.5 E0.29949
G1 X126.951 Y101.501 E0.93546
G1 X127.649 Y101.511 E0.95868
G1 X128.585 Y101.565 E0.98986
G1 X129.513 Y101.697 E1.02104
G1 X130.427 Y101.909 E1.05224
G1 X131.319 Y102.198 E1.08343
G1 X132.184 Y102.561 E1.11463
G1 X133.014 Y102.997 E1.14581
G1 X133.805 Y103.502 E1.17703
G1 X134.549 Y104.073 E1.20822
G1 X135.242 Y104.705 E1.23942
G1 X135.879 Y105.393 E1.2706
G1 X136.454 Y106.134 E1.3018
G1 X136.965 Y106.92 E1.33298
G1 X137.407 Y107.748 E1.3642
G1 X137.776 Y108.61 E1.39538
G1 X138.071 Y109.5 E1.42657
G1 X138.289 Y110.412 E1.45776
G1 X138.429 Y111.34 E1.48897
G1 X138.487 Y112.201 E1.51767
G1 X138.5 Y112.83 E1.5386
G1 X138.499 Y121.9 E1.84027
G1 X138.49 Y122.627 E1.86445
G1 X138.439 Y123.564 E1.89566
G1 X138.307 Y124.492 E1.92684
G1 X138.098 Y125.406 E1.95802
G1 X137.811 Y126.299 E1.98922
G1 X137.449 Y127.165 E2.02044
G1 X137.015 Y127.996 E2.05162
G1 X136.511 Y128.787 E2.08281
G1 X135.942 Y129.532 E2.11399
G1 X135.311 Y130.227 E2.14521
G1 X134.624 Y130.865 E2.1764
G1 X133.885 Y131.442 E2.20758
G1 X133.099 Y131.954 E2.23878
G1 X132.273 Y132.397 E2.26996
G1 X131.411 Y132.769 E2.30118
G1 X130.522 Y133.065 E2.33235
G1 X129.61 Y133.285 E2.36355
G1 X128.683 Y133.426 E2.39474
G1 X127.799 Y133.487 E2.42421
G1 X127.17 Y133.5 E2.44513
G1 X108.065 Y133.499 E3.08057
G1 X107.367 Y133.49 E3.10379
G1 X106.431 Y133.438 E3.13497
G1 X105.502 Y133.306 E3.16617
G1 X104.588 Y133.096 E3.19737
G1 X103.695 Y132.809 E3.22856
G1 X102.83 Y132.446 E3.25976
G1 X101.999 Y132.012 E3.29095
G1 X101.208 Y131.508 E3.32214
G1 X100.463 Y130.938 E3.35334
G1 X99.769 Y130.307 E3.38454
G1 X99.132 Y129.62 E3.4157
G1 X98.555 Y128.88 E3.44691
G1 X98.043 Y128.094 E3.47811
G1 X97.6 Y127.267 E3.50931
G1 X97.229 Y126.406 E3.54049
G1 X96.933 Y125.516 E3.57169
G1 X96.714 Y124.604 E3.60289
G1 X96.573 Y123.677 E3.63407
G1 X96.513 Y122.788 E3.66371
G1 X96.5 Y122.158 E3.68467
G1 X96.501 Y113.025 E3.98843
G1 X96.51 Y112.36 E4.01055
G1 X96.563 Y111.424 E4.04173
G1 X96.695 Y110.495 E4.07294
G1 X96.906 Y109.581 E4.10414
G1 X97.194 Y108.689 E4.13532
G1 X97.557 Y107.824 E4.16652
G1 X97.992 Y106.993 E4.19771
G1 X98.496 Y106.203 E4.22888
G1 X99.066 Y105.458 E4.26008
G1 X99.698 Y104.764 E4.2913
G0 F6000 X100.089 Y104.939
G1 F1200 X100.774 Y104.323 E4.32194
G1 X101.51 Y103.77 E4.35256
G1 X102.291 Y103.282 E4.38319
G1 X103.111 Y102.864 E4.4138
G1 X103.965 Y102.519 E4.44444
G1 X104.845 Y102.249 E4.47505
G1 X105.745 Y102.057 E4.50566
G1 X106.659 Y101.943 E4.5363
G1 X107.212 Y101.913 E4.55472
G1 X107.83 Y101.9 E4.57528
G1 X126.793 Y101.9 E5.20599
G1 X127.643 Y101.911 E5.23426
G1 X128.562 Y101.964 E5.26488
G1 X129.473 Y102.097 E5.2955
G1 X130.369 Y102.308 E5.32612
G1 X131.243 Y102.596 E5.35672
G1 X132.09 Y102.959 E5.38737
G1 X132.901 Y103.394 E5.41798
G1 X133.671 Y103.898 E5.44859
G1 X134.395 Y104.467 E5.47922
G1 X135.067 Y105.097 E5.50985
G1 X135.682 Y105.782 E5.54047
G1 X136.235 Y106.518 E5.57109
G1 X136.722 Y107.299 E5.6017
G1 X137.139 Y108.12 E5.63233
G1 X137.484 Y108.974 E5.66297
G1 X137.753 Y109.854 E5.69357
G1 X137.945 Y110.755 E5.72421
G1 X138.058 Y111.668 E5.75481
G1 X138.087 Y112.212 E5.77293
G1 X138.1 Y112.83 E5.79349
G1 X138.099 Y121.895 E6.09499
G1 X138.09 Y122.622 E6.11917
G1 X138.039 Y123.541 E6.14979
G1 X137.908 Y124.453 E6.18043
G1 X137.698 Y125.349 E6.21104
G1 X137.412 Y126.224 E6.24166
G1 X137.051 Y127.071 E6.27228
G1 X136.617 Y127.883 E6.3029
G1 X136.115 Y128.655 E6.33353
G1 X135.547 Y129.38 E6.36416
G1 X134.919 Y130.053 E6.39478
G1 X134.235 Y130.669 E6.4254
G1 X133.5 Y131.223 E6.45601
G1 X132.72 Y131.712 E6.48663
G1 X131.9 Y132.131 E6.51726
G1 X131.047 Y132.477 E6.54787
G1 X130.167 Y132.748 E6.5785
G1 X129.267 Y132.941 E6.60911
G1 X128.353 Y133.056 E6.63975
G1 X127.788 Y133.087 E6.65857
G1 X127.17 Y133.1 E6.67913
G1 X108.07 Y133.099 E7.3144
G1 X107.372 Y133.09 E7.33762
G1 X106.453 Y133.038 E7.36823
G1 X105.542 Y132.907 E7.39884
G1 X104.646 Y132.697 E7.42945
G1 X103.771 Y132.41 E7.46008
G1 X102.924 Y132.048 E7.49072
G1 X102.112 Y131.614 E7.52134
G1 X101.341 Y131.112 E7.55194
G1 X100.616 Y130.544 E7.58257
G1 X99.943 Y129.915 E7.61321
G1 X99.328 Y129.231 E7.6438
G1 X98.774 Y128.496 E7.67442
G1 X98.286 Y127.715 E7.70505
G1 X97.867 Y126.895 E7.73567
G1 X97.521 Y126.042 E7.76629
G1 X97.251 Y125.162 E7.79691
G1 X97.058 Y124.261 E7.82755
G1 X96.944 Y123.348 E7.85816
G1 X96.913 Y122.777 E7.87718
G1 X96.9 Y122.158 E7.89777
G1 X96.901 Y113.031 E8.20133
G1 X96.91 Y112.366 E8.22345
G1 X96.962 Y111.446 E8.2541
G1 X97.094 Y110.535 E8.28472
G1 X97.305 Y109.639 E8.31533
G1 X97.592 Y108.764 E8.34596
G1 X97.955 Y107.918 E8.37658
G1 X98.389 Y107.106 E8.4072
G1 X98.892 Y106.335 E8.43782
G1 X99.461 Y105.611 E8.46845
G1 X100.089 Y104.939 E8.49904
G0 F6000 X100.481 Y105.117
G1 F1200 X101.162 Y104.524 E8.52907
G1 X101.894 Y103.994 E8.55913
G1 X102.669 Y103.531 E8.58916
G1 X103.482 Y103.138 E8.61919
G1 X104.327 Y102.818 E8.64925
G1 X105.196 Y102.575 E8.67926
G1 X106.084 Y102.409 E8.7093
G1 X107.223 Y102.313 E8.74732
G1 X107.83 Y102.3 E8.76752
G1 X126.793 Y102.3 E9.39823
G1 X127.637 Y102.311 E9.4263
G1 X128.539 Y102.364 E9.45635
G1 X129.432 Y102.496 E9.48638
G1 X130.31 Y102.707 E9.51641
G1 X131.166 Y102.995 E9.54645
G1 X131.993 Y103.357 E9.57648
G1 X132.785 Y103.792 E9.60653
G1 X133.536 Y104.294 E9.63657
G1 X134.239 Y104.861 E9.66661
G1 X134.889 Y105.488 E9.69665
G1 X135.481 Y106.17 E9.72669
G1 X136.011 Y106.901 E9.75672
G1 X136.473 Y107.677 E9.78676
G1 X136.866 Y108.49 E9.81679
G1 X137.184 Y109.335 E9.84682
G1 X137.427 Y110.205 E9.87687
G1 X137.592 Y111.093 E9.90691
G1 X137.687 Y112.223 E9.94462
G1 X137.7 Y112.83 E9.96482
G1 X137.699 Y121.89 E10.26615
G1 X137.69 Y122.617 E10.29033
G1 X137.639 Y123.519 E10.32038
G1 X137.508 Y124.413 E10.35044
G1 X137.299 Y125.291 E10.38045
G1 X137.013 Y126.148 E10.4105
G1 X136.652 Y126.976 E10.44055
G1 X136.22 Y127.768 E10.47055
G1 X135.719 Y128.52 E10.50061
G1 X135.153 Y129.224 E10.53065
G1 X134.528 Y129.875 E10.56067
G1 X133.847 Y130.469 E10.59072
G1 X133.116 Y131 E10.62077
G1 X132.342 Y131.464 E10.65079
G1 X131.529 Y131.858 E10.68084
G1 X130.685 Y132.178 E10.71086
G1 X129.815 Y132.423 E10.74092
G1 X128.928 Y132.589 E10.77093
G1 X127.777 Y132.687 E10.80935
G1 X127.17 Y132.7 E10.82955
G1 X108.075 Y132.699 E11.46465
G1 X107.377 Y132.69 E11.48787
G1 X106.476 Y132.639 E11.51788
G1 X105.582 Y132.507 E11.54794
G1 X104.704 Y132.298 E11.57796
G1 X103.847 Y132.011 E11.60802
G1 X103.02 Y131.65 E11.63803
G1 X102.227 Y131.217 E11.66808
G1 X101.476 Y130.716 E11.69811
G1 X100.772 Y130.15 E11.72815
G1 X100.121 Y129.524 E11.75819
G1 X99.528 Y128.843 E11.78822
G1 X98.998 Y128.112 E11.81826
G1 X98.534 Y127.337 E11.8483
G1 X98.14 Y126.524 E11.87835
G1 X97.82 Y125.68 E11.90837
G1 X97.576 Y124.81 E11.93842
G1 X97.41 Y123.922 E11.96847
G1 X97.313 Y122.767 E12.00702
G1 X97.3 Y122.158 E12.02728
G1 X97.301 Y113.036 E12.33068
G1 X97.31 Y112.371 E12.3528
G1 X97.362 Y111.469 E12.38285
G1 X97.494 Y110.576 E12.41287
G1 X97.704 Y109.698 E12.4429
G1 X97.991 Y108.841 E12.47296
G1 X98.353 Y108.014 E12.50298
G1 X98.786 Y107.222 E12.53301
G1 X99.288 Y106.471 E12.56305
G1 X99.855 Y105.767 E12.59312
G1 X100.481 Y105.117 E12.62313
G1 F2700 E7.62313
;MESH:TestCube_20x20x20.stl
G0 F6000 X107.914 Y111.835
G0 X108.1 Y121.9
;TYPE:WALL-INNER
G1 F2700 E12.62313
G1 F1200 X126.9 Y121.9 E13.24842
G1 X126.9 Y117.5 E13.39477
G1 X126.9 Y113.1 E13.54111
G1 X108.1 Y113.1 E14.1664
G1 X108.1 Y121.9 E14.45909
G0 F6000 X107.7 Y122.3
;TYPE:WALL-OUTER
G1 F1200 X127.3 Y122.3 E15.11099
G1 X127.3 Y117.5 E15.27064
G1 X127.3 Y112.7 E15.43029
G1 X107.7 Y112.7 E16.08219
G1 X107.7 Y122.3 E16.40148
G0 F6000 X107.97 Y122.03
G0 X108.2 Y121.54
G0 X108.46 Y121.54
;TYPE:SKIN
G1 F1200 X126.54 Y121.54 E17.00283
G1 X126.54 Y117.5 E17.1372
G1 X126.54 Y113.46 E17.27157
G1 X108.46 Y113.46 E17.87291
G1 X108.46 Y121.54 E18.14165
G0 F6000 X108.894 Y121.339
G1 F1200 X108.659 Y121.104 E18.15271
G0 F6000 X108.659 Y120.539
G1 F1200 X109.46 Y121.339 E18.19036
G0 F6000 X110.025 Y121.339
G1 F1200 X108.659 Y119.973 E18.25461
G0 F6000 X108.659 Y119.407
G1 F1200 X110.591 Y121.339 E18.34549
G0 F6000 X111.157 Y121.339
G1 F1200 X108.659 Y118.842 E18.46296
G0 F6000 X108.659 Y118.276
G1 F1200 X111.722 Y121.339 E18.60704
G0 F6000 X112.288 Y121.339
G1 F1200 X108.659 Y117.71 E18.77773
G0 F6000 X108.659 Y117.144
G1 F1200 X112.854 Y121.339 E18.97505
G0 F6000 X113.419 Y121.339
G1 F1200 X108.659 Y116.579 E19.19895
G0 F6000 X108.659 Y116.013
G1 F1200 X113.985 Y121.339 E19.44947
G0 F6000 X114.551 Y121.339
G1 F1200 X108.659 Y115.447 E19.72661
G0 F6000 X108.659 Y114.882
G1 F1200 X115.116 Y121.339 E20.03033
G0 F6000 X115.682 Y121.339
G1 F1200 X108.659 Y114.316 E20.36067
G0 F6000 X108.659 Y113.75
G1 F1200 X116.248 Y121.339 E20.71763
G0 F6000 X116.814 Y121.339
G1 F1200 X109.134 Y113.659 E21.07887
G0 F6000 X109.699 Y113.659
G1 F1200 X117.379 Y121.339 E21.44012
G0 F6000 X117.945 Y121.339
G1 F1200 X110.265 Y113.659 E21.80136
G0 F6000 X110.831 Y113.659
G1 F1200 X118.511 Y121.339 E22.16261
G0 F6000 X119.076 Y121.339
G1 F1200 X111.396 Y113.659 E22.52385
G0 F6000 X111.962 Y113.659
G1 F1200 X119.642 Y121.339 E22.88509
G0 F6000 X120.208 Y121.339
G1 F1200 X112.528 Y113.659 E23.24634
G0 F6000 X113.093 Y113.659
G1 F1200 X120.773 Y121.339 E23.60758
G0 F6000 X121.339 Y121.339
G1 F1200 X113.659 Y113.659 E23.96882
G0 F6000 X114.225 Y113.659
G1 F1200 X121.905 Y121.339 E24.33007
G0 F6000 X122.47 Y121.339
G1 F1200 X114.791 Y113.659 E24.69129
G0 F6000 X115.356 Y113.659
G1 F1200 X123.036 Y121.339 E25.05253
G0 F6000 X123.602 Y121.339
G1 F1200 X115.922 Y113.659 E25.41377
G0 F6000 X116.488 Y113.659
G1 F1200 X124.167 Y121.339 E25.77499
G0 F6000 X124.733 Y121.339
G1 F1200 X117.053 Y113.659 E26.13624
G0 F6000 X117.619 Y113.659
G1 F1200 X125.299 Y121.339 E26.49748
G0 F6000 X125.865 Y121.339
G1 F1200 X118.185 Y113.659 E26.85873
G0 F6000 X118.75 Y113.659
G1 F1200 X126.339 Y121.248 E27.21569
G0 F6000 X126.339 Y120.682
G1 F1200 X119.316 Y113.659 E27.54603
G0 F6000 X119.882 Y113.659
G1 F1200 X126.339 Y120.116 E27.84975
G0 F6000 X126.339 Y119.551
G1 F1200 X120.447 Y113.659 E28.12689
G0 F6000 X121.013 Y113.659
G1 F1200 X126.339 Y118.985 E28.37741
G0 F6000 X126.339 Y118.419
G1 F1200 X121.579 Y113.659 E28.6013
G0 F6000 X122.144 Y113.659
G1 F1200 X126.339 Y117.854 E28.79862
G0 F6000 X126.339 Y117.288
G1 F1200 X122.71 Y113.659 E28.96932
G0 F6000 X123.276 Y113.659
G1 F1200 X126.339 Y116.722 E29.11339
G0 F6000 X126.339 Y116.157
G1 F1200 X123.841 Y113.659 E29.23089
G0 F6000 X124.407 Y113.659
G1 F1200 X126.339 Y115.591 E29.32177
G0 F6000 X126.339 Y115.025
G1 F1200 X124.973 Y113.659 E29.38602
G0 F6000 X125.539 Y113.659
G1 F1200 X126.339 Y114.46 E29.42367
G0 F6000 X126.339 Y113.894
G1 F1200 X126.104 Y113.659 E29.43473
;MESH:NONMESH
G0 F300 X126.104 Y113.659 Z0.4
G0 F6000 X126.104 Y113.2
G0 X108.272 Y113.272
G0 X108.1 Y121.9
;TIME_ELAPSED:53.873757
;LAYER:1
M106 S85
;TYPE:WALL-INNER
;MESH:TestCube_20x20x20.stl
G1 F1500 X126.9 Y121.9 E30.06002
G1 X126.9 Y117.5 E30.20636
G1 X126.9 Y113.1 E30.35271
G1 X108.1 Y113.1 E30.978
G1 X108.1 Y121.9 E31.27069
G0 F7500 X107.7 Y122.3
;TYPE:WALL-OUTER
G1 F1500 X127.3 Y122.3 E31.92258
G1 X127.3 Y117.5 E32.08223
G1 X127.3 Y112.7 E32.24188
G1 X107.7 Y112.7 E32.89378
G1 X107.7 Y122.3 E33.21308
G0 F7500 X107.97 Y122.03
G0 X108.2 Y121.54
G0 X108.46 Y121.54
;TYPE:SKIN
G1 F1500 X126.54 Y121.54 E33.81442
G1 X126.54 Y113.46 E34.08316
G1 X108.46 Y113.46 E34.68451
G1 X108.46 Y117.5 E34.81888
G1 X108.46 Y121.54 E34.95325
G0 F7500 X108.2 Y121.54
G0 X108.2 Y114.22
G0 X108.659 Y114.22
G1 F1500 X109.221 Y113.658 E34.97968
G0 F7500 X109.786 Y113.658
G1 F1500 X108.659 Y114.786 E35.03272
G0 F7500 X108.659 Y115.351
G1 F1500 X110.352 Y113.658 E35.11235
G0 F7500 X110.918 Y113.658
G1 F1500 X108.659 Y115.917 E35.21861
G0 F7500 X108.659 Y116.483
G1 F1500 X111.483 Y113.658 E35.35146
G0 F7500 X112.049 Y113.658
G1 F1500 X108.659 Y117.048 E35.51092
G0 F7500 X108.659 Y117.614
G1 F1500 X112.615 Y113.658 E35.697
G0 F7500 X113.18 Y113.658
G1 F1500 X108.659 Y118.18 E35.90967
G0 F7500 X108.659 Y118.745
G1 F1500 X113.746 Y113.658 E36.14895
G0 F7500 X114.312 Y113.658
G1 F1500 X108.659 Y119.311 E36.41485
G0 F7500 X108.659 Y119.877
G1 F1500 X114.877 Y113.658 E36.70735
G0 F7500 X115.443 Y113.658
G1 F1500 X108.659 Y120.442 E37.02645
G0 F7500 X108.659 Y121.008
G1 F1500 X116.009 Y113.658 E37.37217
G0 F7500 X116.575 Y113.658
G1 F1500 X108.893 Y121.34 E37.73351
G0 F7500 X109.459 Y121.34
G1 F1500 X117.14 Y113.658 E38.09482
G0 F7500 X117.706 Y113.658
G1 F1500 X110.025 Y121.34 E38.45614
G0 F7500 X110.59 Y121.34
G1 F1500 X118.272 Y113.658 E38.81747
G0 F7500 X118.837 Y113.658
G1 F1500 X111.156 Y121.34 E39.17879
G0 F7500 X111.722 Y121.34
G1 F1500 X119.403 Y113.658 E39.5401
G0 F7500 X119.969 Y113.658
G1 F1500 X112.287 Y121.34 E39.90144
G0 F7500 X112.853 Y121.34
G1 F1500 X120.534 Y113.658 E40.26275
G0 F7500 X121.1 Y113.658
G1 F1500 X113.419 Y121.34 E40.62407
G0 F7500 X113.984 Y121.34
G1 F1500 X121.666 Y113.658 E40.98541
G0 F7500 X122.231 Y113.658
G1 F1500 X114.55 Y121.34 E41.34672
G0 F7500 X115.116 Y121.34
G1 F1500 X122.797 Y113.658 E41.70803
G0 F7500 X123.363 Y113.658
G1 F1500 X115.681 Y121.34 E42.06937
G0 F7500 X116.247 Y121.34
G1 F1500 X123.928 Y113.658 E42.43069
G0 F7500 X124.494 Y113.658
G1 F1500 X116.813 Y121.34 E42.792
G0 F7500 X117.379 Y121.34
G1 F1500 X125.06 Y113.658 E43.15331
G0 F7500 X125.626 Y113.658
G1 F1500 X117.944 Y121.34 E43.51465
G0 F7500 X118.51 Y121.34
G1 F1500 X126.191 Y113.658 E43.87597
G0 F7500 X126.339 Y114.076
G1 F1500 X119.076 Y121.34 E44.21762
G0 F7500 X119.641 Y121.34
G1 F1500 X126.339 Y114.642 E44.53267
G0 F7500 X126.339 Y115.208
G1 F1500 X120.207 Y121.34 E44.8211
G0 F7500 X120.773 Y121.34
G1 F1500 X126.339 Y115.773 E45.08293
G0 F7500 X126.339 Y116.339
G1 F1500 X121.338 Y121.34 E45.31817
G0 F7500 X121.904 Y121.34
G1 F1500 X126.339 Y116.905 E45.52677
G0 F7500 X126.339 Y117.47
G1 F1500 X122.47 Y121.34 E45.70878
G0 F7500 X123.035 Y121.34
G1 F1500 X126.339 Y118.036 E45.86419
G0 F7500 X126.339 Y118.602
G1 F1500 X123.601 Y121.34 E45.99298
G0 F7500 X124.167 Y121.34
G1 F1500 X126.339 Y119.167 E46.09517
G0 F7500 X126.339 Y119.733
G1 F1500 X124.732 Y121.34 E46.17076
G0 F7500 X125.298 Y121.34
G1 F1500 X126.339 Y120.299 E46.21972
G0 F7500 X126.339 Y120.865
G1 F1500 X125.864 Y121.34 E46.24207
;MESH:NONMESH
G0 F300 X125.864 Y121.34 Z0.6
G0 F7500 X125.864 Y121.8
G0 X108.1 Y121.9
;TIME_ELAPSED:78.731711
;LAYER:2
M106 S170
;TYPE:WALL-INNER
;MESH:TestCube_20x20x20.stl
G1 F1800 X126.9 Y121.9 E46.86736
G1 X126.9 Y117.5 E47.0137
G1 X126.9 Y113.1 E47.16005
G1 X108.1 Y113.1 E47.78534
G1 X108.1 Y121.9 E48.07803
G0 F9000 X107.7 Y122.3
;TYPE:WALL-OUTER
G1 F1800 X127.3 Y122.3 E48.72992
G1 X127.3 Y117.5 E48.88957
G1 X127.3 Y112.7 E49.04922
G1 X107.7 Y112.7 E49.70112
G1 X107.7 Y122.3 E50.02042
G0 F9000 X107.97 Y122.03
G0 X108.2 Y121.54
G0 X108.46 Y121.54
;TYPE:SKIN
G1 F1800 X126.54 Y121.54 E50.62176
G1 X126.54 Y117.5 E50.75613
G1 X126.54 Y113.46 E50.8905
