;FLAVOR:Marlin
;TIME:2311
;Filament used: 2.21946m
;Layer height: 0.2
;MINX:80.819
;MINY:96.5
;MINZ:0.2
;MAXX:154.181
;MAXY:138.5
;MAXZ:13.8
;Generated with Cura_SteamEngine 5.2.1
M140 S70
M105
M190 S70
M104 S200
M105
M109 S200
M82 ;absolute extrusion mode
; Ender 3 Custom Start G-code
G92 E0 ; Reset Extruder
G28 ; Home all axes
G1 Z2.0 F3000 ; Move Z Axis up little to prevent scratching of Heat Bed
G1 X0.1 Y20 Z0.3 F5000.0 ; Move to start position
G1 X0.1 Y200.0 Z0.3 F1500.0 E15 ; Draw the first line
G1 X0.4 Y200.0 Z0.3 F5000.0 ; Move to side a little
G1 X0.4 Y20 Z0.3 F1500.0 E30 ; Draw the second line
G92 E0 ; Reset Extruder
G1 Z2.0 F3000 ; Move Z Axis up little to prevent scratching of Heat Bed
G1 X5 Y20 Z0.3 F5000.0 ; Move over to prevent blob squish
G92 E0
G92 E0
G1 F2700 E-5
;LAYER_COUNT:69
;LAYER:0
M107
G0 F6000 X84.705 Y99.127 Z0.2
;TYPE:SKIRT
G1 F2700 E0
G1 F1200 X85.445 Y98.551 E0.03119
G1 X86.231 Y98.039 E0.06239
G1 X87.058 Y97.597 E0.09358
G1 X87.92 Y97.227 E0.12478
G1 X88.81 Y96.931 E0.15597
G1 X89.722 Y96.713 E0.18716
G1 X90.649 Y96.572 E0.21835
G1 X91.52 Y96.513 E0.24738
G1 X92.149 Y96.5 E0.26831
G1 X142.632 Y96.501 E1.94738
G1 X143.33 Y96.511 E1.9706
G1 X144.266 Y96.565 E2.00178
G1 X145.194 Y96.697 E2.03296
G1 X146.108 Y96.909 E2.06416
G1 X147 Y97.198 E2.09535
G1 X147.865 Y97.561 E2.12655
G1 X148.695 Y97.997 E2.15773
G1 X149.486 Y98.502 E2.18895
G1 X150.23 Y99.073 E2.22014
G1 X150.923 Y99.705 E2.25134
G1 X151.56 Y100.393 E2.28252
G1 X152.135 Y101.134 E2.31372
G1 X152.646 Y101.92 E2.3449
G1 X153.088 Y102.748 E2.37612
G1 X153.457 Y103.61 E2.4073
G1 X153.752 Y104.5 E2.43849
G1 X153.97 Y105.412 E2.46968
G1 X154.11 Y106.34 E2.50089
G1 X154.168 Y107.201 E2.52959
G1 X154.181 Y107.83 E2.55052
G1 X154.18 Y126.9 E3.18479
G1 X154.171 Y127.627 E3.20897
G1 X154.12 Y128.564 E3.24018
G1 X153.988 Y129.492 E3.27136
G1 X153.779 Y130.406 E3.30254
G1 X153.492 Y131.299 E3.33374
G1 X153.13 Y132.165 E3.36496
G1 X152.696 Y132.996 E3.39614
G1 X152.192 Y133.787 E3.42733
G1 X151.623 Y134.532 E3.45851
G1 X150.992 Y135.227 E3.48974
G1 X150.305 Y135.865 E3.52092
G1 X149.566 Y136.442 E3.5521
G1 X148.78 Y136.954 E3.5833
G1 X147.954 Y137.397 E3.61448
G1 X147.092 Y137.769 E3.6457
G1 X146.203 Y138.065 E3.67687
G1 X145.291 Y138.285 E3.70807
G1 X144.364 Y138.426 E3.73926
G1 X143.48 Y138.487 E3.76873
G1 X142.851 Y138.5 E3.78965
G1 X92.384 Y138.499 E5.46819
G1 X91.686 Y138.49 E5.49141
G1 X90.75 Y138.438 E5.52259
G1 X89.821 Y138.306 E5.5538
G1 X88.907 Y138.096 E5.58499
G1 X88.014 Y137.809 E5.61619
G1 X87.149 Y137.446 E5.64739
G1 X86.318 Y137.012 E5.67857
G1 X85.527 Y136.508 E5.70977
G1 X84.782 Y135.938 E5.74097
G1 X84.088 Y135.307 E5.77216
G1 X83.451 Y134.62 E5.80332
G1 X82.874 Y133.88 E5.83453
G1 X82.362 Y133.094 E5.86573
G1 X81.919 Y132.267 E5.89694
G1 X81.548 Y131.406 E5.92812
G1 X81.252 Y130.516 E5.95932
G1 X81.033 Y129.604 E5.99051
G1 X80.892 Y128.677 E6.0217
G1 X80.832 Y127.788 E6.05133
G1 X80.819 Y127.158 E6.07229
G1 X80.82 Y108.025 E6.70866
G1 X80.829 Y107.36 E6.73078
G1 X80.882 Y106.424 E6.76196
G1 X81.014 Y105.495 E6.79317
G1 X81.225 Y104.581 E6.82437
G1 X81.513 Y103.689 E6.85554
G1 X81.876 Y102.824 E6.88674
G1 X82.311 Y101.993 E6.91794
G1 X82.815 Y101.203 E6.94911
G1 X83.385 Y100.458 E6.98031
G1 X84.017 Y99.764 E7.01153
G1 X84.705 Y99.127 E7.04271
G0 F6000 X85.093 Y99.323
G1 F1200 X85.829 Y98.77 E7.07333
G1 X86.61 Y98.282 E7.10396
G1 X87.43 Y97.864 E7.13457
G1 X88.284 Y97.519 E7.16521
G1 X89.164 Y97.249 E7.19582
G1 X90.064 Y97.057 E7.22643
G1 X90.978 Y96.943 E7.25707
G1 X91.531 Y96.913 E7.27549
G1 X92.149 Y96.9 E7.29605
G1 X142.474 Y96.9 E8.96986
G1 X143.324 Y96.911 E8.99814
G1 X144.243 Y96.964 E9.02875
G1 X145.154 Y97.097 E9.05937
G1 X146.05 Y97.308 E9.08999
G1 X146.924 Y97.596 E9.1206
G1 X147.771 Y97.959 E9.15125
G1 X148.582 Y98.394 E9.18186
G1 X149.352 Y98.898 E9.21246
G1 X150.076 Y99.467 E9.24309
G1 X150.748 Y100.097 E9.27373
G1 X151.363 Y100.782 E9.30435
G1 X151.916 Y101.518 E9.33497
G1 X152.403 Y102.299 E9.36558
G1 X152.82 Y103.12 E9.39621
G1 X153.165 Y103.974 E9.42684
G1 X153.434 Y104.854 E9.45745
G1 X153.626 Y105.755 E9.48809
G1 X153.739 Y106.668 E9.51868
G1 X153.768 Y107.212 E9.5368
G1 X153.781 Y107.83 E9.55736
G1 X153.78 Y126.895 E10.19147
G1 X153.771 Y127.622 E10.21565
G1 X153.72 Y128.541 E10.24626
G1 X153.589 Y129.453 E10.27691
G1 X153.379 Y130.349 E10.30752
G1 X153.093 Y131.224 E10.33813
G1 X152.732 Y132.071 E10.36876
G1 X152.298 Y132.883 E10.39938
G1 X151.796 Y133.655 E10.43001
G1 X151.228 Y134.38 E10.46064
G1 X150.6 Y135.053 E10.49126
G1 X149.916 Y135.669 E10.52187
G1 X149.181 Y136.223 E10.55248
G1 X148.401 Y136.712 E10.5831
G1 X147.581 Y137.131 E10.61373
G1 X146.728 Y137.477 E10.64435
G1 X145.848 Y137.748 E10.67497
G1 X144.948 Y137.941 E10.70559
G1 X144.034 Y138.056 E10.73623
G1 X143.469 Y138.087 E10.75505
G1 X142.851 Y138.1 E10.77561
G1 X92.389 Y138.099 E12.45398
G1 X91.691 Y138.09 E12.4772
G1 X90.772 Y138.038 E12.50781
G1 X89.861 Y137.907 E12.53842
G1 X88.965 Y137.697 E12.56903
G1 X88.09 Y137.41 E12.59966
G1 X87.243 Y137.048 E12.6303
G1 X86.431 Y136.614 E12.66092
G1 X85.66 Y136.112 E12.69152
G1 X84.935 Y135.544 E12.72215
G1 X84.262 Y134.915 E12.75279
G1 X83.647 Y134.231 E12.78339
G1 X83.093 Y133.496 E12.814
G1 X82.605 Y132.715 E12.84463
G1 X82.186 Y131.895 E12.87526
G1 X81.84 Y131.042 E12.90587
G1 X81.57 Y130.162 E12.93649
G1 X81.377 Y129.261 E12.96713
G1 X81.263 Y128.348 E12.99774
G1 X81.232 Y127.777 E13.01676
G1 X81.219 Y127.158 E13.03735
G1 X81.22 Y108.031 E13.67352
G1 X81.229 Y107.366 E13.69564
G1 X81.281 Y106.446 E13.72628
G1 X81.413 Y105.535 E13.7569
G1 X81.624 Y104.639 E13.78752
G1 X81.911 Y103.764 E13.81814
G1 X82.274 Y102.918 E13.84876
G1 X82.708 Y102.106 E13.87939
G1 X83.211 Y101.335 E13.91
G1 X83.78 Y100.611 E13.94063
G1 X84.408 Y99.939 E13.97122
G1 X85.093 Y99.323 E14.00186
G0 F6000 X85.481 Y99.524
G1 F1200 X86.213 Y98.994 E14.03192
G1 X86.988 Y98.531 E14.06195
G1 X87.801 Y98.138 E14.09198
G1 X88.646 Y97.818 E14.12203
G1 X89.515 Y97.575 E14.15205
G1 X90.403 Y97.409 E14.18209
G1 X91.542 Y97.313 E14.22011
G1 X92.149 Y97.3 E14.2403
G1 X142.474 Y97.3 E15.91412
G1 X143.318 Y97.311 E15.94219
G1 X144.22 Y97.364 E15.97225
G1 X145.113 Y97.496 E16.00227
G1 X145.991 Y97.707 E16.0323
G1 X146.847 Y97.995 E16.06234
G1 X147.674 Y98.357 E16.09237
G1 X148.466 Y98.792 E16.12242
G1 X149.217 Y99.294 E16.15247
G1 X149.92 Y99.861 E16.18251
G1 X150.57 Y100.488 E16.21255
G1 X151.162 Y101.17 E16.24258
G1 X151.692 Y101.901 E16.27261
G1 X152.154 Y102.677 E16.30265
G1 X152.547 Y103.49 E16.33269
G1 X152.865 Y104.335 E16.36271
G1 X153.108 Y105.205 E16.39276
G1 X153.273 Y106.093 E16.4228
G1 X153.368 Y107.223 E16.46052
G1 X153.381 Y107.83 E16.48071
G1 X153.38 Y126.89 E17.11465
G1 X153.371 Y127.617 E17.13883
G1 X153.32 Y128.519 E17.16888
G1 X153.189 Y129.413 E17.19893
G1 X152.98 Y130.291 E17.22895
G1 X152.694 Y131.148 E17.259
G1 X152.333 Y131.976 E17.28904
G1 X151.901 Y132.768 E17.31905
G1 X151.4 Y133.52 E17.3491
G1 X150.834 Y134.224 E17.37914
G1 X150.209 Y134.875 E17.40916
G1 X149.528 Y135.469 E17.43922
G1 X148.797 Y136 E17.46927
G1 X148.023 Y136.464 E17.49928
G1 X147.21 Y136.858 E17.52933
G1 X146.366 Y137.178 E17.55935
G1 X145.496 Y137.423 E17.58941
G1 X144.609 Y137.589 E17.61943
G1 X143.458 Y137.687 E17.65785
G1 X142.851 Y137.7 E17.67804
G1 X92.394 Y137.699 E19.35625
G1 X91.696 Y137.69 E19.37947
G1 X90.795 Y137.639 E19.40948
G1 X89.901 Y137.507 E19.43954
G1 X89.023 Y137.298 E19.46956
G1 X88.166 Y137.011 E19.49962
G1 X87.339 Y136.65 E19.52963
G1 X86.546 Y136.217 E19.55968
G1 X85.795 Y135.716 E19.58971
G1 X85.091 Y135.15 E19.61975
G1 X84.44 Y134.524 E19.64979
G1 X83.847 Y133.843 E19.67982
G1 X83.317 Y133.112 E19.70985
G1 X82.853 Y132.337 E19.7399
G1 X82.459 Y131.524 E19.76995
G1 X82.139 Y130.68 E19.79997
G1 X81.895 Y129.81 E19.83002
G1 X81.729 Y128.922 E19.86007
G1 X81.632 Y127.767 E19.89862
G1 X81.619 Y127.158 E19.91888
G1 X81.62 Y108.036 E20.55488
G1 X81.629 Y107.371 E20.577
G1 X81.681 Y106.469 E20.60705
G1 X81.813 Y105.576 E20.63707
G1 X82.023 Y104.698 E20.6671
G1 X82.31 Y103.841 E20.69716
G1 X82.672 Y103.014 E20.72718
G1 X83.105 Y102.222 E20.75721
G1 X83.607 Y101.471 E20.78725
G1 X84.174 Y100.767 E20.81732
G1 X84.8 Y100.117 E20.84733
G1 X85.481 Y99.524 E20.87737
G1 F2700 E15.87737
;MESH:TestCube_20x20x20.stl
G0 F6000 X92.233 Y106.835
G0 X92.419 Y126.9
;TYPE:WALL-INNER
G1 F2700 E20.87737
G1 F1200 X142.581 Y126.9 E22.54576
G1 X142.581 Y117.5 E22.85841
G1 X142.581 Y108.1 E23.17105
G1 X92.419 Y108.1 E24.83945
G1 X92.419 Y126.9 E25.46474
G0 F6000 X92.019 Y127.3
;TYPE:WALL-OUTER
G1 F1200 X142.981 Y127.3 E27.15974
G1 X142.981 Y117.5 E27.48569
G1 X142.981 Y107.7 E27.81164
G1 X92.019 Y107.7 E29.50664
G1 X92.019 Y127.3 E30.15854
G0 F6000 X92.289 Y127.03
G0 X92.519 Y126.54
G0 X92.779 Y126.54
;TYPE:SKIN
G1 F1200 X142.221 Y126.54 E31.80299
G1 X142.221 Y117.5 E32.10366
G1 X142.221 Y108.46 E32.40433
G1 X92.779 Y108.46 E34.04878
G1 X92.779 Y126.54 E34.65012
G0 F6000 X93.529 Y126.338
G1 F1200 X92.978 Y125.788 E34.67602
G0 F6000 X92.978 Y125.222
G1 F1200 X94.094 Y126.338 E34.72851
G0 F6000 X94.66 Y126.338
G1 F1200 X92.978 Y124.657 E34.8076
G0 F6000 X92.978 Y124.091
G1 F1200 X95.226 Y126.338 E34.91332
G0 F6000 X95.791 Y126.338
G1 F1200 X92.978 Y123.525 E35.04563
G0 F6000 X92.978 Y122.96
G1 F1200 X96.357 Y126.338 E35.20455
G0 F6000 X96.923 Y126.338
G1 F1200 X92.978 Y122.394 E35.39008
G0 F6000 X92.978 Y121.828
G1 F1200 X97.488 Y126.338 E35.60222
G0 F6000 X98.054 Y126.338
G1 F1200 X92.978 Y121.263 E35.84096
G0 F6000 X92.978 Y120.697
G1 F1200 X98.62 Y126.338 E36.10631
G0 F6000 X99.185 Y126.338
G1 F1200 X92.978 Y120.131 E36.39827
G0 F6000 X92.978 Y119.566
G1 F1200 X99.751 Y126.338 E36.71683
G0 F6000 X100.317 Y126.338
G1 F1200 X92.978 Y119 E37.06201
G0 F6000 X92.978 Y118.434
G1 F1200 X100.882 Y126.338 E37.43379
G0 F6000 X101.448 Y126.338
G1 F1200 X92.978 Y117.869 E37.83217
G0 F6000 X92.978 Y117.303
G1 F1200 X102.014 Y126.338 E38.25717
G0 F6000 X102.579 Y126.338
G1 F1200 X92.978 Y116.737 E38.70877
G0 F6000 X92.978 Y116.171
G1 F1200 X103.145 Y126.338 E39.187
G0 F6000 X103.711 Y126.338
G1 F1200 X92.978 Y115.606 E39.69182
G0 F6000 X92.978 Y115.04
G1 F1200 X104.277 Y126.338 E40.22327
G0 F6000 X104.842 Y126.338
G1 F1200 X92.978 Y114.474 E40.78132
G0 F6000 X92.978 Y113.909
G1 F1200 X105.408 Y126.338 E41.36596
G0 F6000 X105.974 Y126.338
G1 F1200 X92.978 Y113.343 E41.97723
G0 F6000 X92.978 Y112.777
G1 F1200 X106.539 Y126.338 E42.6151
G0 F6000 X107.105 Y126.338
G1 F1200 X92.978 Y112.212 E43.27956
G0 F6000 X92.978 Y111.646
G1 F1200 X107.671 Y126.338 E43.97065
G0 F6000 X108.236 Y126.338
G1 F1200 X92.978 Y111.08 E44.68834
G0 F6000 X92.978 Y110.515
G1 F1200 X108.802 Y126.338 E45.43263
G0 F6000 X109.368 Y126.338
G1 F1200 X92.978 Y109.949 E46.20354
G0 F6000 X92.978 Y109.383
G1 F1200 X109.933 Y126.338 E47.00106
G0 F6000 X110.499 Y126.338
G1 F1200 X92.978 Y108.818 E47.82517
G0 F6000 X93.386 Y108.66
G1 F1200 X111.065 Y126.338 E48.65671
G0 F6000 X111.63 Y126.338
G1 F1200 X93.952 Y108.66 E49.48823
G0 F6000 X94.518 Y108.66
G1 F1200 X112.196 Y126.338 E50.31975
G0 F6000 X112.762 Y126.338
G1 F1200 X95.083 Y108.66 E51.15129
G0 F6000 X95.649 Y108.66
G1 F1200 X113.328 Y126.338 E51.98283
G0 F6000 X113.893 Y126.338
G1 F1200 X96.215 Y108.66 E52.81435
G0 F6000 X96.78 Y108.66
G1 F1200 X114.459 Y126.338 E53.64589
G0 F6000 X115.025 Y126.338
G1 F1200 X97.346 Y108.66 E54.47744
G0 F6000 X97.912 Y108.66
G1 F1200 X115.59 Y126.338 E55.30895
G0 F6000 X116.156 Y126.338
G1 F1200 X98.478 Y108.66 E56.14047
G0 F6000 X99.043 Y108.66
G1 F1200 X116.722 Y126.338 E56.97202
G0 F6000 X117.287 Y126.338
G1 F1200 X99.609 Y108.66 E57.80353
G0 F6000 X100.175 Y108.66
G1 F1200 X117.853 Y126.338 E58.63505
G0 F6000 X118.419 Y126.338
G1 F1200 X100.74 Y108.66 E59.4666
G0 F6000 X101.306 Y108.66
G1 F1200 X118.984 Y126.338 E60.29812
G0 F6000 X119.55 Y126.338
G1 F1200 X101.872 Y108.66 E61.12963
G0 F6000 X102.437 Y108.66
G1 F1200 X120.116 Y126.338 E61.96118
G0 F6000 X120.681 Y126.338
G1 F1200 X103.003 Y108.66 E62.7927
G0 F6000 X103.569 Y108.66
G1 F1200 X121.247 Y126.338 E63.62421
G0 F6000 X121.813 Y126.338
G1 F1200 X104.134 Y108.66 E64.45576
G0 F6000 X104.7 Y108.66
G1 F1200 X122.378 Y126.338 E65.28728
G0 F6000 X122.944 Y126.338
G1 F1200 X105.266 Y108.66 E66.11879
G0 F6000 X105.831 Y108.66
G1 F1200 X123.51 Y126.338 E66.95034
G0 F6000 X124.076 Y126.338
G1 F1200 X106.397 Y108.66 E67.78188
G0 F6000 X106.963 Y108.66
G1 F1200 X124.641 Y126.338 E68.6134
G0 F6000 X125.207 Y126.338
G1 F1200 X107.529 Y108.66 E69.44492
G0 F6000 X108.094 Y108.66
G1 F1200 X125.773 Y126.338 E70.27646
G0 F6000 X126.338 Y126.338
G1 F1200 X108.66 Y108.66 E71.10798
G0 F6000 X109.226 Y108.66
G1 F1200 X126.904 Y126.338 E71.9395
G0 F6000 X127.47 Y126.338
G1 F1200 X109.791 Y108.66 E72.77104
G0 F6000 X110.357 Y108.66
G1 F1200 X128.035 Y126.338 E73.60256
G0 F6000 X128.601 Y126.338
G1 F1200 X110.923 Y108.66 E74.43408
G0 F6000 X111.488 Y108.66
G1 F1200 X129.167 Y126.338 E75.26562
G0 F6000 X129.732 Y126.338
G1 F1200 X112.054 Y108.66 E76.09714
G0 F6000 X112.62 Y108.66
G1 F1200 X130.298 Y126.338 E76.92866
G0 F6000 X130.864 Y126.338
G1 F1200 X113.185 Y108.66 E77.7602
G0 F6000 X113.751 Y108.66
G1 F1200 X131.429 Y126.338 E78.59172
G0 F6000 X131.995 Y126.338
G1 F1200 X114.317 Y108.66 E79.42324
G0 F6000 X114.882 Y108.66
G1 F1200 X132.561 Y126.338 E80.25478
G0 F6000 X133.126 Y126.338
G1 F1200 X115.448 Y108.66 E81.0863
G0 F6000 X116.014 Y108.66
G1 F1200 X133.692 Y126.338 E81.91782
G0 F6000 X134.258 Y126.338
G1 F1200 X116.579 Y108.66 E82.74936
G0 F6000 X117.145 Y108.66
G1 F1200 X134.824 Y126.338 E83.5809
G0 F6000 X135.389 Y126.338
G1 F1200 X117.711 Y108.66 E84.41242
G0 F6000 X118.277 Y108.66
G1 F1200 X135.955 Y126.338 E85.24394
G0 F6000 X136.521 Y126.338
G1 F1200 X118.842 Y108.66 E86.07548
G0 F6000 X119.408 Y108.66
G1 F1200 X137.086 Y126.338 E86.907
G0 F6000 X137.652 Y126.338
G1 F1200 X119.974 Y108.66 E87.73852
G0 F6000 X120.539 Y108.66
G1 F1200 X138.218 Y126.338 E88.57006
G0 F6000 X138.783 Y126.338
G1 F1200 X121.105 Y108.66 E89.40158
G0 F6000 X121.671 Y108.66
G1 F1200 X139.349 Y126.338 E90.2331
G0 F6000 X139.915 Y126.338
G1 F1200 X122.236 Y108.66 E91.06464
G0 F6000 X122.802 Y108.66
G1 F1200 X140.48 Y126.338 E91.89616
G0 F6000 X141.046 Y126.338
G1 F1200 X123.368 Y108.66 E92.72768
G0 F6000 X123.933 Y108.66
G1 F1200 X141.612 Y126.338 E93.55922
G0 F6000 X142.02 Y126.181
G1 F1200 X124.499 Y108.66 E94.38336
G0 F6000 X125.065 Y108.66
G1 F1200 X142.02 Y125.615 E95.18087
G0 F6000 X142.02 Y125.049
G1 F1200 X125.63 Y108.66 E95.95178
G0 F6000 X126.196 Y108.66
G1 F1200 X142.02 Y124.484 E96.69609
G0 F6000 X142.02 Y123.918
G1 F1200 X126.762 Y108.66 E97.41378
G0 F6000 X127.328 Y108.66
G1 F1200 X142.02 Y123.352 E98.10485
G0 F6000 X142.02 Y122.786
G1 F1200 X127.893 Y108.66 E98.76932
G0 F6000 X128.459 Y108.66
G1 F1200 X142.02 Y122.221 E99.40719
G0 F6000 X142.02 Y121.655
G1 F1200 X129.025 Y108.66 E100.01843
G0 F6000 X129.59 Y108.66
G1 F1200 X142.02 Y121.089 E100.60308
G0 F6000 X142.02 Y120.524
G1 F1200 X130.156 Y108.66 E101.16112
G0 F6000 X130.722 Y108.66
G1 F1200 X142.02 Y119.958 E101.69255
G0 F6000 X142.02 Y119.392
G1 F1200 X131.287 Y108.66 E102.19737
G0 F6000 X131.853 Y108.66
G1 F1200 X142.02 Y118.827 E102.67559
G0 F6000 X142.02 Y118.261
G1 F1200 X132.419 Y108.66 E103.1272
G0 F6000 X132.984 Y108.66
G1 F1200 X142.02 Y117.695 E103.5522
G0 F6000 X142.02 Y117.13
G1 F1200 X133.55 Y108.66 E103.9506
G0 F6000 X134.116 Y108.66
G1 F1200 X142.02 Y116.564 E104.32238
G0 F6000 X142.02 Y115.998
G1 F1200 X134.681 Y108.66 E104.66756
G0 F6000 X135.247 Y108.66
G1 F1200 X142.02 Y115.433 E104.98614
G0 F6000 X142.02 Y114.867
G1 F1200 X135.813 Y108.66 E105.2781
G0 F6000 X136.378 Y108.66
G1 F1200 X142.02 Y114.301 E105.54346
G0 F6000 X142.02 Y113.736
G1 F1200 X136.944 Y108.66 E105.78222
G0 F6000 X137.51 Y108.66
G1 F1200 X142.02 Y113.17 E105.99436
G0 F6000 X142.02 Y112.604
G1 F1200 X138.076 Y108.66 E106.17987
G0 F6000 X138.641 Y108.66
G1 F1200 X142.02 Y112.038 E106.33878
G0 F6000 X142.02 Y111.473
G1 F1200 X139.207 Y108.66 E106.4711
G0 F6000 X139.773 Y108.66
