;FLAVOR:Marlin
;TIME:270
;Filament used: 0.0751049m
;Layer height: 0.2
;MINX:103.243
;MINY:103.242
;MINZ:0.2
;MAXX:131.757
;MAXY:131.758
;MAXZ:17.2
;Generated with Cura_SteamEngine 5.2.1
M140 S70
M105
M190 S70
M104 S200
M105
M109 S200
M82 ;absolute extrusion mode
; Ender 3 Custom Start G-code
G92 E0 ; Reset Extruder
G28 ; Home all axes
G1 Z2.0 F3000 ; Move Z Axis up little to prevent scratching of Heat Bed
G1 X0.1 Y20 Z0.3 F5000.0 ; Move to start position
G1 X0.1 Y200.0 Z0.3 F1500.0 E15 ; Draw the first line
G1 X0.4 Y200.0 Z0.3 F5000.0 ; Move to side a little
G1 X0.4 Y20 Z0.3 F1500.0 E30 ; Draw the second line
G92 E0 ; Reset Extruder
G1 Z2.0 F3000 ; Move Z Axis up little to prevent scratching of Heat Bed
G1 X5 Y20 Z0.3 F5000.0 ; Move over to prevent blob squish
G92 E0
G92 E0
G1 F2700 E-5
;LAYER_COUNT:86
;LAYER:0
M107
G0 F6000 X107.16 Y107.675 Z0.2
;TYPE:SKIRT
G1 F2700 E0
G1 F1200 X107.831 Y107.019 E0.03121
G1 X108.342 Y106.589 E0.05342
G1 X108.777 Y106.244 E0.07189
G1 X109.274 Y105.867 E0.09264
G1 X110.049 Y105.34 E0.12381
G1 X110.867 Y104.88 E0.15502
G1 X111.444 Y104.608 E0.17624
G1 X112.001 Y104.365 E0.19645
G1 X112.583 Y104.127 E0.21737
G1 X113.469 Y103.82 E0.24855
G1 X114.378 Y103.589 E0.27975
G1 X114.994 Y103.478 E0.30057
G1 X115.579 Y103.39 E0.32024
G1 X116.231 Y103.309 E0.34209
G1 X117.167 Y103.242 E0.3733
G1 X118.105 Y103.256 E0.40451
G1 X118.72 Y103.308 E0.42503
G1 X119.292 Y103.373 E0.44418
G1 X119.876 Y103.452 E0.46378
G1 X120.798 Y103.625 E0.49498
G1 X121.702 Y103.875 E0.52618
G1 X122.332 Y104.101 E0.54844
G1 X122.875 Y104.314 E0.56784
G1 X123.45 Y104.554 E0.58856
G1 X124.295 Y104.961 E0.61976
G1 X125.103 Y105.438 E0.65097
G1 X125.66 Y105.824 E0.67351
G1 X126.15 Y106.187 E0.69379
G1 X126.615 Y106.548 E0.71337
G1 X127.325 Y107.16 E0.74455
G1 X127.981 Y107.831 E0.77576
G1 X128.411 Y108.342 E0.79797
G1 X128.756 Y108.777 E0.81643
G1 X129.129 Y109.268 E0.83694
G1 X129.657 Y110.043 E0.86813
G1 X130.117 Y110.861 E0.89935
G1 X130.398 Y111.457 E0.92126
G1 X130.635 Y112.002 E0.94103
G1 X130.863 Y112.559 E0.96105
G1 X131.173 Y113.445 E0.99227
G1 X131.406 Y114.353 E1.02345
G1 X131.522 Y114.994 E1.04511
G1 X131.61 Y115.579 E1.06479
G1 X131.691 Y116.226 E1.08648
G1 X131.757 Y117.161 E1.11765
G1 X131.744 Y118.099 E1.14885
G1 X131.693 Y118.705 E1.16908
G1 X131.63 Y119.266 E1.18786
G1 X131.55 Y119.862 E1.20786
G1 X131.379 Y120.784 E1.23905
G1 X131.129 Y121.688 E1.27024
G1 X130.896 Y122.339 E1.29324
G1 X130.682 Y122.883 E1.31268
G1 X130.458 Y123.421 E1.33206
G1 X130.054 Y124.268 E1.36328
G1 X129.579 Y125.077 E1.39448
G1 X129.176 Y125.66 E1.41805
G1 X128.816 Y126.146 E1.43817
G1 X128.456 Y126.611 E1.45773
G1 X127.843 Y127.321 E1.48893
G1 X127.173 Y127.977 E1.52011
G1 X126.658 Y128.411 E1.54251
G1 X126.223 Y128.756 E1.56098
G1 X125.726 Y129.133 E1.58173
G1 X124.951 Y129.66 E1.6129
G1 X124.133 Y130.12 E1.64411
G1 X123.556 Y130.392 E1.66533
G1 X122.999 Y130.635 E1.68554
G1 X122.417 Y130.873 E1.70645
G1 X121.531 Y131.18 E1.73764
G1 X120.622 Y131.411 E1.76884
G1 X120.006 Y131.522 E1.78965
G1 X119.421 Y131.61 E1.80933
G1 X118.769 Y131.691 E1.83118
G1 X117.833 Y131.758 E1.86239
G1 X116.895 Y131.744 E1.8936
G1 X116.28 Y131.692 E1.91412
G1 X115.708 Y131.627 E1.93327
G1 X115.124 Y131.548 E1.95287
G1 X114.202 Y131.375 E1.98407
G1 X113.298 Y131.125 E2.01527
G1 X112.668 Y130.899 E2.03753
G1 X112.125 Y130.686 E2.05693
G1 X111.55 Y130.446 E2.07765
G1 X110.705 Y130.039 E2.10885
G1 X109.897 Y129.562 E2.14006
G1 X109.34 Y129.176 E2.1626
G1 X108.85 Y128.813 E2.18288
G1 X108.385 Y128.452 E2.20246
G1 X107.675 Y127.84 E2.23363
G1 X107.019 Y127.169 E2.26484
G1 X106.589 Y126.658 E2.28706
G1 X106.244 Y126.223 E2.30552
G1 X105.871 Y125.732 E2.32603
G1 X105.343 Y124.957 E2.35722
G1 X104.883 Y124.139 E2.38844
G1 X104.603 Y123.546 E2.41025
G1 X104.361 Y122.99 E2.43042
G1 X104.127 Y122.417 E2.451
G1 X103.82 Y121.531 E2.48219
G1 X103.589 Y120.622 E2.51338
G1 X103.478 Y120.006 E2.5342
G1 X103.39 Y119.421 E2.55388
G1 X103.309 Y118.774 E2.57557
G1 X103.243 Y117.839 E2.60674
G1 X103.256 Y116.901 E2.63794
G1 X103.308 Y116.281 E2.65864
G1 X103.374 Y115.7 E2.67808
G1 X103.454 Y115.113 E2.69779
G1 X103.628 Y114.191 E2.729
G1 X103.879 Y113.287 E2.7602
G1 X104.098 Y112.675 E2.78182
G1 X104.311 Y112.131 E2.80125
G1 X104.554 Y111.55 E2.8222
G1 X104.961 Y110.705 E2.85339
G1 X105.438 Y109.897 E2.8846
G1 X105.824 Y109.34 E2.90714
G1 X106.187 Y108.85 E2.92742
G1 X106.548 Y108.385 E2.947
G1 X107.16 Y107.675 E2.97818
G0 F6000 X107.463 Y107.936
G1 F1200 X108.123 Y107.294 E3.0088
G1 X108.59 Y106.902 E3.02908
G1 X109.025 Y106.557 E3.04755
G1 X109.512 Y106.188 E3.06787
G1 X110.274 Y105.671 E3.0985
G1 X111.078 Y105.222 E3.12912
G1 X111.604 Y104.974 E3.14847
G1 X112.161 Y104.731 E3.16868
G1 X112.73 Y104.499 E3.18912
G1 X113.6 Y104.198 E3.21974
G1 X114.493 Y103.974 E3.25036
G1 X115.053 Y103.874 E3.26928
G1 X115.638 Y103.786 E3.28895
G1 X116.277 Y103.706 E3.31037
G1 X117.195 Y103.642 E3.34098
G1 X118.116 Y103.657 E3.37162
G1 X118.675 Y103.706 E3.39028
G1 X119.247 Y103.771 E3.40943
G1 X119.82 Y103.848 E3.42866
G1 X120.724 Y104.018 E3.45925
G1 X121.611 Y104.266 E3.48988
G1 X122.186 Y104.473 E3.51021
G1 X122.729 Y104.686 E3.52961
G1 X123.292 Y104.922 E3.54991
G1 X124.122 Y105.322 E3.58056
G1 X124.913 Y105.791 E3.61114
G1 X125.422 Y106.146 E3.63178
G1 X125.912 Y106.509 E3.65207
G1 X126.367 Y106.862 E3.67122
G1 X127.064 Y107.463 E3.70183
G1 X127.706 Y108.123 E3.73245
G1 X128.098 Y108.59 E3.75273
G1 X128.636 Y109.275 E3.7817
G1 X128.809 Y109.507 E3.79133
G1 X129.326 Y110.269 E3.82196
G1 X129.776 Y111.072 E3.85257
G1 X130.032 Y111.617 E3.8726
G1 X130.269 Y112.162 E3.89237
G1 X130.491 Y112.707 E3.91194
G1 X130.795 Y113.577 E3.94259
G1 X131.021 Y114.469 E3.9732
G1 X131.126 Y115.053 E3.99293
G1 X131.214 Y115.638 E4.01261
G1 X131.293 Y116.271 E4.03382
G1 X131.358 Y117.189 E4.06443
G1 X131.343 Y118.11 E4.09507
G1 X131.296 Y118.66 E4.11343
G1 X131.233 Y119.221 E4.13221
G1 X131.154 Y119.806 E4.15184
G1 X130.985 Y120.711 E4.18246
G1 X130.738 Y121.598 E4.21309
G1 X130.524 Y122.192 E4.23408
G1 X130.199 Y123.009 E4.26333
G1 X130.09 Y123.265 E4.27258
G1 X129.693 Y124.095 E4.30318
G1 X129.225 Y124.888 E4.33381
G1 X128.855 Y125.421 E4.35539
G1 X128.495 Y125.907 E4.37551
G1 X128.142 Y126.363 E4.39469
G1 X127.54 Y127.06 E4.42532
G1 X126.881 Y127.702 E4.45592
G1 X126.41 Y128.098 E4.47639
G1 X125.975 Y128.443 E4.49485
G1 X125.488 Y128.812 E4.51517
G1 X124.726 Y129.329 E4.5458
G1 X123.922 Y129.778 E4.57643
G1 X123.396 Y130.026 E4.59577
G1 X122.839 Y130.269 E4.61598
G1 X122.27 Y130.501 E4.63642
G1 X121.4 Y130.802 E4.66704
G1 X120.507 Y131.026 E4.69766
G1 X119.947 Y131.126 E4.71658
G1 X119.362 Y131.214 E4.73626
G1 X118.723 Y131.294 E4.75768
G1 X117.805 Y131.358 E4.78828
G1 X116.884 Y131.343 E4.81892
G1 X116.325 Y131.294 E4.83759
G1 X115.753 Y131.229 E4.85673
G1 X115.18 Y131.152 E4.87596
G1 X114.276 Y130.982 E4.90656
G1 X113.389 Y130.734 E4.93719
G1 X112.814 Y130.527 E4.95752
G1 X112.271 Y130.314 E4.97692
G1 X111.708 Y130.078 E4.99722
G1 X110.878 Y129.678 E5.02786
G1 X110.087 Y129.209 E5.05845
G1 X109.578 Y128.854 E5.07909
G1 X109.088 Y128.491 E5.09937
G1 X108.633 Y128.138 E5.11853
G1 X107.936 Y127.537 E5.14914
G1 X107.294 Y126.877 E5.17976
G1 X106.902 Y126.41 E5.20004
G1 X106.364 Y125.725 E5.22901
G1 X106.191 Y125.493 E5.23864
G1 X105.674 Y124.731 E5.26926
G1 X105.224 Y123.928 E5.29988
G1 X104.97 Y123.386 E5.31979
G1 X104.728 Y122.83 E5.33995
G1 X104.499 Y122.27 E5.36008
G1 X104.198 Y121.4 E5.3907
G1 X103.974 Y120.507 E5.42132
G1 X103.874 Y119.947 E5.44024
G1 X103.786 Y119.362 E5.45991
G1 X103.707 Y118.729 E5.48113
G1 X103.642 Y117.811 E5.51174
G1 X103.657 Y116.89 E5.54238
G1 X103.706 Y116.327 E5.56117
G1 X103.772 Y115.746 E5.58062
G1 X103.85 Y115.17 E5.59995
G1 X104.021 Y114.265 E5.63059
G1 X104.27 Y113.379 E5.6612
G1 X104.471 Y112.821 E5.68092
G1 X104.684 Y112.277 E5.70036
G1 X104.922 Y111.708 E5.72087
G1 X105.322 Y110.878 E5.75151
G1 X105.791 Y110.087 E5.7821
G1 X106.146 Y109.578 E5.80274
G1 X106.509 Y109.088 E5.82302
G1 X106.862 Y108.633 E5.84218
G1 X107.463 Y107.936 E5.87279
G0 F6000 X107.766 Y108.198
G1 F1200 X108.415 Y107.57 E5.90282
G1 X108.839 Y107.215 E5.92122
G1 X109.274 Y106.87 E5.93968
G1 X109.751 Y106.509 E5.95958
G1 X110.499 Y106.002 E5.98963
G1 X111.288 Y105.563 E6.01966
G1 X111.764 Y105.341 E6.03713
G1 X112.321 Y105.098 E6.05735
G1 X112.877 Y104.871 E6.07732
G1 X113.731 Y104.577 E6.10736
G1 X114.607 Y104.359 E6.13738
G1 X115.113 Y104.269 E6.15448
G1 X115.698 Y104.181 E6.17415
G1 X116.322 Y104.104 E6.19507
G1 X117.223 Y104.041 E6.22511
G1 X118.126 Y104.059 E6.25515
G1 X118.63 Y104.103 E6.27197
G1 X119.202 Y104.168 E6.29112
G1 X119.763 Y104.244 E6.30995
G1 X120.65 Y104.412 E6.33998
G1 X121.519 Y104.657 E6.37001
G1 X122.04 Y104.845 E6.38843
G1 X122.583 Y105.058 E6.40783
G1 X123.134 Y105.29 E6.42771
G1 X123.948 Y105.682 E6.45776
G1 X124.723 Y106.145 E6.48779
G1 X125.184 Y106.467 E6.50649
G1 X125.674 Y106.83 E6.52677
G1 X126.119 Y107.175 E6.5455
G1 X126.802 Y107.766 E6.57554
G1 X127.43 Y108.415 E6.60558
G1 X127.785 Y108.839 E6.62397
G1 X128.13 Y109.274 E6.64244
G1 X128.488 Y109.747 E6.66217
G1 X128.995 Y110.494 E6.6922
G1 X129.434 Y111.283 E6.72223
G1 X129.665 Y111.776 E6.74033
G1 X129.902 Y112.321 E6.7601
G1 X130.12 Y112.855 E6.77929
G1 X130.417 Y113.708 E6.80933
G1 X130.637 Y114.584 E6.83937
G1 X130.731 Y115.113 E6.85724
G1 X130.819 Y115.698 E6.87691
G1 X130.896 Y116.317 E6.89766
G1 X130.959 Y117.218 E6.9277
G1 X130.942 Y118.12 E6.95771
G1 X130.898 Y118.615 E6.97424
G1 X130.835 Y119.176 E6.99301
G1 X130.758 Y119.749 E7.01224
G1 X130.592 Y120.637 E7.04229
G1 X130.347 Y121.506 E7.07232
G1 X130.152 Y122.046 E7.09141
G1 X129.938 Y122.59 E7.11086
G1 X129.722 Y123.108 E7.12952
G1 X129.332 Y123.922 E7.15954
G1 X128.871 Y124.699 E7.18959
G1 X128.533 Y125.183 E7.20923
G1 X128.173 Y125.669 E7.22934
G1 X127.828 Y126.115 E7.2481
G1 X127.237 Y126.798 E7.27814
G1 X126.589 Y127.426 E7.30815
G1 X126.161 Y127.785 E7.32673
G1 X125.726 Y128.13 E7.3452
G1 X125.249 Y128.491 E7.36509
G1 X124.501 Y128.998 E7.39515
G1 X123.712 Y129.437 E7.42518
G1 X123.236 Y129.659 E7.44265
G1 X122.679 Y129.902 E7.46286
G1 X122.123 Y130.129 E7.48284
G1 X121.269 Y130.423 E7.51288
G1 X120.393 Y130.641 E7.5429
G1 X119.887 Y130.731 E7.55999
G1 X119.302 Y130.819 E7.57967
G1 X118.678 Y130.896 E7.60058
G1 X117.777 Y130.959 E7.63062
G1 X116.874 Y130.941 E7.66066
G1 X116.37 Y130.897 E7.67749
G1 X115.798 Y130.832 E7.69664
G1 X115.237 Y130.756 E7.71547
G1 X114.35 Y130.588 E7.74549
G1 X113.481 Y130.343 E7.77552
G1 X112.96 Y130.155 E7.79394
G1 X112.417 Y129.942 E7.81334
G1 X111.866 Y129.71 E7.83323
G1 X111.052 Y129.318 E7.86328
G1 X110.277 Y128.855 E7.8933
G1 X109.816 Y128.533 E7.91201
G1 X109.326 Y128.17 E7.93229
G1 X108.881 Y127.825 E7.95102
G1 X108.198 Y127.234 E7.98106
G1 X107.57 Y126.585 E8.0111
G1 X107.215 Y126.161 E8.02949
G1 X106.87 Y125.726 E8.04795
G1 X106.512 Y125.253 E8.06768
G1 X106.005 Y124.506 E8.09771
G1 X105.566 Y123.717 E8.12774
G1 X105.336 Y123.227 E8.14575
G1 X105.094 Y122.671 E8.16591
G1 X104.871 Y122.123 E8.18559
G1 X104.577 Y121.269 E8.21563
G1 X104.359 Y120.393 E8.24566
G1 X104.269 Y119.887 E8.26275
G1 X104.181 Y119.302 E8.28243
G1 X104.104 Y118.683 E8.30317
G1 X104.041 Y117.782 E8.33321
G1 X104.058 Y116.88 E8.36322
G1 X104.103 Y116.372 E8.38018
G1 X104.169 Y115.791 E8.39963
G1 X104.246 Y115.227 E8.41856
G1 X104.415 Y114.34 E8.4486
G1 X104.661 Y113.471 E8.47863
G1 X104.843 Y112.967 E8.49646
G1 X105.056 Y112.423 E8.51589
G1 X105.29 Y111.866 E8.53598
G1 X105.682 Y111.052 E8.56603
G1 X106.145 Y110.277 E8.59606
G1 X106.467 Y109.816 E8.61476
G1 X106.83 Y109.326 E8.63504
G1 X107.175 Y108.881 E8.65377
G1 X107.766 Y108.198 E8.68381
G1 F2700 E3.68381
;MESH:????????????.stl
G0 F6000 X113.743 Y116.348
G0 X114.745 Y116.762
G0 X115.038 Y117.372
G0 X115.782 Y119.218
G0 X116.052 Y119.484
G0 X116.195 Y119.706
G1 F2700 E8.68381
G0 F6000 X116.168 Y119.813
;TYPE:WALL-INNER
G1 F1200 X116.808 Y120.078 E8.70685
G1 X117.498 Y120.168 E8.73
G1 X118.192 Y120.078 E8.75327
G1 X118.832 Y119.813 E8.77631
G1 X119.389 Y119.386 E8.79965
G1 X119.813 Y118.832 E8.82286
G1 X120.078 Y118.192 E8.8459
G1 X120.121 Y117.844 E8.85756
G1 X120.167 Y117.499 E8.86913
G1 X120.078 Y116.806 E8.89237
G1 X119.813 Y116.168 E8.91535
G1 X119.387 Y115.616 E8.93854
G1 X118.832 Y115.187 E8.96187
G1 X118.192 Y114.922 E8.98491
G1 X117.498 Y114.833 E9.00818
G1 X116.808 Y114.922 E9.03132
G1 X116.168 Y115.187 E9.05436
G1 X115.611 Y115.614 E9.07771
G1 X115.187 Y116.168 E9.10091
G1 X114.922 Y116.806 E9.12389
G1 X114.831 Y117.503 E9.14727
G1 X114.922 Y118.192 E9.17038
G1 X115.187 Y118.832 E9.19342
G1 X115.611 Y119.385 E9.2166
G1 X116.168 Y119.813 E9.23996
G1 F2700 E4.23996
G0 F6000 X116.313 Y119.552
G0 X117.5 Y119.868
G1 F2700 E9.23996
G0 F6000 X117.499 Y120.572
;TYPE:WALL-OUTER
G1 F1200 X118.296 Y120.468 E9.26669
G1 X119.034 Y120.163 E9.29325
G1 X119.675 Y119.671 E9.32013
G1 X120.163 Y119.034 E9.34682
G1 X120.468 Y118.296 E9.37338
G1 X120.519 Y117.896 E9.38679
G1 X120.572 Y117.499 E9.40011
G1 X120.468 Y116.702 E9.42684
G1 X120.163 Y115.966 E9.45334
G1 X119.674 Y115.33 E9.48003
G1 X119.034 Y114.837 E9.5069
G1 X118.296 Y114.532 E9.53346
G1 X117.499 Y114.428 E9.56019
G1 X116.704 Y114.532 E9.58686
G1 X115.966 Y114.837 E9.61342
G1 X115.325 Y115.329 E9.64029
G1 X114.837 Y115.966 E9.66698
G1 X114.532 Y116.702 E9.69348
G1 X114.427 Y117.503 E9.72035
G1 X114.532 Y118.296 E9.74695
G1 X114.837 Y119.034 E9.77351
G1 X115.325 Y119.671 E9.8002
G1 X115.966 Y120.163 E9.82708
G1 X116.704 Y120.468 E9.85364
G1 X117.499 Y120.572 E9.8803
G0 F6000 X117.5 Y119.868
G0 X116.868 Y119.984
G0 X116.901 Y119.726
;TYPE:SKIN
G1 F1200 X117.497 Y119.804 E9.9003
G1 X118.099 Y119.726 E9.92049
G1 X118.647 Y119.499 E9.94022
G1 X119.134 Y119.127 E9.9606
G1 X119.499 Y118.647 E9.98065
G1 X119.725 Y118.1 E10.00034
G1 X119.765 Y117.785 E10.0109
G1 X119.802 Y117.498 E10.02052
G1 X119.725 Y116.897 E10.04068
G1 X119.5 Y116.354 E10.06023
G1 X119.131 Y115.876 E10.08031
G1 X118.646 Y115.501 E10.1007
G1 X118.1 Y115.275 E10.12036
G1 X117.497 Y115.198 E10.14057
G1 X116.9 Y115.274 E10.16059
G1 X116.353 Y115.501 E10.18029
G1 X115.865 Y115.873 E10.2007
G1 X115.501 Y116.353 E10.22073
G1 X115.274 Y116.897 E10.24034
G1 X115.195 Y117.504 E10.2607
G1 X115.274 Y118.099 E10.28066
G1 X115.502 Y118.647 E10.3004
G1 X115.865 Y119.127 E10.32042
G1 X116.353 Y119.499 E10.34083
G1 X116.901 Y119.726 E10.36056
G0 F6000 X116.868 Y119.984
G0 X116.584 Y119.772
G0 X116.283 Y119.604
G0 X115.782 Y119.218
G0 X115.43 Y118.831
G0 X115.221 Y118.651
G0 X115.647 Y118.475
G1 F1200 X116.523 Y119.351 E10.40176
G0 F6000 X117.314 Y119.577
G1 F1200 X115.421 Y117.683 E10.49083
G0 F6000 X115.443 Y117.14
G1 F1200 X117.857 Y119.554 E10.60437
G0 F6000 X118.295 Y119.426
G1 F1200 X115.57 Y116.702 E10.73253
G0 F6000 X115.766 Y116.332
G1 F1200 X118.665 Y119.231 E10.86889
G0 F6000 X118.986 Y118.986
G1 F1200 X116.012 Y116.012 E11.00877
G0 F6000 X116.333 Y115.767
G1 F1200 X119.232 Y118.666 E11.14513
G0 F6000 X119.427 Y118.296
G1 F1200 X116.703 Y115.572 E11.27326
G0 F6000 X117.142 Y115.445
G1 F1200 X119.554 Y117.857 E11.38671
G0 F6000 X119.575 Y117.313
G1 F1200 X117.688 Y115.425 E11.4755
G0 F6000 X118.477 Y115.648
G1 F1200 X119.353 Y116.525 E11.51673
;MESH:NONMESH
G0 F300 X119.353 Y116.525 Z0.4
G0 F6000 X119.78 Y116.349
G0 X117.5 Y119.868
G0 X117.499 Y120.175
;TIME_ELAPSED:24.539805
;LAYER:1
M106 S85
;TYPE:WALL-INNER
;MESH:????????????.stl
G1 F600 X118.194 Y120.083 E11.54004
G1 X118.835 Y119.818 E11.56311
G1 X119.393 Y119.39 E11.5865
G1 X119.818 Y118.835 E11.60975
G1 X120.083 Y118.194 E11.63282
G1 X120.127 Y117.847 E11.64446
G1 X120.173 Y117.499 E11.65613
G1 X120.083 Y116.804 E11.67944
G1 X119.818 Y116.165 E11.70245
G1 X119.392 Y115.611 E11.72569
G1 X118.835 Y115.182 E11.74908
G1 X118.194 Y114.917 E11.77215
G1 X117.499 Y114.826 E11.79546
G1 X116.806 Y114.917 E11.81871
G1 X116.165 Y115.182 E11.84178
G1 X115.607 Y115.61 E11.86517
G1 X115.182 Y116.165 E11.88842
G1 X114.917 Y116.804 E11.91142
G1 X114.825 Y117.503 E11.93487
G1 X114.917 Y118.194 E11.95806
