;FLAVOR:Marlin
;TIME:167
;Filament used: 0.217995m
;Layer height: 0.3
;MINX:82.2
;MINY:89.7
;MINZ:0.3
;MAXX:117.8
;MAXY:110.3
;MAXZ:5.1
;Generated with Cura_SteamEngine 5.2.1
M140 S70
M105
M190 S70
M104 S200
M105
M109 S200
M82 ;absolute extrusion mode
G28 ;Home
G1 Z15.0 F6000 ;Move the platform down 15mm
;Prime the extruder
G92 E0
G1 F200 E3
G92 E0
G92 E0
G92 E0
G1 F1500 E-6.5
;LAYER_COUNT:17
;LAYER:0
M107
G0 F3600 X84.623 Y91.849 Z0.3
;TYPE:SKIRT
G1 F1500 E0
G1 F1800 X85.222 Y91.334 E0.03941
G1 X85.87 Y90.883 E0.0788
G1 X86.561 Y90.499 E0.11824
G1 X87.286 Y90.187 E0.15762
G1 X88.039 Y89.95 E0.197
G1 X88.813 Y89.791 E0.23642
G1 X89.695 Y89.7 E0.28066
G1 X110 Y89.7 E1.29368
G1 X110.789 Y89.74 E1.33309
G1 X111.569 Y89.859 E1.37246
G1 X112.334 Y90.057 E1.41188
G1 X113.074 Y90.331 E1.45125
G1 X113.783 Y90.679 E1.49065
G1 X114.454 Y91.097 E1.53009
G1 X115.078 Y91.58 E1.56946
G1 X115.651 Y92.123 E1.60885
G1 X116.166 Y92.722 E1.64826
G1 X116.617 Y93.37 E1.68764
G1 X117.001 Y94.061 E1.72708
G1 X117.313 Y94.786 E1.76646
G1 X117.55 Y95.539 E1.80585
G1 X117.709 Y96.313 E1.84527
G1 X117.8 Y97.195 E1.8895
G1 X117.8 Y102.5 E2.15417
G1 X117.76 Y103.289 E2.19359
G1 X117.641 Y104.069 E2.23295
G1 X117.443 Y104.834 E2.27237
G1 X117.169 Y105.574 E2.31174
G1 X116.821 Y106.283 E2.35115
G1 X116.403 Y106.954 E2.39059
G1 X115.92 Y107.578 E2.42995
G1 X115.377 Y108.151 E2.46934
G1 X114.778 Y108.666 E2.50875
G1 X114.13 Y109.117 E2.54814
G1 X113.439 Y109.501 E2.58758
G1 X112.714 Y109.813 E2.62695
G1 X111.961 Y110.05 E2.66634
G1 X111.187 Y110.209 E2.70576
G1 X110.305 Y110.3 E2.75
G1 X90 Y110.3 E3.76302
G1 X89.211 Y110.26 E3.80243
G1 X88.431 Y110.141 E3.8418
G1 X87.666 Y109.943 E3.88122
G1 X86.926 Y109.669 E3.92059
G1 X86.217 Y109.321 E3.95999
G1 X85.546 Y108.903 E3.99943
G1 X84.922 Y108.42 E4.0388
G1 X84.349 Y107.877 E4.07818
G1 X83.834 Y107.278 E4.11759
G1 X83.383 Y106.63 E4.15698
G1 X82.999 Y105.939 E4.19642
G1 X82.687 Y105.214 E4.2358
G1 X82.45 Y104.461 E4.27518
G1 X82.291 Y103.687 E4.31461
G1 X82.2 Y102.805 E4.35884
G1 X82.2 Y97.5 E4.62351
G1 X82.24 Y96.711 E4.66292
G1 X82.359 Y95.931 E4.70229
G1 X82.557 Y95.166 E4.74171
G1 X82.831 Y94.426 E4.78108
G1 X83.179 Y93.717 E4.82048
G1 X83.597 Y93.046 E4.85992
G1 X84.08 Y92.422 E4.89929
G1 X84.623 Y91.849 E4.93868
G0 F3600 X85.016 Y92.03
G1 F1800 X85.611 Y91.542 E4.97707
G1 X86.253 Y91.119 E5.01542
G1 X86.936 Y90.764 E5.05383
G1 X87.651 Y90.483 E5.09215
G1 X88.393 Y90.277 E5.13057
G1 X89.151 Y90.149 E5.16893
G1 X90 Y90.1 E5.21135
G1 X110 Y90.1 E6.20916
G1 X110.768 Y90.14 E6.24752
G1 X111.528 Y90.259 E6.2859
G1 X112.271 Y90.457 E6.32427
G1 X112.99 Y90.731 E6.36265
G1 X113.676 Y91.078 E6.40101
G1 X114.323 Y91.494 E6.43938
G1 X114.923 Y91.975 E6.47775
G1 X115.47 Y92.516 E6.51613
G1 X115.958 Y93.111 E6.55452
G1 X116.381 Y93.753 E6.59288
G1 X116.736 Y94.436 E6.63128
G1 X117.017 Y95.151 E6.66961
G1 X117.223 Y95.893 E6.70803
G1 X117.351 Y96.651 E6.74638
G1 X117.4 Y97.5 E6.78881
G1 X117.4 Y102.5 E7.03826
G1 X117.36 Y103.268 E7.07663
G1 X117.241 Y104.028 E7.115
G1 X117.043 Y104.771 E7.15337
G1 X116.769 Y105.49 E7.19175
G1 X116.422 Y106.176 E7.23011
G1 X116.006 Y106.823 E7.26848
G1 X115.525 Y107.423 E7.30685
G1 X114.984 Y107.97 E7.34523
G1 X114.389 Y108.458 E7.38362
G1 X113.747 Y108.881 E7.42198
G1 X113.064 Y109.236 E7.46038
G1 X112.349 Y109.517 E7.49871
G1 X111.607 Y109.723 E7.53713
G1 X110.849 Y109.851 E7.57548
G1 X110 Y109.9 E7.61791
G1 X90 Y109.9 E8.61571
G1 X89.232 Y109.86 E8.65408
G1 X88.472 Y109.741 E8.69246
G1 X87.729 Y109.543 E8.73082
G1 X87.01 Y109.269 E8.76921
G1 X86.324 Y108.922 E8.80756
G1 X85.677 Y108.506 E8.84594
G1 X85.077 Y108.025 E8.8843
G1 X84.53 Y107.484 E8.92269
G1 X84.042 Y106.889 E8.96108
G1 X83.619 Y106.247 E8.99944
G1 X83.264 Y105.564 E9.03784
G1 X82.983 Y104.849 E9.07617
G1 X82.777 Y104.107 E9.11458
G1 X82.649 Y103.349 E9.15294
G1 X82.6 Y102.5 E9.19536
G1 X82.6 Y97.5 E9.44481
G1 X82.64 Y96.732 E9.48318
G1 X82.759 Y95.972 E9.52156
G1 X82.957 Y95.229 E9.55992
G1 X83.231 Y94.51 E9.59831
G1 X83.578 Y93.824 E9.63666
G1 X83.994 Y93.177 E9.67504
G1 X84.475 Y92.577 E9.71341
G1 X85.016 Y92.03 E9.75179
G0 F3600 X85.408 Y92.216
G1 F1800 X85.998 Y91.757 E9.78908
G1 X86.634 Y91.362 E9.82643
G1 X87.308 Y91.038 E9.86374
G1 X88.013 Y90.788 E9.90106
G1 X88.741 Y90.614 E9.93841
G1 X89.483 Y90.519 E9.97573
G1 X90 Y90.5 E10.00154
G1 X110 Y90.5 E10.99934
G1 X110.747 Y90.54 E11.03666
G1 X111.485 Y90.659 E11.07396
G1 X112.207 Y90.857 E11.11131
G1 X112.903 Y91.13 E11.14861
G1 X113.566 Y91.477 E11.18594
G1 X114.189 Y91.892 E11.22329
G1 X114.763 Y92.371 E11.26058
G1 X115.284 Y92.908 E11.29791
G1 X115.743 Y93.498 E11.33521
G1 X116.138 Y94.134 E11.37256
G1 X116.462 Y94.808 E11.40987
G1 X116.712 Y95.513 E11.44719
G1 X116.886 Y96.241 E11.48453
G1 X116.981 Y96.983 E11.52185
G1 X117 Y97.5 E11.54766
G1 X117 Y102.5 E11.79711
G1 X116.96 Y103.247 E11.83443
G1 X116.841 Y103.985 E11.87173
G1 X116.643 Y104.707 E11.90908
G1 X116.37 Y105.403 E11.94638
G1 X116.023 Y106.066 E11.98371
G1 X115.608 Y106.689 E12.02106
G1 X115.129 Y107.263 E12.05836
G1 X114.592 Y107.784 E12.09568
G1 X114.002 Y108.243 E12.13298
G1 X113.366 Y108.638 E12.17033
G1 X112.692 Y108.962 E12.20764
G1 X111.987 Y109.212 E12.24496
G1 X111.259 Y109.386 E12.2823
G1 X110.517 Y109.481 E12.31962
G1 X110 Y109.5 E12.34543
G1 X90 Y109.5 E13.34324
G1 X89.253 Y109.46 E13.38056
G1 X88.515 Y109.341 E13.41785
G1 X87.793 Y109.143 E13.4552
G1 X87.097 Y108.87 E13.4925
G1 X86.434 Y108.523 E13.52984
G1 X85.811 Y108.108 E13.56718
G1 X85.237 Y107.629 E13.60448
G1 X84.716 Y107.092 E13.64181
G1 X84.257 Y106.502 E13.6791
G1 X83.862 Y105.866 E13.71645
G1 X83.538 Y105.192 E13.75376
G1 X83.288 Y104.487 E13.79108
G1 X83.114 Y103.759 E13.82842
G1 X83.019 Y103.017 E13.86575
G1 X83 Y102.5 E13.89156
G1 X83 Y97.5 E14.14101
G1 X83.04 Y96.753 E14.17833
G1 X83.159 Y96.015 E14.21562
G1 X83.357 Y95.293 E14.25297
G1 X83.63 Y94.597 E14.29027
G1 X83.977 Y93.934 E14.32761
G1 X84.392 Y93.311 E14.36495
G1 X84.871 Y92.737 E14.40225
G1 X85.408 Y92.216 E14.43958
G0 F3600 X85.799 Y92.409
G1 F1800 X86.384 Y91.979 E14.4758
G1 X87.013 Y91.615 E14.51206
G1 X87.678 Y91.322 E14.54831
G1 X88.371 Y91.104 E14.58456
G1 X89.083 Y90.964 E14.62076
G1 X90 Y90.9 E14.66662
G1 X110 Y90.9 E15.66442
G1 X110.725 Y90.94 E15.70065
G1 X111.442 Y91.059 E15.73691
G1 X112.141 Y91.257 E15.77315
G1 X112.814 Y91.53 E15.80939
G1 X113.453 Y91.875 E15.84562
G1 X114.05 Y92.289 E15.88186
G1 X114.598 Y92.765 E15.91808
G1 X115.091 Y93.299 E15.95434
G1 X115.521 Y93.884 E15.99056
G1 X115.885 Y94.513 E16.02681
G1 X116.178 Y95.178 E16.06307
G1 X116.396 Y95.871 E16.09931
G1 X116.536 Y96.583 E16.13551
G1 X116.6 Y97.5 E16.18138
G1 X116.6 Y102.5 E16.43083
G1 X116.56 Y103.225 E16.46705
G1 X116.441 Y103.942 E16.50331
G1 X116.243 Y104.641 E16.53956
G1 X115.97 Y105.314 E16.57579
G1 X115.625 Y105.953 E16.61202
G1 X115.211 Y106.55 E16.64827
G1 X114.735 Y107.098 E16.68448
G1 X114.201 Y107.591 E16.72074
G1 X113.616 Y108.021 E16.75696
G1 X112.987 Y108.385 E16.79322
G1 X112.322 Y108.678 E16.82947
G1 X111.629 Y108.896 E16.86572
G1 X110.917 Y109.036 E16.90192
G1 X110 Y109.1 E16.94778
G1 X90 Y109.1 E17.94558
G1 X89.275 Y109.06 E17.98181
G1 X88.558 Y108.941 E18.01807
G1 X87.859 Y108.743 E18.05431
G1 X87.186 Y108.47 E18.09055
G1 X86.547 Y108.125 E18.12678
G1 X85.95 Y107.711 E18.16302
G1 X85.402 Y107.235 E18.19924
G1 X84.909 Y106.701 E18.23549
G1 X84.479 Y106.116 E18.27172
G1 X84.115 Y105.487 E18.30797
G1 X83.822 Y104.822 E18.34423
G1 X83.604 Y104.129 E18.38047
G1 X83.464 Y103.417 E18.41667
G1 X83.4 Y102.5 E18.46254
G1 X83.4 Y97.5 E18.71199
G1 X83.44 Y96.775 E18.74821
G1 X83.559 Y96.058 E18.78447
G1 X83.757 Y95.359 E18.82072
G1 X84.03 Y94.686 E18.85695
G1 X84.375 Y94.047 E18.89318
G1 X84.789 Y93.45 E18.92943
G1 X85.265 Y92.902 E18.96564
G1 X85.799 Y92.409 E19.0019
G0 F3600 X86.189 Y92.609
G1 F1800 X86.768 Y92.209 E19.03701
G1 X87.389 Y91.877 E19.07214
G1 X88.043 Y91.617 E19.10725
G1 X88.723 Y91.433 E19.1424
G1 X89.419 Y91.327 E19.17752
G1 X90 Y91.3 E19.20654
G1 X110 Y91.3 E20.20434
G1 X110.703 Y91.34 E20.23947
G1 X111.397 Y91.459 E20.2746
G1 X112.072 Y91.657 E20.3097
G1 X112.721 Y91.929 E20.3448
G1 X113.335 Y92.274 E20.37994
G1 X113.906 Y92.685 E20.41504
G1 X114.427 Y93.159 E20.45018
G1 X114.891 Y93.689 E20.48532
G1 X115.291 Y94.268 E20.52043
G1 X115.623 Y94.889 E20.55556
G1 X115.883 Y95.543 E20.59068
G1 X116.067 Y96.223 E20.62582
G1 X116.173 Y96.919 E20.66095
G1 X116.2 Y97.5 E20.68996
G1 X116.2 Y102.5 E20.93941
G1 X116.16 Y103.203 E20.97454
G1 X116.041 Y103.897 E21.00967
G1 X115.843 Y104.572 E21.04477
G1 X115.571 Y105.221 E21.07988
G1 X115.226 Y105.835 E21.11501
G1 X114.815 Y106.406 E21.15011
G1 X114.341 Y106.927 E21.18525
G1 X113.811 Y107.391 E21.2204
G1 X113.232 Y107.791 E21.2555
G1 X112.611 Y108.123 E21.29064
G1 X111.957 Y108.383 E21.32575
G1 X111.277 Y108.567 E21.36089
G1 X110.581 Y108.673 E21.39602
G1 X110 Y108.7 E21.42504
G1 X90 Y108.7 E22.42284
G1 X89.297 Y108.66 E22.45797
G1 X88.603 Y108.541 E22.4931
G1 X87.928 Y108.343 E22.52819
G1 X87.279 Y108.071 E22.5633
G1 X86.665 Y107.726 E22.59844
G1 X86.094 Y107.315 E22.63354
G1 X85.573 Y106.841 E22.66868
G1 X85.109 Y106.311 E22.70382
G1 X84.709 Y105.732 E22.73893
G1 X84.377 Y105.111 E22.77406
G1 X84.117 Y104.457 E22.80917
G1 X83.933 Y103.777 E22.84432
G1 X83.827 Y103.081 E22.87944
G1 X83.8 Y102.5 E22.90846
G1 X83.8 Y97.5 E23.15791
G1 X83.84 Y96.797 E23.19304
G1 X83.959 Y96.103 E23.22817
G1 X84.157 Y95.428 E23.26326
G1 X84.429 Y94.779 E23.29837
G1 X84.774 Y94.165 E23.33351
G1 X85.185 Y93.594 E23.36861
G1 X85.659 Y93.073 E23.40375
G1 X86.189 Y92.609 E23.43889
G0 F3600 X86.578 Y92.817
G1 F1800 X87.15 Y92.448 E23.47285
G1 X87.762 Y92.149 E23.50683
G1 X88.404 Y91.924 E23.54077
G1 X89.069 Y91.775 E23.57477
G1 X90 Y91.7 E23.62137
G1 X110 Y91.7 E24.61918
G1 X110.68 Y91.74 E24.65316
G1 X111.35 Y91.859 E24.68711
G1 X112.002 Y92.056 E24.72109
G1 X112.626 Y92.328 E24.75505
G1 X113.214 Y92.672 E24.78904
G1 X113.758 Y93.082 E24.82302
G1 X114.249 Y93.553 E24.85697
G1 X114.683 Y94.078 E24.89095
G1 X115.052 Y94.65 E24.92491
G1 X115.351 Y95.262 E24.95889
G1 X115.576 Y95.904 E24.99283
G1 X115.725 Y96.569 E25.02683
G1 X115.8 Y97.5 E25.07343
G1 X115.8 Y102.5 E25.32288
G1 X115.76 Y103.18 E25.35687
G1 X115.641 Y103.85 E25.39081
G1 X115.444 Y104.502 E25.4248
G1 X115.172 Y105.126 E25.45876
G1 X114.828 Y105.714 E25.49274
G1 X114.418 Y106.258 E25.52673
G1 X113.947 Y106.749 E25.56067
G1 X113.422 Y107.183 E25.59466
G1 X112.85 Y107.552 E25.62862
G1 X112.238 Y107.851 E25.6626
G1 X111.596 Y108.076 E25.69654
G1 X110.931 Y108.225 E25.73054
G1 X110 Y108.3 E25.77714
G1 X90 Y108.3 E26.77494
G1 X89.32 Y108.26 E26.80892
G1 X88.65 Y108.141 E26.84287
G1 X87.998 Y107.944 E26.87685
G1 X87.374 Y107.672 E26.91081
G1 X86.786 Y107.328 E26.9448
G1 X86.242 Y106.918 E26.97879
G1 X85.751 Y106.447 E27.01273
G1 X85.317 Y105.922 E27.04671
G1 X84.948 Y105.35 E27.08067
G1 X84.649 Y104.738 E27.11466
G1 X84.424 Y104.096 E27.1486
G1 X84.275 Y103.431 E27.1826
G1 X84.2 Y102.5 E27.22919
G1 X84.2 Y97.5 E27.47864
G1 X84.24 Y96.82 E27.51263
G1 X84.359 Y96.15 E27.54658
G1 X84.556 Y95.498 E27.58056
G1 X84.828 Y94.874 E27.61452
G1 X85.172 Y94.286 E27.64851
G1 X85.582 Y93.742 E27.68249
G1 X86.053 Y93.251 E27.71644
G1 X86.578 Y92.817 E27.75042
G0 F3600 X86.965 Y93.034
G1 F1800 X87.529 Y92.698 E27.78317
G1 X88.131 Y92.434 E27.81597
G1 X88.76 Y92.244 E27.84875
G1 X89.407 Y92.133 E27.8815
G1 X90 Y92.1 E27.91113
G1 X110 Y92.1 E28.90893
G1 X110.656 Y92.14 E28.94172
G1 X111.302 Y92.259 E28.97449
G1 X111.929 Y92.456 E29.00728
G1 X112.527 Y92.728 E29.04006
G1 X113.088 Y93.07 E29.07284
G1 X113.603 Y93.478 E29.10562
G1 X114.065 Y93.945 E29.13839
G1 X114.466 Y94.465 E29.17115
G1 X114.802 Y95.029 E29.2039
G1 X115.066 Y95.631 E29.2367
G1 X115.256 Y96.26 E29.26948
G1 X115.367 Y96.907 E29.30223
G1 X115.4 Y97.5 E29.33186
G1 X115.4 Y102.5 E29.58131
G1 X115.36 Y103.156 E29.6141
G1 X115.241 Y103.802 E29.64687
G1 X115.044 Y104.429 E29.67966
G1 X114.772 Y105.027 E29.71244
G1 X114.43 Y105.588 E29.74522
G1 X114.022 Y106.103 E29.778
G1 X113.555 Y106.565 E29.81077
G1 X113.035 Y106.966 E29.84353
G1 X112.471 Y107.302 E29.87628
G1 X111.869 Y107.566 E29.90908
G1 X111.24 Y107.756 E29.94186
G1 X110.593 Y107.867 E29.97461
G1 X110 Y107.9 E30.00424
G1 X90 Y107.9 E31.00204
G1 X89.344 Y107.86 E31.03483
G1 X88.698 Y107.741 E31.0676
G1 X88.071 Y107.544 E31.10039
G1 X87.473 Y107.272 E31.13317
G1 X86.912 Y106.93 E31.16595
G1 X86.397 Y106.522 E31.19873
G1 X85.935 Y106.055 E31.2315
G1 X85.534 Y105.535 E31.26426
G1 X85.198 Y104.971 E31.29702
G1 X84.934 Y104.369 E31.32981
G1 X84.744 Y103.74 E31.36259
G1 X84.633 Y103.093 E31.39534
G1 X84.6 Y102.5 E31.42497
G1 X84.6 Y97.5 E31.67442
G1 X84.64 Y96.844 E31.70721
G1 X84.759 Y96.198 E31.73998
G1 X84.956 Y95.571 E31.77277
G1 X85.228 Y94.973 E31.80555
G1 X85.57 Y94.412 E31.83833
G1 X85.978 Y93.897 E31.87111
G1 X86.445 Y93.435 E31.90388
G1 X86.965 Y93.034 E31.93664
G0 F3600 X87.35 Y93.26
G1 F1800 X87.906 Y92.96 E31.96816
G1 X88.495 Y92.732 E31.99967
G1 X89.109 Y92.58 E32.03123
G1 X90 Y92.5 E32.07586
G1 X110 Y92.5 E33.07366
G1 X110.631 Y92.54 E33.10521
G1 X111.252 Y92.659 E33.13675
G1 X111.852 Y92.856 E33.16826
G1 X112.424 Y93.127 E33.19984
G1 X112.956 Y93.467 E33.23134
G1 X113.441 Y93.873 E33.26289
G1 X113.871 Y94.336 E33.29442
G1 X114.24 Y94.85 E33.32598
G1 X114.54 Y95.406 E33.3575
G1 X114.768 Y95.995 E33.38901
G1 X114.92 Y96.609 E33.42057
G1 X115 Y97.5 E33.4652
G1 X115 Y102.5 E33.71465
G1 X114.96 Y103.131 E33.7462
G1 X114.841 Y103.752 E33.77774
G1 X114.644 Y104.352 E33.80925
G1 X114.373 Y104.924 E33.84083
G1 X114.033 Y105.456 E33.87232
G1 X113.627 Y105.941 E33.90388
G1 X113.164 Y106.371 E33.9354
G1 X112.65 Y106.74 E33.96697
G1 X112.094 Y107.04 E33.99849
G1 X111.505 Y107.268 E34.03
G1 X110.891 Y107.42 E34.06156
G1 X110 Y107.5 E34.10619
G1 X90 Y107.5 E35.10399
G1 X89.369 Y107.46 E35.13554
G1 X88.748 Y107.341 E35.16708
G1 X88.148 Y107.144 E35.19859
G1 X87.576 Y106.873 E35.23017
G1 X87.044 Y106.533 E35.26167
G1 X86.559 Y106.127 E35.29322
G1 X86.129 Y105.664 E35.32475
G1 X85.76 Y105.15 E35.35631
G1 X85.46 Y104.594 E35.38783
G1 X85.232 Y104.005 E35.41934
G1 X85.08 Y103.391 E35.4509
G1 X85 Y102.5 E35.49553
G1 X85 Y97.5 E35.74498
G1 X85.04 Y96.869 E35.77653
G1 X85.159 Y96.248 E35.80807
G1 X85.356 Y95.648 E35.83958
G1 X85.627 Y95.076 E35.87116
G1 X85.967 Y94.544 E35.90266
G1 X86.373 Y94.059 E35.93421
G1 X86.836 Y93.629 E35.96574
G1 X87.35 Y93.26 E35.9973
G0 F3600 X87.732 Y93.498
G1 F1800 X88.278 Y93.234 E36.02756
G1 X88.854 Y93.045 E36.0578
G1 X89.45 Y92.933 E36.08806
G1 X90 Y92.9 E36.11555
G1 X110 Y92.9 E37.11335
G1 X110.605 Y92.94 E37.1436
G1 X111.199 Y93.059 E37.17383
G1 X111.773 Y93.255 E37.20409
G1 X112.316 Y93.526 E37.23436
G1 X112.819 Y93.865 E37.26463
G1 X113.272 Y94.267 E37.29484
G1 X113.669 Y94.725 E37.32508
G1 X114.002 Y95.232 E37.35534
G1 X114.266 Y95.778 E37.3856
G1 X114.455 Y96.354 E37.41584
G1 X114.567 Y96.95 E37.4461
G1 X114.6 Y97.5 E37.47359
G1 X114.6 Y102.5 E37.72304
G1 X114.56 Y103.105 E37.75329
G1 X114.441 Y103.699 E37.78351
G1 X114.245 Y104.273 E37.81377
G1 X113.974 Y104.816 E37.84405
G1 X113.635 Y105.319 E37.87431
G1 X113.233 Y105.772 E37.90453
G1 X112.775 Y106.169 E37.93477
G1 X112.268 Y106.502 E37.96503
G1 X111.722 Y106.766 E37.99529
G1 X111.146 Y106.955 E38.02553
G1 X110.55 Y107.067 E38.05579
G1 X110 Y107.1 E38.08327
G1 X90 Y107.1 E39.08108
G1 X89.395 Y107.06 E39.11133
G1 X88.801 Y106.941 E39.14155
G1 X88.227 Y106.745 E39.17181
G1 X87.684 Y106.474 E39.20209
G1 X87.181 Y106.135 E39.23235
G1 X86.728 Y105.733 E39.26257
G1 X86.331 Y105.275 E39.29281
G1 X85.998 Y104.768 E39.32307
G1 X85.734 Y104.222 E39.35333
G1 X85.545 Y103.646 E39.38357
G1 X85.433 Y103.05 E39.41382
G1 X85.4 Y102.5 E39.44131
G1 X85.4 Y97.5 E39.69076
G1 X85.44 Y96.895 E39.72101
G1 X85.559 Y96.301 E39.75124
G1 X85.755 Y95.727 E39.7815
G1 X86.026 Y95.184 E39.81177
G1 X86.365 Y94.681 E39.84204
G1 X86.767 Y94.228 E39.87225
G1 X87.225 Y93.831 E39.90249
G1 X87.732 Y93.498 E39.93275
G0 F3600 X88.111 Y93.749
G1 F1800 X88.645 Y93.524 E39.96166
G1 X89.205 Y93.376 E39.99056
