;FLAVOR:Repetier
;TIME:4549
;MINX:-45
;MINY:-47.8
;MINZ:0.3
;MAXX:45
;MAXY:47.8
;MAXZ:8.1
;Generated with Cura_SteamEngine 5.2.1
M82 ;absolute extrusion mode
G21
G90
M82
M107 T0
M190 S70
M109 S250.0 T0
G28
G92 E0
G0 E3 F200
G92 E0

G92 E0
G92 E0
G1 F1500 E-6.5
;LAYER_COUNT:27
;LAYER:0
M107
G0 F3600 X-10.355 Y16.219 Z0.3
;TYPE:SKIRT
G1 F1500 E0
G1 F900 X-10.869 Y16.141 E0.02594
G1 X-11.634 Y15.943 E0.06536
G1 X-12.374 Y15.669 E0.10473
G1 X-13.083 Y15.321 E0.14413
G1 X-13.754 Y14.903 E0.18357
G1 X-14.378 Y14.42 E0.22294
G1 X-14.951 Y13.877 E0.26232
G1 X-15.466 Y13.278 E0.30174
G1 X-15.917 Y12.63 E0.34112
G1 X-16.172 Y12.171 E0.36732
G1 X-16.369 Y12.141 E0.37726
G1 X-17.134 Y11.943 E0.41669
G1 X-17.874 Y11.669 E0.45605
G1 X-18.583 Y11.321 E0.49546
G1 X-19.254 Y10.903 E0.5349
G1 X-19.878 Y10.42 E0.57427
G1 X-20.451 Y9.877 E0.61365
G1 X-20.966 Y9.278 E0.65306
G1 X-21.417 Y8.63 E0.69245
G1 X-21.621 Y8.263 E0.7134
G1 X-22.121 Y8.048 E0.74055
G1 X-22.479 Y8.783 E0.78134
G1 X-22.897 Y9.454 E0.82078
G1 X-23.38 Y10.078 E0.86015
G1 X-23.923 Y10.651 E0.89953
G1 X-24.522 Y11.166 E0.93894
G1 X-25 Y11.499 E0.96801
G1 X-25 Y12 E0.993
G1 X-25.04 Y12.789 E1.03241
G1 X-25.159 Y13.569 E1.07178
G1 X-25.357 Y14.334 E1.1112
G1 X-25.631 Y15.074 E1.15057
G1 X-25.979 Y15.783 E1.18997
G1 X-26.397 Y16.454 E1.22942
G1 X-26.88 Y17.078 E1.26878
G1 X-27.423 Y17.651 E1.30817
G1 X-28.022 Y18.166 E1.34758
G1 X-28.67 Y18.617 E1.38697
G1 X-29.361 Y19.001 E1.42641
G1 X-30.086 Y19.313 E1.46578
G1 X-30.839 Y19.55 E1.50517
G1 X-31.613 Y19.709 E1.54459
G1 X-32.495 Y19.8 E1.58883
G1 X-37.2 Y19.8 E1.82356
G1 X-37.989 Y19.76 E1.86297
G1 X-38.769 Y19.641 E1.90234
G1 X-39.534 Y19.443 E1.94176
G1 X-40.274 Y19.169 E1.98113
G1 X-40.983 Y18.821 E2.02053
G1 X-41.654 Y18.403 E2.05997
G1 X-42.278 Y17.92 E2.09934
G1 X-42.851 Y17.377 E2.13873
G1 X-43.366 Y16.778 E2.17814
G1 X-43.817 Y16.13 E2.21752
G1 X-44.201 Y15.439 E2.25696
G1 X-44.513 Y14.714 E2.29634
G1 X-44.75 Y13.961 E2.33573
G1 X-44.909 Y13.187 E2.37515
G1 X-45 Y12.305 E2.41938
G1 X-45 Y-10 E3.53219
G1 X-44.96 Y-10.789 E3.5716
G1 X-44.841 Y-11.569 E3.61096
G1 X-44.643 Y-12.334 E3.65039
G1 X-44.369 Y-13.074 E3.68976
G1 X-44.021 Y-13.783 E3.72916
G1 X-43.603 Y-14.454 E3.7686
G1 X-43.12 Y-15.078 E3.80797
G1 X-42.577 Y-15.651 E3.84735
G1 X-41.978 Y-16.166 E3.88676
G1 X-41.33 Y-16.617 E3.92615
G1 X-40.639 Y-17.001 E3.96559
G1 X-40.469 Y-17.074 E3.97482
G1 X-40.121 Y-17.783 E4.01422
G1 X-39.703 Y-18.454 E4.05366
G1 X-39.22 Y-19.078 E4.09303
G1 X-38.677 Y-19.651 E4.13242
G1 X-38.078 Y-20.166 E4.17183
G1 X-37.43 Y-20.617 E4.21122
G1 X-36.767 Y-20.985 E4.24905
G1 X-36.621 Y-21.283 E4.2656
G1 X-36.203 Y-21.954 E4.30504
G1 X-35.72 Y-22.578 E4.34441
G1 X-35.177 Y-23.151 E4.38379
G1 X-34.578 Y-23.666 E4.42321
G1 X-33.93 Y-24.117 E4.46259
G1 X-33.239 Y-24.501 E4.50203
G1 X-32.942 Y-24.629 E4.51817
G1 X-32.621 Y-25.283 E4.55451
G1 X-32.203 Y-25.954 E4.59396
G1 X-31.72 Y-26.578 E4.63332
G1 X-31.177 Y-27.151 E4.67271
G1 X-30.578 Y-27.666 E4.71212
G1 X-29.93 Y-28.117 E4.75151
G1 X-29.267 Y-28.485 E4.78934
G1 X-29.121 Y-28.783 E4.80589
G1 X-28.703 Y-29.454 E4.84533
G1 X-28.22 Y-30.078 E4.8847
G1 X-27.677 Y-30.651 E4.92409
G1 X-27.078 Y-31.166 E4.9635
G1 X-26.6 Y-31.499 E4.99256
G1 X-26.6 Y-40 E5.41668
G1 X-26.56 Y-40.789 E5.45609
G1 X-26.441 Y-41.569 E5.49546
G1 X-26.243 Y-42.334 E5.53488
G1 X-25.969 Y-43.074 E5.57425
G1 X-25.621 Y-43.783 E5.61365
G1 X-25.203 Y-44.454 E5.65309
G1 X-24.72 Y-45.078 E5.69246
G1 X-24.177 Y-45.651 E5.73184
G1 X-23.578 Y-46.166 E5.77125
G1 X-22.93 Y-46.617 E5.81064
G1 X-22.239 Y-47.001 E5.85008
G1 X-21.514 Y-47.313 E5.88946
G1 X-20.761 Y-47.55 E5.92884
G1 X-19.987 Y-47.709 E5.96827
G1 X-19.105 Y-47.8 E6.0125
G1 X-10.8 Y-47.8 E6.42684
G1 X-10.011 Y-47.76 E6.46625
G1 X-9.231 Y-47.641 E6.50562
G1 X-8.466 Y-47.443 E6.54504
G1 X-7.726 Y-47.169 E6.58441
G1 X-7.017 Y-46.821 E6.62381
G1 X-6.346 Y-46.403 E6.66325
G1 X-5.534 Y-45.774 E6.7145
G1 X-5.078 Y-46.166 E6.7445
G1 X-4.43 Y-46.617 E6.78389
G1 X-3.739 Y-47.001 E6.82333
G1 X-3.014 Y-47.313 E6.8627
G1 X-2.261 Y-47.55 E6.90209
G1 X-1.487 Y-47.709 E6.94151
G1 X-.605 Y-47.8 E6.98575
G1 X7.7 Y-47.8 E7.40008
G1 X8.489 Y-47.76 E7.4395
G1 X9.269 Y-47.641 E7.47886
G1 X10.034 Y-47.443 E7.51829
G1 X10.774 Y-47.169 E7.55766
G1 X11.483 Y-46.821 E7.59706
G1 X12.154 Y-46.403 E7.6365
G1 X12.778 Y-45.92 E7.67587
G1 X13.351 Y-45.377 E7.71525
G1 X13.866 Y-44.778 E7.75466
G1 X14.317 Y-44.13 E7.79405
G1 X14.701 Y-43.439 E7.83349
G1 X15.013 Y-42.714 E7.87287
G1 X15.25 Y-41.961 E7.91225
G1 X15.409 Y-41.187 E7.95167
G1 X15.5 Y-40.305 E7.99591
G1 X15.5 Y-36 E8.21069
G1 X15.46 Y-35.211 E8.2501
G1 X15.341 Y-34.431 E8.28947
G1 X15.143 Y-33.666 E8.32889
G1 X14.869 Y-32.926 E8.36826
G1 X14.521 Y-32.217 E8.40766
G1 X14.103 Y-31.546 E8.4471
G1 X13.62 Y-30.922 E8.48647
G1 X13.077 Y-30.349 E8.52585
G1 X12.478 Y-29.834 E8.56526
G1 X11.83 Y-29.383 E8.60465
G1 X11.5 Y-29.2 E8.62348
G1 X11.5 Y-28.022 E8.68225
G1 X12.278 Y-27.42 E8.73133
G1 X12.851 Y-26.877 E8.77071
G1 X13.366 Y-26.278 E8.81012
G1 X13.817 Y-25.63 E8.84951
G1 X14.021 Y-25.263 E8.87046
G1 X14.274 Y-25.169 E8.88392
G1 X14.983 Y-24.821 E8.92333
G1 X15.654 Y-24.403 E8.96277
G1 X16.278 Y-23.92 E9.00213
G1 X16.851 Y-23.377 E9.04152
G1 X17.366 Y-22.778 E9.08093
G1 X17.817 Y-22.13 E9.12032
G1 X18.201 Y-21.439 E9.15976
G1 X18.513 Y-20.714 E9.19914
G1 X18.75 Y-19.961 E9.23852
G1 X18.909 Y-19.187 E9.27794
G1 X18.979 Y-18.512 E9.3118
G1 X19.154 Y-18.403 E9.32208
G1 X19.778 Y-17.92 E9.36145
G1 X20.351 Y-17.377 E9.40084
G1 X20.866 Y-16.778 E9.44025
G1 X21.317 Y-16.13 E9.47963
G1 X21.701 Y-15.439 E9.51907
G1 X22.013 Y-14.714 E9.55845
G1 X22.25 Y-13.961 E9.59784
G1 X22.409 Y-13.187 E9.63726
G1 X22.5 Y-12.305 E9.68149
G1 X22.5 Y-10.785 E9.75733
G1 X22.989 Y-10.76 E9.78175
G1 X23.769 Y-10.641 E9.82112
G1 X24.534 Y-10.443 E9.86054
G1 X25.274 Y-10.169 E9.89991
G1 X25.983 Y-9.821 E9.93931
G1 X26.654 Y-9.403 E9.97876
G1 X27.278 Y-8.92 E10.01812
G1 X27.851 Y-8.377 E10.05751
G1 X28.366 Y-7.778 E10.09692
G1 X28.817 Y-7.13 E10.13631
G1 X29.201 Y-6.439 E10.17575
G1 X29.513 Y-5.714 E10.21512
G1 X29.75 Y-4.961 E10.25451
G1 X29.909 Y-4.187 E10.29393
G1 X30 Y-3.305 E10.33817
G1 X30 Y3.715 E10.6884
G1 X30.489 Y3.74 E10.71282
G1 X31.269 Y3.859 E10.75219
G1 X32.034 Y4.057 E10.79161
G1 X32.774 Y4.331 E10.83098
G1 X33.483 Y4.679 E10.87038
G1 X34.154 Y5.097 E10.90982
G1 X34.778 Y5.58 E10.94919
G1 X35.351 Y6.123 E10.98858
G1 X35.866 Y6.722 E11.02799
G1 X36.317 Y7.37 E11.06737
G1 X36.701 Y8.061 E11.10681
G1 X37.013 Y8.786 E11.14619
G1 X37.25 Y9.539 E11.18558
G1 X37.409 Y10.313 E11.225
G1 X37.502 Y11.215 E11.27024
G1 X37.989 Y11.24 E11.29457
G1 X38.769 Y11.359 E11.33393
G1 X39.534 Y11.557 E11.37335
G1 X40.274 Y11.831 E11.41272
G1 X40.983 Y12.179 E11.45213
G1 X41.654 Y12.597 E11.49157
G1 X42.278 Y13.08 E11.53093
G1 X42.851 Y13.623 E11.57032
G1 X43.366 Y14.222 E11.60973
G1 X43.817 Y14.87 E11.64912
G1 X44.201 Y15.561 E11.68856
G1 X44.513 Y16.286 E11.72793
G1 X44.75 Y17.039 E11.76732
G1 X44.909 Y17.813 E11.80674
G1 X45 Y18.695 E11.85098
G1 X45 Y36 E12.71433
G1 X44.96 Y36.789 E12.75374
G1 X44.841 Y37.569 E12.79311
G1 X44.643 Y38.334 E12.83253
G1 X44.369 Y39.074 E12.8719
G1 X44.021 Y39.783 E12.9113
G1 X43.603 Y40.454 E12.95074
G1 X43.12 Y41.078 E12.99011
G1 X42.577 Y41.651 E13.02949
G1 X41.978 Y42.166 E13.0689
G1 X41.33 Y42.617 E13.10829
G1 X40.639 Y43.001 E13.14773
G1 X40.342 Y43.129 E13.16387
G1 X40.021 Y43.783 E13.20021
G1 X39.603 Y44.454 E13.23965
G1 X39.12 Y45.078 E13.27902
G1 X38.577 Y45.651 E13.31841
G1 X37.978 Y46.166 E13.35782
G1 X37.33 Y46.617 E13.39721
G1 X36.639 Y47.001 E13.43664
G1 X35.914 Y47.313 E13.47602
G1 X35.161 Y47.55 E13.51541
G1 X34.387 Y47.709 E13.55483
G1 X33.505 Y47.8 E13.59906
G1 X3.2 Y47.8 E15.11099
G1 X2.411 Y47.76 E15.1504
G1 X1.631 Y47.641 E15.18977
G1 X0.866 Y47.443 E15.22919
G1 X0.126 Y47.169 E15.26856
G1 X-.583 Y46.821 E15.30796
G1 X-1.254 Y46.403 E15.3474
G1 X-1.878 Y45.92 E15.38677
G1 X-2.451 Y45.377 E15.42615
G1 X-2.966 Y44.778 E15.46556
G1 X-3.417 Y44.13 E15.50495
G1 X-3.801 Y43.439 E15.54439
G1 X-4.063 Y42.831 E15.57742
G1 X-4.754 Y42.403 E15.61797
G1 X-5.378 Y41.92 E15.65734
G1 X-5.951 Y41.377 E15.69673
G1 X-6.466 Y40.778 E15.73614
G1 X-6.917 Y40.13 E15.77552
G1 X-7.301 Y39.439 E15.81496
G1 X-7.613 Y38.714 E15.85434
G1 X-7.85 Y37.961 E15.89373
G1 X-8.009 Y37.187 E15.93315
G1 X-8.1 Y36.305 E15.97738
G1 X-8.1 Y18.522 E16.86458
G1 X-8.878 Y17.92 E16.91366
G1 X-9.451 Y17.377 E16.95304
G1 X-9.966 Y16.778 E16.99245
G1 X-10.355 Y16.219 E17.02643
G0 F3600 X-10.111 Y15.853
G1 F900 X-10.828 Y15.741 E17.06264
G1 X-11.571 Y15.543 E17.101
G1 X-12.29 Y15.269 E17.13939
G1 X-12.976 Y14.922 E17.17774
G1 X-13.623 Y14.506 E17.21611
G1 X-14.223 Y14.025 E17.25448
G1 X-14.77 Y13.484 E17.29286
G1 X-15.258 Y12.889 E17.33125
G1 X-15.681 Y12.247 E17.36961
G1 X-15.91 Y11.806 E17.3944
G1 X-16.328 Y11.741 E17.41551
G1 X-17.071 Y11.543 E17.45387
G1 X-17.79 Y11.269 E17.49226
G1 X-18.476 Y10.922 E17.53061
G1 X-19.123 Y10.506 E17.56899
G1 X-19.723 Y10.025 E17.60735
G1 X-20.27 Y9.484 E17.64573
G1 X-20.758 Y8.889 E17.68413
G1 X-21.181 Y8.247 E17.72248
G1 X-21.34 Y7.94 E17.73973
G1 X-21.79 Y7.769 E17.76375
G1 X-22.302 Y7.51 E17.79238
G1 X-22.36 Y7.54 E17.79563
G1 X-22.531 Y7.99 E17.81965
G1 X-22.878 Y8.676 E17.858
G1 X-23.294 Y9.323 E17.89638
G1 X-23.775 Y9.923 E17.93474
G1 X-24.316 Y10.47 E17.97313
G1 X-24.911 Y10.958 E18.01152
G1 X-25.4 Y11.28 E18.04073
G1 X-25.4 Y12 E18.07665
G1 X-25.44 Y12.768 E18.11502
G1 X-25.559 Y13.528 E18.1534
G1 X-25.757 Y14.271 E18.19176
G1 X-26.031 Y14.99 E18.23015
G1 X-26.378 Y15.676 E18.2685
G1 X-26.794 Y16.323 E18.30688
G1 X-27.275 Y16.923 E18.34524
G1 X-27.816 Y17.47 E18.38362
G1 X-28.411 Y17.958 E18.42202
G1 X-29.053 Y18.381 E18.46037
G1 X-29.736 Y18.736 E18.49878
G1 X-30.451 Y19.017 E18.5371
G1 X-31.193 Y19.223 E18.57552
G1 X-31.951 Y19.351 E18.61387
G1 X-32.8 Y19.4 E18.6563
G1 X-37.2 Y19.4 E18.87582
G1 X-37.968 Y19.36 E18.91419
G1 X-38.728 Y19.241 E18.95256
G1 X-39.471 Y19.043 E18.99093
G1 X-40.19 Y18.769 E19.02931
G1 X-40.876 Y18.422 E19.06767
G1 X-41.523 Y18.006 E19.10604
G1 X-42.123 Y17.525 E19.14441
G1 X-42.67 Y16.984 E19.18279
G1 X-43.158 Y16.389 E19.22118
G1 X-43.581 Y15.747 E19.25954
G1 X-43.936 Y15.064 E19.29794
G1 X-44.217 Y14.349 E19.33627
G1 X-44.423 Y13.607 E19.37469
G1 X-44.551 Y12.849 E19.41304
G1 X-44.6 Y12 E19.45547
G1 X-44.6 Y-10 E20.55305
G1 X-44.56 Y-10.768 E20.59142
G1 X-44.441 Y-11.528 E20.6298
G1 X-44.243 Y-12.271 E20.66816
G1 X-43.969 Y-12.99 E20.70655
G1 X-43.622 Y-13.676 E20.7449
G1 X-43.206 Y-14.323 E20.78328
G1 X-42.725 Y-14.923 E20.82164
G1 X-42.184 Y-15.47 E20.86003
G1 X-41.589 Y-15.958 E20.89842
G1 X-40.947 Y-16.381 E20.93678
G1 X-40.141 Y-16.8 E20.9821
G1 X-40.069 Y-16.99 E20.99223
G1 X-39.722 Y-17.676 E21.03059
G1 X-39.306 Y-18.323 E21.06896
G1 X-38.825 Y-18.923 E21.10733
G1 X-38.284 Y-19.47 E21.14571
G1 X-37.689 Y-19.958 E21.1841
G1 X-37.047 Y-20.381 E21.22246
G1 X-36.473 Y-20.679 E21.25473
G1 X-36.222 Y-21.176 E21.2825
G1 X-35.806 Y-21.823 E21.32088
G1 X-35.325 Y-22.423 E21.35924
G1 X-34.784 Y-22.97 E21.39763
G1 X-34.189 Y-23.458 E21.43602
G1 X-33.547 Y-23.881 E21.47438
G1 X-32.864 Y-24.236 E21.51278
G1 X-32.631 Y-24.328 E21.52528
G1 X-32.569 Y-24.49 E21.53393
G1 X-32.222 Y-25.176 E21.57228
G1 X-31.806 Y-25.823 E21.61066
G1 X-31.325 Y-26.423 E21.64903
G1 X-30.784 Y-26.97 E21.68741
G1 X-30.189 Y-27.458 E21.7258
G1 X-29.547 Y-27.881 E21.76416
G1 X-28.973 Y-28.179 E21.79642
G1 X-28.722 Y-28.676 E21.8242
G1 X-28.306 Y-29.323 E21.86258
G1 X-27.825 Y-29.923 E21.90094
G1 X-27.284 Y-30.47 E21.93932
G1 X-26.689 Y-30.958 E21.97772
G1 X-26.2 Y-31.28 E22.00693
G1 X-26.2 Y-40 E22.44197
G1 X-26.16 Y-40.768 E22.48034
G1 X-26.041 Y-41.528 E22.51872
G1 X-25.843 Y-42.271 E22.55708
G1 X-25.569 Y-42.99 E22.59547
G1 X-25.222 Y-43.676 E22.63382
G1 X-24.806 Y-44.323 E22.67219
G1 X-24.325 Y-44.923 E22.71056
G1 X-23.784 Y-45.47 E22.74894
G1 X-23.189 Y-45.958 E22.78733
G1 X-22.547 Y-46.381 E22.82569
G1 X-21.864 Y-46.736 E22.86409
G1 X-21.149 Y-47.017 E22.90242
G1 X-20.407 Y-47.223 E22.94084
G1 X-19.649 Y-47.351 E22.97919
G1 X-18.8 Y-47.4 E23.02162
G1 X-10.8 Y-47.4 E23.42074
G1 X-10.032 Y-47.36 E23.45911
G1 X-9.272 Y-47.241 E23.49749
G1 X-8.529 Y-47.043 E23.53585
G1 X-7.81 Y-46.769 E23.57424
G1 X-7.124 Y-46.422 E23.61259
G1 X-6.477 Y-46.006 E23.65097
G1 X-5.877 Y-45.525 E23.68933
G1 X-5.55 Y-45.201 E23.7123
G1 X-5.284 Y-45.47 E23.73117
G1 X-4.689 Y-45.958 E23.76956
G1 X-4.047 Y-46.381 E23.80792
G1 X-3.364 Y-46.736 E23.84632
G1 X-2.649 Y-47.017 E23.88465
G1 X-1.907 Y-47.223 E23.92307
G1 X-1.149 Y-47.351 E23.96142
G1 X-.3 Y-47.4 E24.00385
G1 X7.7 Y-47.4 E24.40297
G1 X8.468 Y-47.36 E24.44134
G1 X9.228 Y-47.241 E24.47972
G1 X9.971 Y-47.043 E24.51808
G1 X10.69 Y-46.769 E24.55647
G1 X11.376 Y-46.422 E24.59482
G1 X12.023 Y-46.006 E24.6332
G1 X12.623 Y-45.525 E24.67156
G1 X13.17 Y-44.984 E24.70994
G1 X13.658 Y-44.389 E24.74834
G1 X14.081 Y-43.747 E24.78669
G1 X14.436 Y-43.064 E24.8251
G1 X14.717 Y-42.349 E24.86342
G1 X14.923 Y-41.607 E24.90184
G1 X15.051 Y-40.849 E24.94019
G1 X15.1 Y-40 E24.98262
G1 X15.1 Y-36 E25.18218
G1 X15.06 Y-35.232 E25.22055
G1 X14.941 Y-34.472 E25.25893
G1 X14.743 Y-33.729 E25.29729
G1 X14.469 Y-33.01 E25.33568
G1 X14.122 Y-32.324 E25.37403
G1 X13.706 Y-31.677 E25.41241
G1 X13.225 Y-31.077 E25.45077
G1 X12.684 Y-30.53 E25.48916
G1 X12.089 Y-30.042 E25.52755
G1 X11.447 Y-29.619 E25.5659
G1 X11.1 Y-29.439 E25.58541
G1 X11.1 Y-27.778 E25.66827
G1 X11.523 Y-27.506 E25.69336
G1 X12.123 Y-27.025 E25.73173
G1 X12.67 Y-26.484 E25.77011
G1 X13.158 Y-25.889 E25.8085
G1 X13.581 Y-25.247 E25.84686
G1 X13.74 Y-24.94 E25.86411
G1 X14.19 Y-24.769 E25.88813
G1 X14.876 Y-24.422 E25.92648
G1 X15.523 Y-24.006 E25.96486
G1 X16.123 Y-23.525 E26.00322
G1 X16.67 Y-22.984 E26.0416
G1 X17.158 Y-22.389 E26.08
G1 X17.581 Y-21.747 E26.11835
G1 X17.936 Y-21.064 E26.15676
G1 X18.217 Y-20.349 E26.19508
G1 X18.423 Y-19.607 E26.2335
G1 X18.551 Y-18.849 E26.27185
G1 X18.583 Y-18.289 E26.29984
G1 X19.023 Y-18.006 E26.32594
G1 X19.623 Y-17.525 E26.3643
G1 X20.17 Y-16.984 E26.40269
G1 X20.658 Y-16.389 E26.44108
G1 X21.081 Y-15.747 E26.47944
G1 X21.436 Y-15.064 E26.51784
G1 X21.717 Y-14.349 E26.55617
G1 X21.923 Y-13.607 E26.59459
G1 X22.051 Y-12.849 E26.63294
G1 X22.1 Y-12 E26.67536
G1 X22.1 Y-10.4 E26.75519
G1 X22.968 Y-10.36 E26.79854
G1 X23.728 Y-10.241 E26.83692
G1 X24.471 Y-10.043 E26.87528
G1 X25.19 Y-9.769 E26.91367
G1 X25.876 Y-9.422 E26.95202
G1 X26.523 Y-9.006 E26.9904
G1 X27.123 Y-8.525 E27.02876
G1 X27.67 Y-7.984 E27.06715
G1 X28.158 Y-7.389 E27.10554
G1 X28.581 Y-6.747 E27.14389
G1 X28.936 Y-6.064 E27.1823
G1 X29.217 Y-5.349 E27.22062
G1 X29.423 Y-4.607 E27.25904
G1 X29.551 Y-3.849 E27.2974
G1 X29.6 Y-3 E27.33982
G1 X29.6 Y4.1 E27.69404
G1 X30.468 Y4.14 E27.73739
G1 X31.228 Y4.259 E27.77577
G1 X31.971 Y4.457 E27.81413
G1 X32.69 Y4.731 E27.85252
G1 X33.376 Y5.078 E27.89088
G1 X34.023 Y5.494 E27.92925
G1 X34.623 Y5.975 E27.96762
G1 X35.17 Y6.516 E28.006
G1 X35.658 Y7.111 E28.04439
G1 X36.081 Y7.753 E28.08275
G1 X36.436 Y8.436 E28.12115
G1 X36.717 Y9.151 E28.15948
G1 X36.923 Y9.893 E28.1979
G1 X37.051 Y10.651 E28.23625
G1 X37.106 Y11.6 E28.28367
G1 X37.968 Y11.64 E28.32673
G1 X38.728 Y11.759 E28.3651
G1 X39.471 Y11.957 E28.40347
G1 X40.19 Y12.231 E28.44185
G1 X40.876 Y12.578 E28.48021
G1 X41.523 Y12.994 E28.51858
G1 X42.123 Y13.475 E28.55695
G1 X42.67 Y14.016 E28.59533
G1 X43.158 Y14.611 E28.63372
G1 X43.581 Y15.253 E28.67208
G1 X43.936 Y15.936 E28.71048
G1 X44.217 Y16.651 E28.74881
G1 X44.423 Y17.393 E28.78723
G1 X44.551 Y18.151 E28.82558
G1 X44.6 Y19 E28.86801
G1 X44.6 Y36 E29.71614
G1 X44.56 Y36.768 E29.75451
G1 X44.441 Y37.528 E29.79289
G1 X44.243 Y38.271 E29.83125
G1 X43.969 Y38.99 E29.86964
G1 X43.622 Y39.676 E29.90799
G1 X43.206 Y40.323 E29.94637
G1 X42.725 Y40.923 E29.98473
G1 X42.184 Y41.47 E30.02312
G1 X41.589 Y41.958 E30.06151
G1 X40.947 Y42.381 E30.09986
G1 X40.264 Y42.736 E30.13827
G1 X40.031 Y42.828 E30.15077
G1 X39.969 Y42.99 E30.15942
G1 X39.622 Y43.676 E30.19777
G1 X39.206 Y44.323 E30.23615
