;FLAVOR:Repetier
;TIME:1533
;MINX:-33.481
;MINY:-17.8
;MINZ:0.3
;MAXX:33.481
;MAXY:17.8
;MAXZ:5.4
;Generated with Cura_SteamEngine 5.2.1
M82 ;absolute extrusion mode
G21
G90
M82
M107 T0
M190 S70
M109 S250.0 T0
G28
G92 E0
G0 E3 F200
G92 E0

G92 E0
G92 E0
G1 F1500 E-6.5
;LAYER_COUNT:18
;LAYER:0
M107
G0 F3600 X-25.681 Y17.8 Z0.3
;TYPE:SKIRT
G1 F1500 E0
G1 F900 X-26.47 Y17.76 E0.03941
G1 X-27.25 Y17.641 E0.07878
G1 X-28.015 Y17.443 E0.1182
G1 X-28.755 Y17.169 E0.15757
G1 X-29.464 Y16.821 E0.19697
G1 X-30.135 Y16.403 E0.23641
G1 X-30.759 Y15.92 E0.27578
G1 X-31.332 Y15.377 E0.31517
G1 X-31.847 Y14.778 E0.35458
G1 X-32.298 Y14.13 E0.39397
G1 X-32.682 Y13.439 E0.43341
G1 X-32.994 Y12.714 E0.47278
G1 X-33.231 Y11.961 E0.51217
G1 X-33.39 Y11.187 E0.55159
G1 X-33.481 Y10.305 E0.59582
G1 X-33.481 Y-10 E1.60885
G1 X-33.441 Y-10.789 E1.64826
G1 X-33.322 Y-11.569 E1.68762
G1 X-33.124 Y-12.334 E1.72705
G1 X-32.85 Y-13.074 E1.76642
G1 X-32.502 Y-13.783 E1.80582
G1 X-32.084 Y-14.454 E1.84526
G1 X-31.601 Y-15.078 E1.88463
G1 X-31.058 Y-15.651 E1.92401
G1 X-30.459 Y-16.166 E1.96342
G1 X-29.811 Y-16.617 E2.00281
G1 X-29.12 Y-17.001 E2.04225
G1 X-28.395 Y-17.313 E2.08163
G1 X-27.642 Y-17.55 E2.12101
G1 X-26.868 Y-17.709 E2.16043
G1 X-25.986 Y-17.8 E2.20467
G1 X25.681 Y-17.8 E4.78235
G1 X26.47 Y-17.76 E4.82176
G1 X27.25 Y-17.641 E4.86113
G1 X28.015 Y-17.443 E4.90055
G1 X28.755 Y-17.169 E4.93992
G1 X29.464 Y-16.821 E4.97932
G1 X30.135 Y-16.403 E5.01876
G1 X30.759 Y-15.92 E5.05813
G1 X31.332 Y-15.377 E5.09751
G1 X31.847 Y-14.778 E5.13692
G1 X32.298 Y-14.13 E5.17631
G1 X32.682 Y-13.439 E5.21575
G1 X32.994 Y-12.714 E5.25513
G1 X33.231 Y-11.961 E5.29451
G1 X33.39 Y-11.187 E5.33394
G1 X33.481 Y-10.305 E5.37817
G1 X33.481 Y10 E6.39119
G1 X33.441 Y10.789 E6.43061
G1 X33.322 Y11.569 E6.46997
G1 X33.124 Y12.334 E6.5094
G1 X32.85 Y13.074 E6.54876
G1 X32.502 Y13.783 E6.58817
G1 X32.084 Y14.454 E6.62761
G1 X31.601 Y15.078 E6.66698
G1 X31.058 Y15.651 E6.70636
G1 X30.459 Y16.166 E6.74577
G1 X29.811 Y16.617 E6.78516
G1 X29.12 Y17.001 E6.8246
G1 X28.395 Y17.313 E6.86398
G1 X27.642 Y17.55 E6.90336
G1 X26.868 Y17.709 E6.94278
G1 X25.986 Y17.8 E6.98702
G1 X-25.681 Y17.8 E9.5647
G0 F3600 X-25.681 Y17.4
G1 F900 X-26.449 Y17.36 E9.60306
G1 X-27.209 Y17.241 E9.64144
G1 X-27.952 Y17.043 E9.6798
G1 X-28.671 Y16.769 E9.71819
G1 X-29.357 Y16.422 E9.75654
G1 X-30.004 Y16.006 E9.79492
G1 X-30.604 Y15.525 E9.83329
G1 X-31.151 Y14.984 E9.87167
G1 X-31.639 Y14.389 E9.91006
G1 X-32.062 Y13.747 E9.94842
G1 X-32.417 Y13.064 E9.98682
G1 X-32.698 Y12.349 E10.02515
G1 X-32.904 Y11.607 E10.06357
G1 X-33.032 Y10.849 E10.10192
G1 X-33.081 Y10 E10.14435
G1 X-33.081 Y-10 E11.14215
G1 X-33.041 Y-10.768 E11.18052
G1 X-32.922 Y-11.528 E11.2189
G1 X-32.724 Y-12.271 E11.25726
G1 X-32.45 Y-12.99 E11.29565
G1 X-32.103 Y-13.676 E11.334
G1 X-31.687 Y-14.323 E11.37237
G1 X-31.206 Y-14.923 E11.41074
G1 X-30.665 Y-15.47 E11.44912
G1 X-30.07 Y-15.958 E11.48751
G1 X-29.428 Y-16.381 E11.52587
G1 X-28.745 Y-16.736 E11.56427
G1 X-28.03 Y-17.017 E11.6026
G1 X-27.288 Y-17.223 E11.64102
G1 X-26.53 Y-17.351 E11.67937
G1 X-25.681 Y-17.4 E11.7218
G1 X25.681 Y-17.4 E14.28426
G1 X26.449 Y-17.36 E14.32263
G1 X27.209 Y-17.241 E14.36101
G1 X27.952 Y-17.043 E14.39937
G1 X28.671 Y-16.769 E14.43776
G1 X29.357 Y-16.422 E14.47611
G1 X30.004 Y-16.006 E14.51449
G1 X30.604 Y-15.525 E14.55285
G1 X31.151 Y-14.984 E14.59123
G1 X31.639 Y-14.389 E14.62963
G1 X32.062 Y-13.747 E14.66798
G1 X32.417 Y-13.064 E14.70639
G1 X32.698 Y-12.349 E14.74471
G1 X32.904 Y-11.607 E14.78313
G1 X33.032 Y-10.849 E14.82148
G1 X33.081 Y-10 E14.86391
G1 X33.081 Y10 E15.86172
G1 X33.041 Y10.768 E15.90008
G1 X32.922 Y11.528 E15.93846
G1 X32.724 Y12.271 E15.97682
G1 X32.45 Y12.99 E16.01521
G1 X32.103 Y13.676 E16.05357
G1 X31.687 Y14.323 E16.09194
G1 X31.206 Y14.923 E16.13031
G1 X30.665 Y15.47 E16.16869
G1 X30.07 Y15.958 E16.20708
G1 X29.428 Y16.381 E16.24544
G1 X28.745 Y16.736 E16.28384
G1 X28.03 Y17.017 E16.32217
G1 X27.288 Y17.223 E16.36059
G1 X26.53 Y17.351 E16.39894
G1 X25.681 Y17.4 E16.44137
G1 X-25.681 Y17.4 E19.00383
G0 F3600 X-25.681 Y17
G1 F900 X-26.428 Y16.96 E19.04115
G1 X-27.166 Y16.841 E19.07844
G1 X-27.888 Y16.643 E19.11579
G1 X-28.584 Y16.37 E19.15309
G1 X-29.247 Y16.023 E19.19043
G1 X-29.87 Y15.608 E19.22777
G1 X-30.444 Y15.129 E19.26507
G1 X-30.965 Y14.592 E19.3024
G1 X-31.424 Y14.002 E19.33969
G1 X-31.819 Y13.366 E19.37704
G1 X-32.143 Y12.692 E19.41435
G1 X-32.393 Y11.987 E19.45167
G1 X-32.567 Y11.259 E19.48902
G1 X-32.662 Y10.517 E19.52634
G1 X-32.681 Y10 E19.55215
G1 X-32.681 Y-10 E20.54995
G1 X-32.641 Y-10.747 E20.58727
G1 X-32.522 Y-11.485 E20.62457
G1 X-32.324 Y-12.207 E20.66192
G1 X-32.051 Y-12.903 E20.69922
G1 X-31.704 Y-13.566 E20.73655
G1 X-31.289 Y-14.189 E20.7739
G1 X-30.81 Y-14.763 E20.81119
G1 X-30.273 Y-15.284 E20.84852
G1 X-29.683 Y-15.743 E20.88582
G1 X-29.047 Y-16.138 E20.92317
G1 X-28.373 Y-16.462 E20.96048
G1 X-27.668 Y-16.712 E20.9978
G1 X-26.94 Y-16.886 E21.03514
G1 X-26.198 Y-16.981 E21.07246
G1 X-25.681 Y-17 E21.09827
G1 X25.681 Y-17 E23.66073
G1 X26.428 Y-16.96 E23.69805
G1 X27.166 Y-16.841 E23.73535
G1 X27.888 Y-16.643 E23.7727
G1 X28.584 Y-16.37 E23.81
G1 X29.247 Y-16.023 E23.84733
G1 X29.87 Y-15.608 E23.88468
G1 X30.444 Y-15.129 E23.92198
G1 X30.965 Y-14.592 E23.9593
G1 X31.424 Y-14.002 E23.9966
G1 X31.819 Y-13.366 E24.03395
G1 X32.143 Y-12.692 E24.07126
G1 X32.393 Y-11.987 E24.10858
G1 X32.567 Y-11.259 E24.14592
G1 X32.662 Y-10.517 E24.18324
G1 X32.681 Y-10 E24.20905
G1 X32.681 Y10 E25.20686
G1 X32.641 Y10.747 E25.24418
G1 X32.522 Y11.485 E25.28147
G1 X32.324 Y12.207 E25.31882
G1 X32.051 Y12.903 E25.35612
G1 X31.704 Y13.566 E25.39346
G1 X31.289 Y14.189 E25.4308
G1 X30.81 Y14.763 E25.4681
G1 X30.273 Y15.284 E25.50543
G1 X29.683 Y15.743 E25.54272
G1 X29.047 Y16.138 E25.58007
G1 X28.373 Y16.462 E25.61738
G1 X27.668 Y16.712 E25.6547
G1 X26.94 Y16.886 E25.69204
G1 X26.198 Y16.981 E25.72936
G1 X25.681 Y17 E25.75518
G1 X-25.681 Y17 E28.31764
G0 F3600 X-25.681 Y16.6
G1 F900 X-26.406 Y16.56 E28.35386
G1 X-27.123 Y16.441 E28.39012
G1 X-27.822 Y16.243 E28.42637
G1 X-28.495 Y15.97 E28.4626
G1 X-29.134 Y15.625 E28.49883
G1 X-29.731 Y15.211 E28.53508
G1 X-30.279 Y14.735 E28.57129
G1 X-30.772 Y14.201 E28.60755
G1 X-31.202 Y13.616 E28.64377
G1 X-31.566 Y12.987 E28.68003
G1 X-31.859 Y12.322 E28.71628
G1 X-32.077 Y11.629 E28.75253
G1 X-32.217 Y10.917 E28.78873
G1 X-32.281 Y10 E28.83459
G1 X-32.281 Y-10 E29.83239
G1 X-32.241 Y-10.725 E29.86862
G1 X-32.122 Y-11.442 E29.90488
G1 X-31.924 Y-12.141 E29.94112
G1 X-31.651 Y-12.814 E29.97736
G1 X-31.306 Y-13.453 E30.01359
G1 X-30.892 Y-14.05 E30.04983
G1 X-30.416 Y-14.598 E30.08605
G1 X-29.882 Y-15.091 E30.1223
G1 X-29.297 Y-15.521 E30.15853
G1 X-28.668 Y-15.885 E30.19478
G1 X-28.003 Y-16.178 E30.23104
G1 X-27.31 Y-16.396 E30.26728
G1 X-26.598 Y-16.536 E30.30348
G1 X-25.681 Y-16.6 E30.34934
G1 X25.681 Y-16.6 E32.91181
G1 X26.406 Y-16.56 E32.94803
G1 X27.123 Y-16.441 E32.98429
G1 X27.822 Y-16.243 E33.02054
G1 X28.495 Y-15.97 E33.05677
G1 X29.134 Y-15.625 E33.093
G1 X29.731 Y-15.211 E33.12925
G1 X30.279 Y-14.735 E33.16546
G1 X30.772 Y-14.201 E33.20172
G1 X31.202 Y-13.616 E33.23794
G1 X31.566 Y-12.987 E33.2742
G1 X31.859 Y-12.322 E33.31045
G1 X32.077 Y-11.629 E33.3467
G1 X32.217 Y-10.917 E33.3829
G1 X32.281 Y-10 E33.42876
G1 X32.281 Y10 E34.42656
G1 X32.241 Y10.725 E34.46279
G1 X32.122 Y11.442 E34.49905
G1 X31.924 Y12.141 E34.53529
G1 X31.651 Y12.814 E34.57153
G1 X31.306 Y13.453 E34.60776
G1 X30.892 Y14.05 E34.644
G1 X30.416 Y14.598 E34.68022
G1 X29.882 Y15.091 E34.71647
G1 X29.297 Y15.521 E34.7527
G1 X28.668 Y15.885 E34.78895
G1 X28.003 Y16.178 E34.82521
G1 X27.31 Y16.396 E34.86145
G1 X26.598 Y16.536 E34.89765
G1 X25.681 Y16.6 E34.94351
G1 X-25.681 Y16.6 E37.50597
G0 F3600 X-25.681 Y16.2
G1 F900 X-26.384 Y16.16 E37.5411
G1 X-27.078 Y16.041 E37.57623
G1 X-27.753 Y15.843 E37.61133
G1 X-28.402 Y15.571 E37.64644
G1 X-29.016 Y15.226 E37.68157
G1 X-29.587 Y14.815 E37.71667
G1 X-30.108 Y14.341 E37.75181
G1 X-30.572 Y13.811 E37.78696
G1 X-30.972 Y13.232 E37.82207
G1 X-31.304 Y12.611 E37.8572
G1 X-31.564 Y11.957 E37.89231
G1 X-31.748 Y11.277 E37.92745
G1 X-31.854 Y10.581 E37.96258
G1 X-31.881 Y10 E37.9916
G1 X-31.881 Y-10 E38.9894
G1 X-31.841 Y-10.703 E39.02453
G1 X-31.722 Y-11.397 E39.05966
G1 X-31.524 Y-12.072 E39.09475
G1 X-31.252 Y-12.721 E39.12986
G1 X-30.907 Y-13.335 E39.165
G1 X-30.496 Y-13.906 E39.2001
G1 X-30.022 Y-14.427 E39.23524
G1 X-29.492 Y-14.891 E39.27038
G1 X-28.913 Y-15.291 E39.30549
G1 X-28.292 Y-15.623 E39.34062
G1 X-27.638 Y-15.883 E39.37573
G1 X-26.958 Y-16.067 E39.41088
G1 X-26.262 Y-16.173 E39.446
G1 X-25.681 Y-16.2 E39.47502
G1 X25.681 Y-16.2 E42.03748
G1 X26.384 Y-16.16 E42.07261
G1 X27.078 Y-16.041 E42.10774
G1 X27.753 Y-15.843 E42.14283
G1 X28.402 Y-15.571 E42.17794
G1 X29.016 Y-15.226 E42.21308
G1 X29.587 Y-14.815 E42.24818
G1 X30.108 Y-14.341 E42.28332
G1 X30.572 Y-13.811 E42.31846
G1 X30.972 Y-13.232 E42.35357
G1 X31.304 Y-12.611 E42.3887
G1 X31.564 Y-11.957 E42.42382
G1 X31.748 Y-11.277 E42.45896
G1 X31.854 Y-10.581 E42.49409
G1 X31.881 Y-10 E42.5231
G1 X31.881 Y10 E43.52091
G1 X31.841 Y10.703 E43.55604
G1 X31.722 Y11.397 E43.59117
G1 X31.524 Y12.072 E43.62626
G1 X31.252 Y12.721 E43.66137
G1 X30.907 Y13.335 E43.6965
G1 X30.496 Y13.906 E43.7316
G1 X30.022 Y14.427 E43.76674
G1 X29.492 Y14.891 E43.80189
G1 X28.913 Y15.291 E43.837
G1 X28.292 Y15.623 E43.87213
G1 X27.638 Y15.883 E43.90724
G1 X26.958 Y16.067 E43.94239
G1 X26.262 Y16.173 E43.97751
G1 X25.681 Y16.2 E44.00653
G1 X-25.681 Y16.2 E46.56899
G0 F3600 X-25.681 Y15.8
G1 F900 X-26.361 Y15.76 E46.60297
G1 X-27.031 Y15.641 E46.63692
G1 X-27.683 Y15.444 E46.6709
G1 X-28.307 Y15.172 E46.70486
G1 X-28.895 Y14.828 E46.73885
G1 X-29.439 Y14.418 E46.77284
G1 X-29.93 Y13.947 E46.80678
G1 X-30.364 Y13.422 E46.84076
G1 X-30.733 Y12.85 E46.87472
G1 X-31.032 Y12.238 E46.9087
G1 X-31.257 Y11.596 E46.94264
G1 X-31.406 Y10.931 E46.97664
G1 X-31.481 Y10 E47.02324
G1 X-31.481 Y-10 E48.02105
G1 X-31.441 Y-10.68 E48.05503
G1 X-31.322 Y-11.35 E48.08898
G1 X-31.125 Y-12.002 E48.12296
G1 X-30.853 Y-12.626 E48.15692
G1 X-30.509 Y-13.214 E48.19091
G1 X-30.099 Y-13.758 E48.22489
G1 X-29.628 Y-14.249 E48.25884
G1 X-29.103 Y-14.683 E48.29282
G1 X-28.531 Y-15.052 E48.32678
G1 X-27.919 Y-15.351 E48.36076
G1 X-27.277 Y-15.576 E48.3947
G1 X-26.612 Y-15.725 E48.4287
G1 X-25.681 Y-15.8 E48.4753
G1 X25.681 Y-15.8 E51.03776
G1 X26.361 Y-15.76 E51.07175
G1 X27.031 Y-15.641 E51.10569
G1 X27.683 Y-15.444 E51.13968
G1 X28.307 Y-15.172 E51.17364
G1 X28.895 Y-14.828 E51.20762
G1 X29.439 Y-14.418 E51.24161
G1 X29.93 Y-13.947 E51.27555
G1 X30.364 Y-13.422 E51.30954
G1 X30.733 Y-12.85 E51.3435
G1 X31.032 Y-12.238 E51.37748
G1 X31.257 Y-11.596 E51.41142
G1 X31.406 Y-10.931 E51.44542
G1 X31.481 Y-10 E51.49202
G1 X31.481 Y10 E52.48982
G1 X31.441 Y10.68 E52.5238
G1 X31.322 Y11.35 E52.55775
G1 X31.125 Y12.002 E52.59173
G1 X30.853 Y12.626 E52.62569
G1 X30.509 Y13.214 E52.65968
G1 X30.099 Y13.758 E52.69367
G1 X29.628 Y14.249 E52.72761
G1 X29.103 Y14.683 E52.76159
G1 X28.531 Y15.052 E52.79555
G1 X27.919 Y15.351 E52.82954
G1 X27.277 Y15.576 E52.86348
G1 X26.612 Y15.725 E52.89748
G1 X25.681 Y15.8 E52.94407
G1 X-25.681 Y15.8 E55.50653
G0 F3600 X-25.681 Y15.4
G1 F900 X-26.337 Y15.36 E55.53932
G1 X-26.983 Y15.241 E55.57209
G1 X-27.61 Y15.044 E55.60488
G1 X-28.208 Y14.772 E55.63766
G1 X-28.769 Y14.43 E55.67044
G1 X-29.284 Y14.022 E55.70322
G1 X-29.746 Y13.555 E55.73599
G1 X-30.147 Y13.035 E55.76875
G1 X-30.483 Y12.471 E55.8015
G1 X-30.747 Y11.869 E55.8343
G1 X-30.937 Y11.24 E55.86708
G1 X-31.048 Y10.593 E55.89983
G1 X-31.081 Y10 E55.92946
G1 X-31.081 Y-10 E56.92727
G1 X-31.041 Y-10.656 E56.96006
G1 X-30.922 Y-11.302 E56.99283
G1 X-30.725 Y-11.929 E57.02562
G1 X-30.453 Y-12.527 E57.05839
G1 X-30.111 Y-13.088 E57.09117
G1 X-29.703 Y-13.603 E57.12395
G1 X-29.236 Y-14.065 E57.15672
G1 X-28.716 Y-14.466 E57.18948
G1 X-28.152 Y-14.802 E57.22224
G1 X-27.55 Y-15.066 E57.25503
G1 X-26.921 Y-15.256 E57.28781
G1 X-26.274 Y-15.367 E57.32056
G1 X-25.681 Y-15.4 E57.35019
G1 X25.681 Y-15.4 E59.91265
G1 X26.337 Y-15.36 E59.94544
G1 X26.983 Y-15.241 E59.97821
G1 X27.61 Y-15.044 E60.011
G1 X28.208 Y-14.772 E60.04378
G1 X28.769 Y-14.43 E60.07656
G1 X29.284 Y-14.022 E60.10934
G1 X29.746 Y-13.555 E60.14211
G1 X30.147 Y-13.035 E60.17487
G1 X30.483 Y-12.471 E60.20763
G1 X30.747 Y-11.869 E60.24042
G1 X30.937 Y-11.24 E60.2732
G1 X31.048 Y-10.593 E60.30595
G1 X31.081 Y-10 E60.33558
G1 X31.081 Y10 E61.33339
G1 X31.041 Y10.656 E61.36618
G1 X30.922 Y11.302 E61.39895
G1 X30.725 Y11.929 E61.43174
G1 X30.453 Y12.527 E61.46451
G1 X30.111 Y13.088 E61.49729
G1 X29.703 Y13.603 E61.53007
G1 X29.236 Y14.065 E61.56284
G1 X28.716 Y14.466 E61.5956
G1 X28.152 Y14.802 E61.62836
G1 X27.55 Y15.066 E61.66115
G1 X26.921 Y15.256 E61.69393
G1 X26.274 Y15.367 E61.72668
G1 X25.681 Y15.4 E61.75631
G1 X-25.681 Y15.4 E64.31878
G0 F3600 X-25.681 Y15
G1 F900 X-26.312 Y14.96 E64.35032
G1 X-26.933 Y14.841 E64.38186
G1 X-27.533 Y14.644 E64.41337
G1 X-28.105 Y14.373 E64.44495
G1 X-28.637 Y14.033 E64.47645
G1 X-29.122 Y13.627 E64.508
G1 X-29.552 Y13.164 E64.53953
G1 X-29.921 Y12.65 E64.5711
G1 X-30.221 Y12.094 E64.60261
G1 X-30.449 Y11.505 E64.63412
G1 X-30.601 Y10.891 E64.66568
G1 X-30.681 Y10 E64.71031
G1 X-30.681 Y-10 E65.70812
G1 X-30.641 Y-10.631 E65.73966
G1 X-30.522 Y-11.252 E65.77121
G1 X-30.325 Y-11.852 E65.80271
G1 X-30.054 Y-12.424 E65.83429
G1 X-29.714 Y-12.956 E65.86579
G1 X-29.308 Y-13.441 E65.89735
G1 X-28.845 Y-13.871 E65.92887
G1 X-28.331 Y-14.24 E65.96044
G1 X-27.775 Y-14.54 E65.99196
G1 X-27.186 Y-14.768 E66.02347
G1 X-26.572 Y-14.92 E66.05502
G1 X-25.681 Y-15 E66.09966
G1 X25.681 Y-15 E68.66212
G1 X26.312 Y-14.96 E68.69366
G1 X26.933 Y-14.841 E68.72521
G1 X27.533 Y-14.644 E68.75671
G1 X28.105 Y-14.373 E68.78829
G1 X28.637 Y-14.033 E68.81979
G1 X29.122 Y-13.627 E68.85134
G1 X29.552 Y-13.164 E68.88287
G1 X29.921 Y-12.65 E68.91444
G1 X30.221 Y-12.094 E68.94596
G1 X30.449 Y-11.505 E68.97747
G1 X30.601 Y-10.891 E69.00902
G1 X30.681 Y-10 E69.05365
G1 X30.681 Y10 E70.05146
G1 X30.641 Y10.631 E70.083
G1 X30.522 Y11.252 E70.11455
G1 X30.325 Y11.852 E70.14605
G1 X30.054 Y12.424 E70.17763
G1 X29.714 Y12.956 E70.20913
G1 X29.308 Y13.441 E70.24069
G1 X28.845 Y13.871 E70.27221
G1 X28.331 Y14.24 E70.30378
G1 X27.775 Y14.54 E70.3353
G1 X27.186 Y14.768 E70.36681
G1 X26.572 Y14.92 E70.39836
G1 X25.681 Y15 E70.443
G1 X-25.681 Y15 E73.00546
G0 F3600 X-25.681 Y14.6
G1 F900 X-26.286 Y14.56 E73.03571
G1 X-26.88 Y14.441 E73.06593
G1 X-27.454 Y14.245 E73.09619
G1 X-27.997 Y13.974 E73.12647
G1 X-28.5 Y13.635 E73.15673
G1 X-28.953 Y13.233 E73.18694
G1 X-29.35 Y12.775 E73.21718
G1 X-29.683 Y12.268 E73.24745
G1 X-29.947 Y11.722 E73.2777
G1 X-30.136 Y11.146 E73.30795
G1 X-30.248 Y10.55 E73.3382
G1 X-30.281 Y10 E73.36569
G1 X-30.281 Y-10 E74.3635
G1 X-30.241 Y-10.605 E74.39375
G1 X-30.122 Y-11.199 E74.42397
G1 X-29.926 Y-11.773 E74.45423
G1 X-29.655 Y-12.316 E74.48451
G1 X-29.316 Y-12.819 E74.51477
G1 X-28.914 Y-13.272 E74.54498
G1 X-28.456 Y-13.669 E74.57522
G1 X-27.949 Y-14.002 E74.60549
G1 X-27.403 Y-14.266 E74.63574
G1 X-26.827 Y-14.455 E74.66599
G1 X-26.231 Y-14.567 E74.69624
G1 X-25.681 Y-14.6 E74.72373
G1 X25.681 Y-14.6 E77.28619
G1 X26.286 Y-14.56 E77.31644
G1 X26.88 Y-14.441 E77.34666
G1 X27.454 Y-14.245 E77.37693
G1 X27.997 Y-13.974 E77.4072
G1 X28.5 Y-13.635 E77.43746
G1 X28.953 Y-13.233 E77.46768
G1 X29.35 Y-12.775 E77.49792
G1 X29.683 Y-12.268 E77.52818
G1 X29.947 Y-11.722 E77.55844
G1 X30.136 Y-11.146 E77.58868
G1 X30.248 Y-10.55 E77.61894
G1 X30.281 Y-10 E77.64643
G1 X30.281 Y10 E78.64423
G1 X30.241 Y10.605 E78.67448
G1 X30.122 Y11.199 E78.7047
G1 X29.926 Y11.773 E78.73496
G1 X29.655 Y12.316 E78.76524
G1 X29.316 Y12.819 E78.7955
G1 X28.914 Y13.272 E78.82572
G1 X28.456 Y13.669 E78.85596
G1 X27.949 Y14.002 E78.88622
G1 X27.403 Y14.266 E78.91648
G1 X26.827 Y14.455 E78.94672
G1 X26.231 Y14.567 E78.97698
G1 X25.681 Y14.6 E79.00447
G1 X-25.681 Y14.6 E81.56693
G0 F3600 X-25.681 Y14.2
