;FLAVOR:Marlin
;TIME:561
;Filament used: 0.578834m
;Layer height: 0.2
;MINX:80.397
;MINY:79.862
;MINZ:0.3
;MAXX:119.743
;MAXY:119.365
;MAXZ:9.1
;Generated with Cura_SteamEngine 5.2.1
M140 S60
M105
M190 S60
M104 S200
M105
M109 S200
M82 ;absolute extrusion mode
G28 ;Home
G1 Z15.0 F6000 ;Move the platform down 15mm
;Prime the extruder
G92 E0
G1 F200 E3
G92 E0
G92 E0
G92 E0
G1 F1500 E-6.5
;LAYER_COUNT:45
;LAYER:0
M107
G0 F3600 X86.593 Y86.243 Z0.3
;TYPE:SKIRT
G1 F1500 E0
G1 F1800 X87.286 Y85.597 E0.04727
G1 X88.075 Y84.94 E0.09849
G1 X88.83 Y84.369 E0.14572
G1 X89.626 Y83.829 E0.1937
G1 X90.506 Y83.296 E0.24503
G1 X91.318 Y82.857 E0.29109
G1 X92.201 Y82.436 E0.33989
G1 X93.067 Y82.076 E0.38668
G1 X93.952 Y81.755 E0.43365
G1 X94.7 Y81.526 E0.47267
G1 X95.157 Y81.4 E0.49632
G1 X95.674 Y81.041 E0.52773
G1 X96.364 Y80.658 E0.5671
G1 X97.09 Y80.347 E0.6065
G1 X97.844 Y80.111 E0.64592
G1 X98.617 Y79.953 E0.68528
G1 X99.512 Y79.862 E0.73016
G1 X100.372 Y79.865 E0.77307
G1 X101.161 Y79.908 E0.81249
G1 X101.941 Y80.03 E0.85188
G1 X102.705 Y80.231 E0.89129
G1 X103.444 Y80.508 E0.93066
G1 X104.152 Y80.858 E0.97007
G1 X104.821 Y81.278 E1.00948
G1 X104.979 Y81.401 E1.01947
G1 X105.812 Y81.639 E1.06269
G1 X106.53 Y81.874 E1.10038
G1 X107.442 Y82.223 E1.1491
G1 X108.332 Y82.618 E1.19768
G1 X109.179 Y83.045 E1.245
G1 X110.014 Y83.52 E1.29293
G1 X110.873 Y84.067 E1.34373
G1 X111.628 Y84.604 E1.38996
G1 X112.431 Y85.238 E1.441
G1 X113.176 Y85.893 E1.49049
G1 X113.864 Y86.562 E1.53837
G1 X114.558 Y87.31 E1.58927
G1 X115.199 Y88.076 E1.6391
G1 X115.788 Y88.859 E1.68799
G1 X116.3 Y89.626 E1.73399
G1 X116.795 Y90 E1.76495
G1 X117.373 Y90.538 E1.80434
G1 X117.893 Y91.132 E1.84373
G1 X118.351 Y91.775 E1.88311
G1 X118.742 Y92.462 E1.92255
G1 X119.108 Y93.289 E1.96767
G1 X119.372 Y94.116 E2.01098
G1 X119.574 Y94.88 E2.05041
G1 X119.698 Y95.659 E2.08976
G1 X119.743 Y96.448 E2.12919
G1 X119.707 Y97.237 E2.16859
G1 X119.592 Y98.018 E2.20797
G1 X119.399 Y98.784 E2.24739
G1 X119.333 Y98.966 E2.25704
G1 X119.372 Y100.014 E2.30936
G1 X119.346 Y101.048 E2.36097
G1 X119.259 Y102.115 E2.41438
G1 X119.176 Y102.807 E2.44915
G1 X119.006 Y103.803 E2.49956
G1 X118.841 Y104.537 E2.53709
G1 X118.582 Y105.528 E2.58819
G1 X118.269 Y106.491 E2.63871
G1 X117.911 Y107.427 E2.68871
G1 X117.55 Y108.246 E2.73336
G1 X117.087 Y109.172 E2.78501
G1 X116.598 Y110.03 E2.83428
G1 X116.066 Y110.866 E2.88372
G1 X115.487 Y111.676 E2.93339
G1 X115.011 Y112.275 E2.97156
G1 X114.807 Y112.863 E3.00261
G1 X114.474 Y113.579 E3.04201
G1 X114.07 Y114.257 E3.08139
G1 X113.599 Y114.891 E3.12079
G1 X113.067 Y115.475 E3.1602
G1 X112.395 Y116.076 E3.20518
G1 X111.688 Y116.585 E3.24864
G1 X111.025 Y117.013 E3.28801
G1 X110.322 Y117.372 E3.3274
G1 X109.586 Y117.658 E3.36679
G1 X108.824 Y117.868 E3.40622
G1 X108.046 Y118 E3.44559
G1 X107.258 Y118.053 E3.48499
G1 X107.065 Y118.046 E3.49463
G1 X106.211 Y118.363 E3.54008
G1 X105.309 Y118.64 E3.58715
G1 X104.383 Y118.876 E3.63483
G1 X103.346 Y119.081 E3.68756
G1 X102.609 Y119.197 E3.72479
G1 X101.641 Y119.301 E3.77336
G1 X100.727 Y119.354 E3.81903
G1 X100.106 Y119.365 E3.85002
G1 X99.164 Y119.345 E3.89703
G1 X98.149 Y119.269 E3.94781
G1 X97.293 Y119.164 E3.99083
G1 X96.344 Y119.002 E4.03886
G1 X95.46 Y118.808 E4.08402
G1 X94.525 Y118.552 E4.13238
G1 X93.787 Y118.31 E4.17113
G1 X93.077 Y118.048 E4.20889
G1 X92.453 Y118.036 E4.24002
G1 X91.669 Y117.94 E4.27943
G1 X90.899 Y117.766 E4.31881
G1 X90.15 Y117.515 E4.35822
G1 X89.43 Y117.19 E4.39763
G1 X88.643 Y116.732 E4.44306
G1 X87.929 Y116.206 E4.48731
G1 X87.318 Y115.706 E4.5267
G1 X86.761 Y115.146 E4.5661
G1 X86.263 Y114.533 E4.6055
G1 X85.83 Y113.873 E4.64489
G1 X85.465 Y113.173 E4.68427
G1 X85.174 Y112.439 E4.72366
G1 X85.129 Y112.28 E4.73191
G1 X84.867 Y111.952 E4.75285
G1 X84.385 Y111.315 E4.7927
G1 X83.805 Y110.459 E4.84429
G1 X83.316 Y109.652 E4.89137
G1 X82.867 Y108.818 E4.93862
G1 X82.451 Y107.948 E4.98673
G1 X82.074 Y107.045 E5.03555
G1 X81.76 Y106.181 E5.08142
G1 X81.533 Y105.436 E5.12027
G1 X81.253 Y104.374 E5.17506
G1 X81.044 Y103.303 E5.2295
G1 X80.931 Y102.582 E5.26591
G1 X80.833 Y101.674 E5.31148
G1 X80.776 Y100.676 E5.36135
G1 X80.766 Y100.025 E5.39383
G1 X80.801 Y98.966 E5.44669
G1 X80.616 Y98.349 E5.47883
G1 X80.467 Y97.573 E5.51825
G1 X80.397 Y96.787 E5.55762
G1 X80.407 Y95.997 E5.59704
G1 X80.496 Y95.212 E5.63645
G1 X80.69 Y94.329 E5.68156
G1 X80.963 Y93.507 E5.72477
G1 X81.25 Y92.771 E5.76418
G1 X81.61 Y92.068 E5.80359
G1 X82.039 Y91.405 E5.84298
G1 X82.532 Y90.789 E5.88235
G1 X83.086 Y90.226 E5.92175
G1 X83.694 Y89.722 E5.96115
G1 X83.836 Y89.626 E5.9697
G1 X84.151 Y89.15 E5.99818
G1 X84.635 Y88.471 E6.03978
G1 X85.255 Y87.689 E6.08957
G1 X85.909 Y86.944 E6.13903
G1 X86.593 Y86.243 E6.18789
G0 F3600 X86.869 Y86.533
G1 F1800 X87.56 Y85.889 E6.23502
G1 X88.322 Y85.254 E6.2845
G1 X89.058 Y84.698 E6.33052
G1 X89.846 Y84.163 E6.37804
G1 X90.7 Y83.645 E6.42787
G1 X91.49 Y83.219 E6.47265
G1 X92.38 Y82.795 E6.52183
G1 X93.052 Y82.515 E6.55815
G1 X94.065 Y82.138 E6.61208
G1 X94.817 Y81.908 E6.65131
G1 X95.329 Y81.77 E6.67777
G1 X95.414 Y81.7 E6.68326
G1 X96.056 Y81.278 E6.72159
G1 X96.739 Y80.924 E6.75997
G1 X97.455 Y80.643 E6.79834
G1 X98.197 Y80.438 E6.83675
G1 X98.955 Y80.311 E6.87509
G1 X99.823 Y80.263 E6.91846
G1 X100.371 Y80.265 E6.9458
G1 X101.139 Y80.308 E6.98418
G1 X101.898 Y80.43 E7.02253
G1 X102.641 Y80.631 E7.06093
G1 X103.359 Y80.907 E7.09931
G1 X104.044 Y81.256 E7.13766
G1 X104.689 Y81.675 E7.17604
G1 X104.802 Y81.766 E7.18327
G1 X105.514 Y81.962 E7.22012
G1 X106.389 Y82.249 E7.26606
G1 X107.289 Y82.593 E7.31413
G1 X108.153 Y82.976 E7.36128
G1 X108.997 Y83.402 E7.40845
G1 X109.818 Y83.869 E7.45557
G1 X110.646 Y84.396 E7.50454
G1 X111.255 Y84.83 E7.54184
G1 X112.138 Y85.514 E7.59757
G1 X112.915 Y86.197 E7.64918
G1 X113.586 Y86.85 E7.69589
G1 X114.25 Y87.566 E7.74461
G1 X114.883 Y88.322 E7.7938
G1 X115.473 Y89.107 E7.8428
G1 X116.003 Y89.903 E7.89051
G1 X116.088 Y89.957 E7.89553
G1 X116.689 Y90.437 E7.9339
G1 X117.237 Y90.977 E7.97229
G1 X117.725 Y91.571 E8.01064
G1 X118.15 Y92.212 E8.04901
G1 X118.506 Y92.894 E8.08739
G1 X118.824 Y93.716 E8.13136
G1 X118.991 Y94.238 E8.15871
G1 X119.187 Y94.982 E8.19709
G1 X119.305 Y95.742 E8.23546
G1 X119.343 Y96.51 E8.27382
G1 X119.301 Y97.278 E8.3122
G1 X119.18 Y98.038 E8.35059
G1 X118.981 Y98.781 E8.38897
G1 X118.931 Y98.911 E8.39592
G1 X118.974 Y100.031 E8.45183
G1 X118.935 Y101.174 E8.50889
G1 X118.895 Y101.724 E8.5364
G1 X118.781 Y102.743 E8.58756
G1 X118.614 Y103.723 E8.63716
G1 X118.451 Y104.449 E8.67428
G1 X118.202 Y105.401 E8.72337
G1 X117.889 Y106.363 E8.77384
G1 X117.543 Y107.268 E8.82218
G1 X117.184 Y108.085 E8.8667
G1 X116.725 Y109.001 E8.91782
G1 X116.258 Y109.819 E8.96481
G1 X115.738 Y110.637 E9.01317
G1 X115.166 Y111.438 E9.06227
G1 X114.656 Y112.076 E9.10302
G1 X114.63 Y112.177 E9.10823
G1 X114.359 Y112.897 E9.14661
G1 X114.014 Y113.584 E9.18496
G1 X113.601 Y114.233 E9.22334
G1 X113.122 Y114.835 E9.26172
G1 X112.583 Y115.384 E9.3001
G1 X111.901 Y115.939 E9.34397
G1 X111.455 Y116.26 E9.37139
G1 X110.808 Y116.676 E9.40976
G1 X110.122 Y117.023 E9.44812
G1 X109.403 Y117.297 E9.4865
G1 X108.659 Y117.495 E9.52491
G1 X107.9 Y117.614 E9.56324
G1 X107.131 Y117.654 E9.60166
G1 X106.99 Y117.647 E9.6087
G1 X106.093 Y117.98 E9.65644
G1 X105.176 Y118.262 E9.7043
G1 X104.15 Y118.515 E9.75702
G1 X103.628 Y118.623 E9.78362
G1 X102.567 Y118.799 E9.83728
G1 X101.596 Y118.903 E9.886
G1 X100.704 Y118.955 E9.93057
G1 X100.115 Y118.965 E9.95996
G1 X99.158 Y118.944 E10.00772
G1 X98.027 Y118.851 E10.06434
G1 X97.348 Y118.768 E10.09846
G1 X96.598 Y118.64 E10.13642
G1 X95.575 Y118.425 E10.18858
G1 X94.64 Y118.168 E10.23695
G1 X93.912 Y117.93 E10.27516
G1 X93.156 Y117.649 E10.3154
G1 X93.05 Y117.655 E10.3207
G1 X92.282 Y117.62 E10.35905
G1 X91.521 Y117.505 E10.39745
G1 X90.776 Y117.313 E10.43583
G1 X90.056 Y117.044 E10.47418
G1 X89.367 Y116.701 E10.51258
G1 X88.609 Y116.21 E10.55764
G1 X88.167 Y115.884 E10.58504
G1 X87.572 Y115.396 E10.62343
G1 X87.032 Y114.849 E10.66178
G1 X86.551 Y114.249 E10.70014
G1 X86.135 Y113.602 E10.73852
G1 X85.788 Y112.915 E10.77692
G1 X85.515 Y112.196 E10.81529
G1 X85.485 Y112.081 E10.82122
G1 X85.186 Y111.71 E10.84499
G1 X84.7 Y111.068 E10.88516
G1 X84.149 Y110.253 E10.93424
G1 X83.665 Y109.455 E10.9808
G1 X83.222 Y108.635 E11.0273
G1 X82.815 Y107.782 E11.07445
G1 X82.449 Y106.906 E11.12182
G1 X82.141 Y106.056 E11.16692
G1 X81.863 Y105.144 E11.21449
G1 X81.687 Y104.452 E11.25011
G1 X81.465 Y103.412 E11.30317
G1 X81.31 Y102.36 E11.35622
G1 X81.231 Y101.631 E11.3928
G1 X81.175 Y100.653 E11.44168
G1 X81.166 Y100.035 E11.47251
G1 X81.196 Y98.891 E11.5296
G1 X81.161 Y98.801 E11.53442
G1 X80.959 Y98.059 E11.57279
G1 X80.836 Y97.299 E11.6112
G1 X80.791 Y96.532 E11.64953
G1 X80.827 Y95.763 E11.68794
G1 X80.942 Y95.003 E11.72629
G1 X81.169 Y94.153 E11.77018
G1 X81.342 Y93.633 E11.79752
G1 X81.623 Y92.917 E11.83589
G1 X81.976 Y92.234 E11.87425
G1 X82.398 Y91.591 E11.91262
G1 X82.885 Y90.995 E11.95102
G1 X83.431 Y90.453 E11.9894
G1 X84.03 Y89.971 E12.02776
G1 X84.134 Y89.904 E12.03393
G1 X84.477 Y89.382 E12.06509
G1 X84.963 Y88.7 E12.10687
G1 X85.559 Y87.948 E12.15475
G1 X86.195 Y87.224 E12.20282
G1 X86.869 Y86.533 E12.25098
G0 F3600 X87.034 Y86.936
G1 F1800 X87.806 Y86.205 E12.30402
G1 X88.444 Y85.673 E12.34547
G1 X89.27 Y85.038 E12.39745
G1 X90.06 Y84.5 E12.44513
G1 X90.895 Y83.995 E12.49382
G1 X91.67 Y83.576 E12.53777
G1 X92.556 Y83.154 E12.58673
G1 X93.513 Y82.765 E12.63827
G1 X94.207 Y82.514 E12.67509
G1 X94.934 Y82.291 E12.71303
G1 X95.519 Y82.134 E12.74325
G1 X95.801 Y81.915 E12.76106
G1 X96.437 Y81.522 E12.79836
G1 X97.111 Y81.198 E12.83567
G1 X97.817 Y80.949 E12.87302
G1 X98.544 Y80.776 E12.9103
G1 X99.287 Y80.682 E12.94766
G1 X99.822 Y80.663 E12.97437
G1 X100.37 Y80.665 E13.00171
G1 X101.116 Y80.708 E13.03899
G1 X101.854 Y80.83 E13.07631
G1 X102.575 Y81.03 E13.11364
G1 X103.27 Y81.306 E13.15095
G1 X103.932 Y81.655 E13.18828
G1 X104.553 Y82.072 E13.2256
G1 X104.628 Y82.135 E13.23049
G1 X105.395 Y82.344 E13.27015
G1 X106.273 Y82.632 E13.31625
G1 X107.132 Y82.961 E13.36214
G1 X107.973 Y83.333 E13.40802
G1 X108.797 Y83.749 E13.45407
G1 X109.607 Y84.21 E13.50057
G1 X110.427 Y84.732 E13.54906
G1 X111.158 Y85.252 E13.59382
G1 X111.901 Y85.839 E13.64106
G1 X112.634 Y86.482 E13.68971
G1 X113.297 Y87.127 E13.73585
G1 X113.962 Y87.845 E13.78468
G1 X114.564 Y88.563 E13.83143
G1 X115.129 Y89.315 E13.87835
G1 X115.737 Y90.212 E13.93242
G1 X116.003 Y90.392 E13.94844
G1 X116.574 Y90.874 E13.98572
G1 X117.091 Y91.416 E14.02309
G1 X117.547 Y92.009 E14.06041
G1 X117.937 Y92.647 E14.09771
G1 X118.256 Y93.324 E14.13505
G1 X118.443 Y93.838 E14.16234
G1 X118.61 Y94.36 E14.18968
G1 X118.8 Y95.084 E14.22703
G1 X118.911 Y95.823 E14.26431
G1 X118.943 Y96.571 E14.30166
G1 X118.894 Y97.317 E14.33896
G1 X118.767 Y98.054 E14.37627
G1 X118.561 Y98.774 E14.41363
G1 X118.528 Y98.855 E14.418
G1 X118.574 Y100.049 E14.47761
G1 X118.536 Y101.145 E14.53232
G1 X118.496 Y101.695 E14.55983
G1 X118.385 Y102.689 E14.60973
G1 X118.22 Y103.654 E14.65858
G1 X117.988 Y104.654 E14.70979
G1 X117.808 Y105.322 E14.74431
G1 X117.512 Y106.231 E14.792
G1 X117.233 Y106.96 E14.83094
G1 X116.831 Y107.898 E14.88186
G1 X116.382 Y108.795 E14.9319
G1 X115.917 Y109.609 E14.97867
G1 X115.4 Y110.421 E15.0267
G1 X114.844 Y111.2 E15.07444
G1 X114.287 Y111.895 E15.11888
G1 X114.19 Y112.231 E15.13633
G1 X113.907 Y112.923 E15.17363
G1 X113.552 Y113.582 E15.21097
G1 X113.128 Y114.198 E15.24828
G1 X112.642 Y114.766 E15.28558
G1 X112.097 Y115.279 E15.32292
G1 X111.667 Y115.614 E15.35011
G1 X111.221 Y115.935 E15.37753
G1 X110.591 Y116.339 E15.41486
G1 X109.922 Y116.674 E15.45219
G1 X109.221 Y116.935 E15.48951
G1 X108.496 Y117.12 E15.52684
G1 X107.756 Y117.226 E15.56413
G1 X107.008 Y117.253 E15.60148
G1 X106.915 Y117.246 E15.60613
G1 X106.576 Y117.379 E15.6243
G1 X105.777 Y117.659 E15.66654
G1 X105.085 Y117.871 E15.70264
G1 X104.381 Y118.051 E15.7389
G1 X103.547 Y118.231 E15.78146
G1 X102.521 Y118.402 E15.83336
G1 X101.571 Y118.503 E15.88102
G1 X100.681 Y118.555 E15.9255
G1 X100.123 Y118.565 E15.95334
G1 X99.184 Y118.545 E16.0002
G1 X98.4 Y118.486 E16.03942
G1 X97.402 Y118.373 E16.08953
G1 X96.343 Y118.183 E16.14321
G1 X95.635 Y118.027 E16.17938
G1 X94.592 Y117.732 E16.23346
G1 X93.878 Y117.498 E16.27094
G1 X93.212 Y117.242 E16.30654
G1 X92.863 Y117.254 E16.32396
G1 X92.117 Y117.199 E16.36128
G1 X91.381 Y117.065 E16.3986
G1 X90.663 Y116.853 E16.43595
G1 X89.972 Y116.566 E16.47328
G1 X89.316 Y116.207 E16.51059
G1 X88.846 Y115.888 E16.53893
G1 X88.404 Y115.562 E16.56633
G1 X87.827 Y115.087 E16.60362
G1 X87.303 Y114.552 E16.64098
G1 X86.84 Y113.965 E16.67828
G1 X86.442 Y113.332 E16.71558
G1 X86.114 Y112.66 E16.75289
G1 X85.826 Y111.866 E16.79503
G1 X85.505 Y111.469 E16.8205
G1 X85.03 Y110.841 E16.85978
G1 X84.481 Y110.029 E16.90868
G1 X84.014 Y109.26 E16.95357
G1 X83.659 Y108.602 E16.99087
G1 X83.188 Y107.638 E17.0444
G1 X82.886 Y106.915 E17.08349
G1 X82.523 Y105.943 E17.13525
G1 X82.209 Y104.882 E17.19045
G1 X82.002 Y104.037 E17.23386
G1 X81.893 Y103.505 E17.26095
G1 X81.751 Y102.642 E17.30458
G1 X81.63 Y101.612 E17.35633
G1 X81.574 Y100.631 E17.40535
G1 X81.565 Y100.046 E17.43454
G1 X81.585 Y99.29 E17.47227
G1 X81.611 Y98.847 E17.49441
G1 X81.486 Y98.5 E17.51281
G1 X81.31 Y97.773 E17.55012
G1 X81.212 Y97.031 E17.58746
G1 X81.194 Y96.283 E17.62479
G1 X81.256 Y95.538 E17.66209
G1 X81.397 Y94.803 E17.69943
G1 X81.549 Y94.279 E17.72665
G1 X81.722 Y93.759 E17.75399
G1 X81.996 Y93.063 E17.79131
G1 X82.342 Y92.4 E17.82862
G1 X82.757 Y91.778 E17.86592
G1 X83.237 Y91.203 E17.90329
G1 X83.774 Y90.684 E17.94055
G1 X84.365 Y90.224 E17.97791
G1 X84.43 Y90.184 E17.98172
G1 X84.803 Y89.615 E18.01566
G1 X85.284 Y88.94 E18.05702
G1 X85.872 Y88.199 E18.10421
G1 X86.498 Y87.485 E18.15158
G1 X87.034 Y86.936 E18.18986
G0 F3600 X87.545 Y86.996
G1 F1800 X88.097 Y86.482 E18.22749
G1 X88.946 Y85.785 E18.28229
G1 X89.518 Y85.353 E18.31806
G1 X90.285 Y84.832 E18.36431
G1 X90.95 Y84.429 E18.40311
G1 X91.841 Y83.937 E18.45389
G1 X92.718 Y83.52 E18.50234
G1 X93.649 Y83.141 E18.55248
G1 X94.34 Y82.891 E18.58915
G1 X95.051 Y82.673 E18.62625
G1 X95.689 Y82.503 E18.65919
G1 X96.186 Y82.138 E18.68995
G1 X96.815 Y81.774 E18.72621
G1 X97.48 Y81.483 E18.76242
G1 X98.174 Y81.266 E18.7987
G1 X98.886 Y81.126 E18.8349
G1 X99.82 Y81.063 E18.8816
G1 X100.368 Y81.065 E18.90894
G1 X101.093 Y81.108 E18.94518
G1 X101.809 Y81.23 E18.98141
G1 X102.508 Y81.43 E19.01769
G1 X103.18 Y81.705 E19.05391
G1 X103.817 Y82.053 E19.09013
G1 X104.468 Y82.507 E19.12972
G1 X105.288 Y82.73 E19.17212
G1 X105.981 Y82.957 E19.2085
G1 X106.963 Y83.323 E19.26078
G1 X107.81 Y83.699 E19.30702
G1 X108.611 Y84.103 E19.35177
G1 X109.398 Y84.55 E19.39693
G1 X110.213 Y85.069 E19.44513
G1 X111.048 Y85.675 E19.49661
G1 X111.642 Y86.144 E19.53437
G1 X112.374 Y86.787 E19.58297
G1 X113.006 Y87.402 E19.62697
G1 X113.654 Y88.101 E19.67452
G1 X114.258 Y88.821 E19.72141
G1 X114.805 Y89.55 E19.76688
G1 X115.213 Y90.151 E19.80312
G1 X115.418 Y90.474 E19.82221
G1 X115.911 Y90.827 E19.85246
G1 X116.451 Y91.313 E19.8887
G1 X116.935 Y91.855 E19.92495
G1 X117.356 Y92.446 E19.96116
G1 X117.71 Y93.081 E19.99743
G1 X118.062 Y93.96 E20.04467
G1 X118.229 Y94.482 E20.07201
G1 X118.412 Y95.185 E20.10825
G1 X118.517 Y95.904 E20.1445
G1 X118.542 Y96.63 E20.18074
G1 X118.487 Y97.354 E20.21697
G1 X118.352 Y98.068 E20.25322
G1 X118.123 Y98.803 E20.29163
G1 X118.173 Y100.043 E20.35354
G1 X118.137 Y101.116 E20.40711
G1 X118.097 Y101.666 E20.43462
G1 X117.99 Y102.621 E20.48256
G1 X117.825 Y103.588 E20.5315
G1 X117.602 Y104.55 E20.58077
G1 X117.375 Y105.36 E20.62274
G1 X117.14 Y106.083 E20.66066
G1 X116.859 Y106.817 E20.69988
G1 X116.471 Y107.722 E20.749
G1 X116.024 Y108.616 E20.79887
G1 X115.577 Y109.399 E20.84385
G1 X115.057 Y110.216 E20.89217
G1 X114.44 Y111.065 E20.94453
G1 X113.933 Y111.696 E20.98491
G1 X113.747 Y112.278 E21.01539
G1 X113.452 Y112.941 E21.0516
G1 X113.086 Y113.569 E21.08786
G1 X112.653 Y114.152 E21.12409
G1 X112.159 Y114.684 E21.16031
