;FLAVOR:Marlin
;TIME:2318
;Filament used: 4.42316m
;Layer height: 0.3
;MINX:55
;MINY:77.424
;MINZ:0.3
;MAXX:145
;MAXY:173.024
;MAXZ:8.1
;Generated with Cura_SteamEngine 5.2.1
M140 S60
M105
M190 S60
M104 S200
M105
M109 S200
M82 ;absolute extrusion mode
G28 ;Home
G1 Z15.0 F6000 ;Move the platform down 15mm
;Prime the extruder
G92 E0
G1 F200 E3
G92 E0
G92 E0
G92 E0
G1 F1500 E-6.5
;LAYER_COUNT:27
;LAYER:0
M107
G0 F3600 X75.823 Y79.573 Z0.3
;TYPE:SKIRT
G1 F1500 E0
G1 F2100 X76.422 Y79.058 E0.03941
G1 X77.07 Y78.607 E0.0788
G1 X77.761 Y78.223 E0.11824
G1 X78.486 Y77.911 E0.15762
G1 X79.239 Y77.674 E0.197
G1 X80.013 Y77.515 E0.23642
G1 X80.895 Y77.424 E0.28066
G1 X89.2 Y77.424 E0.695
G1 X89.989 Y77.464 E0.73441
G1 X90.769 Y77.583 E0.77378
G1 X91.534 Y77.781 E0.8132
G1 X92.274 Y78.055 E0.85257
G1 X92.983 Y78.403 E0.89197
G1 X93.654 Y78.821 E0.93141
G1 X94.466 Y79.45 E0.98265
G1 X94.922 Y79.058 E1.01266
G1 X95.57 Y78.607 E1.05204
G1 X96.261 Y78.223 E1.09148
G1 X96.986 Y77.911 E1.13086
G1 X97.739 Y77.674 E1.17024
G1 X98.513 Y77.515 E1.20967
G1 X99.395 Y77.424 E1.2539
G1 X107.7 Y77.424 E1.66824
G1 X108.489 Y77.464 E1.70765
G1 X109.269 Y77.583 E1.74702
G1 X110.034 Y77.781 E1.78644
G1 X110.774 Y78.055 E1.82581
G1 X111.483 Y78.403 E1.86521
G1 X112.154 Y78.821 E1.90466
G1 X112.778 Y79.304 E1.94402
G1 X113.351 Y79.847 E1.98341
G1 X113.866 Y80.446 E2.02282
G1 X114.317 Y81.094 E2.06221
G1 X114.701 Y81.785 E2.10165
G1 X115.013 Y82.51 E2.14102
G1 X115.25 Y83.263 E2.18041
G1 X115.409 Y84.037 E2.21983
G1 X115.5 Y84.919 E2.26407
G1 X115.5 Y89.224 E2.47884
G1 X115.46 Y90.013 E2.51826
G1 X115.341 Y90.793 E2.55762
G1 X115.143 Y91.558 E2.59705
G1 X114.869 Y92.298 E2.63641
G1 X114.521 Y93.007 E2.67582
G1 X114.103 Y93.678 E2.71526
G1 X113.62 Y94.302 E2.75463
G1 X113.077 Y94.875 E2.79401
G1 X112.478 Y95.39 E2.83342
G1 X111.83 Y95.841 E2.87281
G1 X111.5 Y96.024 E2.89163
G1 X111.5 Y97.202 E2.95041
G1 X112.278 Y97.804 E2.99948
G1 X112.851 Y98.347 E3.03887
G1 X113.366 Y98.946 E3.07828
G1 X113.817 Y99.594 E3.11767
G1 X114.021 Y99.961 E3.13861
G1 X114.274 Y100.055 E3.15208
G1 X114.983 Y100.403 E3.19148
G1 X115.654 Y100.821 E3.23092
G1 X116.278 Y101.304 E3.27029
G1 X116.851 Y101.847 E3.30968
G1 X117.366 Y102.446 E3.34909
G1 X117.817 Y103.094 E3.38847
G1 X118.201 Y103.785 E3.42791
G1 X118.513 Y104.51 E3.46729
G1 X118.75 Y105.263 E3.50668
G1 X118.909 Y106.037 E3.5461
G1 X118.979 Y106.712 E3.57995
G1 X119.154 Y106.821 E3.59024
G1 X119.778 Y107.304 E3.62961
G1 X120.351 Y107.847 E3.66899
G1 X120.866 Y108.446 E3.7084
G1 X121.317 Y109.094 E3.74779
G1 X121.701 Y109.785 E3.78723
G1 X122.013 Y110.51 E3.82661
G1 X122.25 Y111.263 E3.86599
G1 X122.409 Y112.037 E3.90541
G1 X122.5 Y112.919 E3.94965
G1 X122.5 Y114.439 E4.02548
G1 X122.989 Y114.464 E4.04991
G1 X123.769 Y114.583 E4.08928
G1 X124.534 Y114.781 E4.1287
G1 X125.274 Y115.055 E4.16807
G1 X125.983 Y115.403 E4.20747
G1 X126.654 Y115.821 E4.24691
G1 X127.278 Y116.304 E4.28628
G1 X127.851 Y116.847 E4.32566
G1 X128.366 Y117.446 E4.36507
G1 X128.817 Y118.094 E4.40446
G1 X129.201 Y118.785 E4.4439
G1 X129.513 Y119.51 E4.48328
G1 X129.75 Y120.263 E4.52266
G1 X129.909 Y121.037 E4.56209
G1 X130 Y121.919 E4.60632
G1 X130 Y128.939 E4.95655
G1 X130.489 Y128.964 E4.98098
G1 X131.269 Y129.083 E5.02034
G1 X132.034 Y129.281 E5.05977
G1 X132.774 Y129.555 E5.09914
G1 X133.483 Y129.903 E5.13854
G1 X134.154 Y130.321 E5.17798
G1 X134.778 Y130.804 E5.21735
G1 X135.351 Y131.347 E5.25673
G1 X135.866 Y131.946 E5.29614
G1 X136.317 Y132.594 E5.33553
G1 X136.701 Y133.285 E5.37497
G1 X137.013 Y134.01 E5.41435
G1 X137.25 Y134.763 E5.45373
G1 X137.409 Y135.537 E5.49315
G1 X137.502 Y136.439 E5.53839
G1 X137.989 Y136.464 E5.56272
G1 X138.769 Y136.583 E5.60209
G1 X139.534 Y136.781 E5.64151
G1 X140.274 Y137.055 E5.68088
G1 X140.983 Y137.403 E5.72028
G1 X141.654 Y137.821 E5.75972
G1 X142.278 Y138.304 E5.79909
G1 X142.851 Y138.847 E5.83847
G1 X143.366 Y139.446 E5.87789
G1 X143.817 Y140.094 E5.91727
G1 X144.201 Y140.785 E5.95671
G1 X144.513 Y141.51 E5.99609
G1 X144.75 Y142.263 E6.03547
G1 X144.909 Y143.037 E6.0749
G1 X145 Y143.919 E6.11913
G1 X145 Y161.224 E6.98248
G1 X144.96 Y162.013 E7.0219
G1 X144.841 Y162.793 E7.06126
G1 X144.643 Y163.558 E7.10069
G1 X144.369 Y164.298 E7.14005
G1 X144.021 Y165.007 E7.17946
G1 X143.603 Y165.678 E7.2189
G1 X143.12 Y166.302 E7.25827
G1 X142.577 Y166.875 E7.29765
G1 X141.978 Y167.39 E7.33706
G1 X141.33 Y167.841 E7.37645
G1 X140.639 Y168.225 E7.41589
G1 X140.342 Y168.353 E7.43202
G1 X140.021 Y169.007 E7.46837
G1 X139.603 Y169.678 E7.50781
G1 X139.12 Y170.302 E7.54718
G1 X138.577 Y170.875 E7.58656
G1 X137.978 Y171.39 E7.62597
G1 X137.33 Y171.841 E7.66536
G1 X136.639 Y172.225 E7.7048
G1 X135.914 Y172.537 E7.74418
G1 X135.161 Y172.774 E7.78356
G1 X134.387 Y172.933 E7.82298
G1 X133.505 Y173.024 E7.86722
G1 X103.2 Y173.024 E9.37914
G1 X102.411 Y172.984 E9.41856
G1 X101.631 Y172.865 E9.45792
G1 X100.866 Y172.667 E9.49735
G1 X100.126 Y172.393 E9.53671
G1 X99.417 Y172.045 E9.57612
G1 X98.746 Y171.627 E9.61556
G1 X98.122 Y171.144 E9.65493
G1 X97.549 Y170.601 E9.69431
G1 X97.034 Y170.002 E9.73372
G1 X96.583 Y169.354 E9.77311
G1 X96.199 Y168.663 E9.81255
G1 X95.937 Y168.055 E9.84558
G1 X95.246 Y167.627 E9.88613
G1 X94.622 Y167.144 E9.9255
G1 X94.049 Y166.601 E9.96488
G1 X93.534 Y166.002 E10.00429
G1 X93.083 Y165.354 E10.04368
G1 X92.699 Y164.663 E10.08312
G1 X92.387 Y163.938 E10.1225
G1 X92.15 Y163.185 E10.16188
G1 X91.991 Y162.411 E10.2013
G1 X91.9 Y161.529 E10.24554
G1 X91.9 Y143.746 E11.13274
G1 X91.122 Y143.144 E11.18182
G1 X90.549 Y142.601 E11.2212
G1 X90.034 Y142.002 E11.26061
G1 X89.645 Y141.443 E11.29459
G1 X89.131 Y141.365 E11.32052
G1 X88.366 Y141.167 E11.35995
G1 X87.626 Y140.893 E11.39932
G1 X86.917 Y140.545 E11.43872
G1 X86.246 Y140.127 E11.47816
G1 X85.622 Y139.644 E11.51753
G1 X85.049 Y139.101 E11.55691
G1 X84.534 Y138.502 E11.59632
G1 X84.083 Y137.854 E11.63571
G1 X83.828 Y137.395 E11.66191
G1 X83.631 Y137.365 E11.67185
G1 X82.866 Y137.167 E11.71127
G1 X82.126 Y136.893 E11.75064
G1 X81.417 Y136.545 E11.79004
G1 X80.746 Y136.127 E11.82948
G1 X80.122 Y135.644 E11.86885
G1 X79.549 Y135.101 E11.90824
G1 X79.034 Y134.502 E11.94765
G1 X78.583 Y133.854 E11.98704
G1 X78.379 Y133.487 E12.00798
G1 X77.879 Y133.272 E12.03514
G1 X77.521 Y134.007 E12.07593
G1 X77.103 Y134.678 E12.11537
G1 X76.62 Y135.302 E12.15473
G1 X76.077 Y135.875 E12.19412
G1 X75.478 Y136.39 E12.23353
G1 X75 Y136.723 E12.26259
G1 X75 Y137.224 E12.28759
G1 X74.96 Y138.013 E12.327
G1 X74.841 Y138.793 E12.36637
G1 X74.643 Y139.558 E12.40579
G1 X74.369 Y140.298 E12.44516
G1 X74.021 Y141.007 E12.48456
G1 X73.603 Y141.678 E12.524
G1 X73.12 Y142.302 E12.56337
G1 X72.577 Y142.875 E12.60275
G1 X71.978 Y143.39 E12.64217
G1 X71.33 Y143.841 E12.68155
G1 X70.639 Y144.225 E12.72099
G1 X69.914 Y144.537 E12.76037
G1 X69.161 Y144.774 E12.79975
G1 X68.387 Y144.933 E12.83918
G1 X67.505 Y145.024 E12.88341
G1 X62.8 Y145.024 E13.11815
G1 X62.011 Y144.984 E13.15756
G1 X61.231 Y144.865 E13.19692
G1 X60.466 Y144.667 E13.23635
G1 X59.726 Y144.393 E13.27572
G1 X59.017 Y144.045 E13.31512
G1 X58.346 Y143.627 E13.35456
G1 X57.722 Y143.144 E13.39393
G1 X57.149 Y142.601 E13.43331
G1 X56.634 Y142.002 E13.47272
G1 X56.183 Y141.354 E13.51211
G1 X55.799 Y140.663 E13.55155
G1 X55.487 Y139.938 E13.59093
G1 X55.25 Y139.185 E13.63031
G1 X55.091 Y138.411 E13.66973
G1 X55 Y137.529 E13.71397
G1 X55 Y115.224 E14.82677
G1 X55.04 Y114.435 E14.86619
G1 X55.159 Y113.655 E14.90555
G1 X55.357 Y112.89 E14.94497
G1 X55.631 Y112.15 E14.98434
G1 X55.979 Y111.441 E15.02375
G1 X56.397 Y110.77 E15.06319
G1 X56.88 Y110.146 E15.10255
G1 X57.423 Y109.573 E15.14194
G1 X58.022 Y109.058 E15.18135
G1 X58.67 Y108.607 E15.22074
G1 X59.361 Y108.223 E15.26018
G1 X59.531 Y108.15 E15.26941
G1 X59.879 Y107.441 E15.30881
G1 X60.297 Y106.77 E15.34825
G1 X60.78 Y106.146 E15.38762
G1 X61.323 Y105.573 E15.427
G1 X61.922 Y105.058 E15.46641
G1 X62.57 Y104.607 E15.5058
G1 X63.233 Y104.239 E15.54363
G1 X63.379 Y103.941 E15.56019
G1 X63.797 Y103.27 E15.59963
G1 X64.28 Y102.646 E15.639
G1 X64.823 Y102.073 E15.67838
G1 X65.422 Y101.558 E15.71779
G1 X66.07 Y101.107 E15.75718
G1 X66.761 Y100.723 E15.79662
G1 X67.058 Y100.595 E15.81276
G1 X67.379 Y99.941 E15.8491
G1 X67.797 Y99.27 E15.88854
G1 X68.28 Y98.646 E15.92791
G1 X68.823 Y98.073 E15.96729
G1 X69.422 Y97.558 E16.00671
G1 X70.07 Y97.107 E16.04609
G1 X70.733 Y96.739 E16.08392
G1 X70.879 Y96.441 E16.10048
G1 X71.297 Y95.77 E16.13992
G1 X71.78 Y95.146 E16.17929
G1 X72.323 Y94.573 E16.21867
G1 X72.922 Y94.058 E16.25808
G1 X73.4 Y93.725 E16.28715
G1 X73.4 Y85.224 E16.71126
G1 X73.44 Y84.435 E16.75068
G1 X73.559 Y83.655 E16.79004
G1 X73.757 Y82.89 E16.82947
G1 X74.031 Y82.15 E16.86883
G1 X74.379 Y81.441 E16.90824
G1 X74.797 Y80.77 E16.94768
G1 X75.28 Y80.146 E16.98705
G1 X75.823 Y79.573 E17.02643
G0 F3600 X76.216 Y79.754
G1 F2100 X76.811 Y79.266 E17.06482
G1 X77.453 Y78.843 E17.10318
G1 X78.136 Y78.488 E17.14158
G1 X78.851 Y78.207 E17.17991
G1 X79.593 Y78.001 E17.21833
G1 X80.351 Y77.873 E17.25668
G1 X81.2 Y77.824 E17.29911
G1 X89.2 Y77.824 E17.69823
G1 X89.968 Y77.864 E17.7366
G1 X90.728 Y77.983 E17.77498
G1 X91.471 Y78.181 E17.81334
G1 X92.19 Y78.455 E17.85173
G1 X92.876 Y78.802 E17.89008
G1 X93.523 Y79.218 E17.92845
G1 X94.123 Y79.699 E17.96682
G1 X94.45 Y80.023 E17.98979
G1 X94.716 Y79.754 E18.00866
G1 X95.311 Y79.266 E18.04705
G1 X95.953 Y78.843 E18.08541
G1 X96.636 Y78.488 E18.12381
G1 X97.351 Y78.207 E18.16214
G1 X98.093 Y78.001 E18.20056
G1 X98.851 Y77.873 E18.23891
G1 X99.7 Y77.824 E18.28134
G1 X107.7 Y77.824 E18.68046
G1 X108.468 Y77.864 E18.71883
G1 X109.228 Y77.983 E18.75721
G1 X109.971 Y78.181 E18.79557
G1 X110.69 Y78.455 E18.83395
G1 X111.376 Y78.802 E18.87231
G1 X112.023 Y79.218 E18.91068
G1 X112.623 Y79.699 E18.94905
G1 X113.17 Y80.24 E18.98743
G1 X113.658 Y80.835 E19.02582
G1 X114.081 Y81.477 E19.06418
G1 X114.436 Y82.16 E19.10258
G1 X114.717 Y82.875 E19.14091
G1 X114.923 Y83.617 E19.17933
G1 X115.051 Y84.375 E19.21768
G1 X115.1 Y85.224 E19.26011
G1 X115.1 Y89.224 E19.45967
G1 X115.06 Y89.992 E19.49804
G1 X114.941 Y90.752 E19.53642
G1 X114.743 Y91.495 E19.57478
G1 X114.469 Y92.214 E19.61317
G1 X114.122 Y92.9 E19.65152
G1 X113.706 Y93.547 E19.6899
G1 X113.225 Y94.147 E19.72826
G1 X112.684 Y94.694 E19.76664
G1 X112.089 Y95.182 E19.80504
G1 X111.447 Y95.605 E19.84339
G1 X111.1 Y95.785 E19.86289
G1 X111.1 Y97.446 E19.94576
G1 X111.523 Y97.718 E19.97085
G1 X112.123 Y98.199 E20.00922
G1 X112.67 Y98.74 E20.0476
G1 X113.158 Y99.335 E20.08599
G1 X113.581 Y99.977 E20.12435
G1 X113.74 Y100.284 E20.1416
G1 X114.19 Y100.455 E20.16561
G1 X114.876 Y100.802 E20.20397
G1 X115.523 Y101.218 E20.24234
G1 X116.123 Y101.699 E20.28071
G1 X116.67 Y102.24 E20.31909
G1 X117.158 Y102.835 E20.35748
G1 X117.581 Y103.477 E20.39584
G1 X117.936 Y104.16 E20.43424
G1 X118.217 Y104.875 E20.47257
G1 X118.423 Y105.617 E20.51099
G1 X118.551 Y106.375 E20.54934
G1 X118.583 Y106.935 E20.57733
G1 X119.023 Y107.218 E20.60343
G1 X119.623 Y107.699 E20.64179
G1 X120.17 Y108.24 E20.68018
G1 X120.658 Y108.835 E20.71857
G1 X121.081 Y109.477 E20.75692
G1 X121.436 Y110.16 E20.79533
G1 X121.717 Y110.875 E20.83365
G1 X121.923 Y111.617 E20.87207
G1 X122.051 Y112.375 E20.91042
G1 X122.1 Y113.224 E20.95285
G1 X122.1 Y114.824 E21.03268
G1 X122.968 Y114.864 E21.07603
G1 X123.728 Y114.983 E21.11441
G1 X124.471 Y115.181 E21.15277
G1 X125.19 Y115.455 E21.19116
G1 X125.876 Y115.802 E21.22951
G1 X126.523 Y116.218 E21.26788
G1 X127.123 Y116.699 E21.30625
G1 X127.67 Y117.24 E21.34463
G1 X128.158 Y117.835 E21.38302
G1 X128.581 Y118.477 E21.42138
G1 X128.936 Y119.16 E21.45978
G1 X129.217 Y119.875 E21.49811
G1 X129.423 Y120.617 E21.53653
G1 X129.551 Y121.375 E21.57488
G1 X129.6 Y122.224 E21.61731
G1 X129.6 Y129.324 E21.97153
G1 X130.468 Y129.364 E22.01488
G1 X131.228 Y129.483 E22.05326
G1 X131.971 Y129.681 E22.09162
G1 X132.69 Y129.955 E22.13001
G1 X133.376 Y130.302 E22.16836
G1 X134.023 Y130.718 E22.20674
G1 X134.623 Y131.199 E22.2451
G1 X135.17 Y131.74 E22.28349
G1 X135.658 Y132.335 E22.32188
G1 X136.081 Y132.977 E22.36024
G1 X136.436 Y133.66 E22.39864
G1 X136.717 Y134.375 E22.43697
G1 X136.923 Y135.117 E22.47538
G1 X137.051 Y135.875 E22.51374
G1 X137.106 Y136.824 E22.56116
G1 X137.968 Y136.864 E22.60421
G1 X138.728 Y136.983 E22.64259
G1 X139.471 Y137.181 E22.68095
G1 X140.19 Y137.455 E22.71934
G1 X140.876 Y137.802 E22.7577
G1 X141.523 Y138.218 E22.79607
G1 X142.123 Y138.699 E22.83444
G1 X142.67 Y139.24 E22.87282
G1 X143.158 Y139.835 E22.91121
G1 X143.581 Y140.477 E22.94957
G1 X143.936 Y141.16 E22.98797
G1 X144.217 Y141.875 E23.0263
G1 X144.423 Y142.617 E23.06472
G1 X144.551 Y143.375 E23.10307
G1 X144.6 Y144.224 E23.1455
G1 X144.6 Y161.224 E23.99363
G1 X144.56 Y161.992 E24.032
G1 X144.441 Y162.752 E24.07038
G1 X144.243 Y163.495 E24.10874
G1 X143.969 Y164.214 E24.14713
G1 X143.622 Y164.9 E24.18548
G1 X143.206 Y165.547 E24.22386
G1 X142.725 Y166.147 E24.26222
G1 X142.184 Y166.694 E24.3006
G1 X141.589 Y167.182 E24.339
G1 X140.947 Y167.605 E24.37735
G1 X140.264 Y167.96 E24.41576
G1 X140.031 Y168.052 E24.42825
G1 X139.969 Y168.214 E24.43691
G1 X139.622 Y168.9 E24.47526
G1 X139.206 Y169.547 E24.51364
G1 X138.725 Y170.147 E24.552
G1 X138.184 Y170.694 E24.59038
G1 X137.589 Y171.182 E24.62878
G1 X136.947 Y171.605 E24.66713
G1 X136.264 Y171.96 E24.70554
G1 X135.549 Y172.241 E24.74386
G1 X134.807 Y172.447 E24.78228
G1 X134.049 Y172.575 E24.82063
G1 X133.2 Y172.624 E24.86306
G1 X103.2 Y172.624 E26.35977
G1 X102.432 Y172.584 E26.39814
G1 X101.672 Y172.465 E26.43651
G1 X100.929 Y172.267 E26.47488
G1 X100.21 Y171.993 E26.51326
G1 X99.524 Y171.646 E26.55162
G1 X98.877 Y171.23 E26.58999
G1 X98.277 Y170.749 E26.62836
G1 X97.73 Y170.208 E26.66674
G1 X97.242 Y169.613 E26.70513
G1 X96.819 Y168.971 E26.74349
G1 X96.464 Y168.288 E26.78189
G1 X96.258 Y167.764 E26.80998
G1 X96.024 Y167.646 E26.82306
G1 X95.377 Y167.23 E26.86143
G1 X94.777 Y166.749 E26.8998
G1 X94.23 Y166.208 E26.93818
G1 X93.742 Y165.613 E26.97657
G1 X93.319 Y164.971 E27.01493
G1 X92.964 Y164.288 E27.05333
G1 X92.683 Y163.573 E27.09166
G1 X92.477 Y162.831 E27.13008
G1 X92.349 Y162.073 E27.16843
G1 X92.3 Y161.224 E27.21086
G1 X92.3 Y143.502 E28.09501
G1 X91.877 Y143.23 E28.1201
G1 X91.277 Y142.749 E28.15847
G1 X90.73 Y142.208 E28.19685
G1 X90.242 Y141.613 E28.23524
G1 X89.889 Y141.077 E28.26726
G1 X89.172 Y140.965 E28.30347
G1 X88.429 Y140.767 E28.34183
G1 X87.71 Y140.493 E28.38022
G1 X87.024 Y140.146 E28.41857
G1 X86.377 Y139.73 E28.45695
G1 X85.777 Y139.249 E28.49531
G1 X85.23 Y138.708 E28.53369
G1 X84.742 Y138.113 E28.57209
G1 X84.319 Y137.471 E28.61044
G1 X84.09 Y137.03 E28.63523
G1 X83.672 Y136.965 E28.65634
G1 X82.929 Y136.767 E28.6947
G1 X82.21 Y136.493 E28.73309
G1 X81.524 Y136.146 E28.77144
G1 X80.877 Y135.73 E28.80982
G1 X80.277 Y135.249 E28.84818
G1 X79.73 Y134.708 E28.88657
G1 X79.242 Y134.113 E28.92496
G1 X78.819 Y133.471 E28.96331
G1 X78.66 Y133.164 E28.98056
G1 X78.21 Y132.993 E29.00458
G1 X77.698 Y132.734 E29.03321
G1 X77.64 Y132.764 E29.03646
G1 X77.469 Y133.214 E29.06048
G1 X77.122 Y133.9 E29.09884
G1 X76.706 Y134.547 E29.13721
G1 X76.225 Y135.147 E29.17558
G1 X75.684 Y135.694 E29.21396
G1 X75.089 Y136.182 E29.25235
G1 X74.6 Y136.504 E29.28156
G1 X74.6 Y137.224 E29.31748
G1 X74.56 Y137.992 E29.35585
G1 X74.441 Y138.752 E29.39423
G1 X74.243 Y139.495 E29.43259
G1 X73.969 Y140.214 E29.47098
G1 X73.622 Y140.9 E29.50933
G1 X73.206 Y141.547 E29.54771
G1 X72.725 Y142.147 E29.58607
G1 X72.184 Y142.694 E29.62446
G1 X71.589 Y143.182 E29.66285
G1 X70.947 Y143.605 E29.7012
G1 X70.264 Y143.96 E29.73961
G1 X69.549 Y144.241 E29.77793
G1 X68.807 Y144.447 E29.81635
G1 X68.049 Y144.575 E29.85471
G1 X67.2 Y144.624 E29.89713
G1 X62.8 Y144.624 E30.11665
G1 X62.032 Y144.584 E30.15502
G1 X61.272 Y144.465 E30.1934
G1 X60.529 Y144.267 E30.23176
G1 X59.81 Y143.993 E30.27015
G1 X59.124 Y143.646 E30.3085
G1 X58.477 Y143.23 E30.34687
G1 X57.877 Y142.749 E30.38524
G1 X57.33 Y142.208 E30.42362
G1 X56.842 Y141.613 E30.46201
G1 X56.419 Y140.971 E30.50037
G1 X56.064 Y140.288 E30.53877
