;FLAVOR:Repetier
;TIME:943
;MINX:-17.8
;MINY:-17.8
;MINZ:0.3
;MAXX:17.8
;MAXY:17.8
;MAXZ:20.1
;Generated with Cura_SteamEngine 5.2.1
M82 ;absolute extrusion mode
G21
G90
M82
M107 T0
M190 S60
M109 S200 T0
G28
G92 E0
G0 E3 F200
G92 E0

G92 E0
G92 E0
G1 F1500 E-6.5
;LAYER_COUNT:100
;LAYER:0
M107
G0 F3600 X17.8 Y10 Z0.3
;TYPE:SKIRT
G1 F1500 E0
G1 F1800 X17.76 Y10.789 E0.03941
G1 X17.641 Y11.569 E0.07878
G1 X17.443 Y12.334 E0.1182
G1 X17.169 Y13.074 E0.15757
G1 X16.821 Y13.783 E0.19697
G1 X16.403 Y14.454 E0.23641
G1 X15.92 Y15.078 E0.27578
G1 X15.377 Y15.651 E0.31517
G1 X14.778 Y16.166 E0.35458
G1 X14.13 Y16.617 E0.39397
G1 X13.439 Y17.001 E0.43341
G1 X12.714 Y17.313 E0.47278
G1 X11.961 Y17.55 E0.51217
G1 X11.187 Y17.709 E0.55159
G1 X10.305 Y17.8 E0.59582
G1 X-10 Y17.8 E1.60885
G1 X-10.789 Y17.76 E1.64826
G1 X-11.569 Y17.641 E1.68762
G1 X-12.334 Y17.443 E1.72705
G1 X-13.074 Y17.169 E1.76642
G1 X-13.783 Y16.821 E1.80582
G1 X-14.454 Y16.403 E1.84526
G1 X-15.078 Y15.92 E1.88463
G1 X-15.651 Y15.377 E1.92401
G1 X-16.166 Y14.778 E1.96342
G1 X-16.617 Y14.13 E2.00281
G1 X-17.001 Y13.439 E2.04225
G1 X-17.313 Y12.714 E2.08163
G1 X-17.55 Y11.961 E2.12101
G1 X-17.709 Y11.187 E2.16043
G1 X-17.8 Y10.305 E2.20467
G1 X-17.8 Y-10 E3.21769
G1 X-17.76 Y-10.789 E3.2571
G1 X-17.641 Y-11.569 E3.29647
G1 X-17.443 Y-12.334 E3.33589
G1 X-17.169 Y-13.074 E3.37526
G1 X-16.821 Y-13.783 E3.41466
G1 X-16.403 Y-14.454 E3.45411
G1 X-15.92 Y-15.078 E3.49347
G1 X-15.377 Y-15.651 E3.53286
G1 X-14.778 Y-16.166 E3.57227
G1 X-14.13 Y-16.617 E3.61166
G1 X-13.439 Y-17.001 E3.6511
G1 X-12.714 Y-17.313 E3.69047
G1 X-11.961 Y-17.55 E3.72986
G1 X-11.187 Y-17.709 E3.76928
G1 X-10.305 Y-17.8 E3.81352
G1 X10 Y-17.8 E4.82654
G1 X10.789 Y-17.76 E4.86595
G1 X11.569 Y-17.641 E4.90532
G1 X12.334 Y-17.443 E4.94474
G1 X13.074 Y-17.169 E4.98411
G1 X13.783 Y-16.821 E5.02351
G1 X14.454 Y-16.403 E5.06295
G1 X15.078 Y-15.92 E5.10232
G1 X15.651 Y-15.377 E5.1417
G1 X16.166 Y-14.778 E5.18111
G1 X16.617 Y-14.13 E5.2205
G1 X17.001 Y-13.439 E5.25994
G1 X17.313 Y-12.714 E5.29932
G1 X17.55 Y-11.961 E5.3387
G1 X17.709 Y-11.187 E5.37812
G1 X17.8 Y-10.305 E5.42236
G1 X17.8 Y10 E6.43538
G0 F3600 X17.4 Y10
G1 F1800 X17.36 Y10.768 E6.47375
G1 X17.241 Y11.528 E6.51213
G1 X17.043 Y12.271 E6.55049
G1 X16.769 Y12.99 E6.58888
G1 X16.422 Y13.676 E6.62723
G1 X16.006 Y14.323 E6.66561
G1 X15.525 Y14.923 E6.70397
G1 X14.984 Y15.47 E6.74236
G1 X14.389 Y15.958 E6.78075
G1 X13.747 Y16.381 E6.8191
G1 X13.064 Y16.736 E6.85751
G1 X12.349 Y17.017 E6.89583
G1 X11.607 Y17.223 E6.93425
G1 X10.849 Y17.351 E6.97261
G1 X10 Y17.4 E7.01503
G1 X-10 Y17.4 E8.01284
G1 X-10.768 Y17.36 E8.0512
G1 X-11.528 Y17.241 E8.08958
G1 X-12.271 Y17.043 E8.12794
G1 X-12.99 Y16.769 E8.16633
G1 X-13.676 Y16.422 E8.20469
G1 X-14.323 Y16.006 E8.24306
G1 X-14.923 Y15.525 E8.28143
G1 X-15.47 Y14.984 E8.31981
G1 X-15.958 Y14.389 E8.3582
G1 X-16.381 Y13.747 E8.39656
G1 X-16.736 Y13.064 E8.43496
G1 X-17.017 Y12.349 E8.47329
G1 X-17.223 Y11.607 E8.51171
G1 X-17.351 Y10.849 E8.55006
G1 X-17.4 Y10 E8.59249
G1 X-17.4 Y-10 E9.59029
G1 X-17.36 Y-10.768 E9.62866
G1 X-17.241 Y-11.528 E9.66704
G1 X-17.043 Y-12.271 E9.7054
G1 X-16.769 Y-12.99 E9.74379
G1 X-16.422 Y-13.676 E9.78214
G1 X-16.006 Y-14.323 E9.82052
G1 X-15.525 Y-14.923 E9.85888
G1 X-14.984 Y-15.47 E9.89726
G1 X-14.389 Y-15.958 E9.93566
G1 X-13.747 Y-16.381 E9.97401
G1 X-13.064 Y-16.736 E10.01242
G1 X-12.349 Y-17.017 E10.05074
G1 X-11.607 Y-17.223 E10.08916
G1 X-10.849 Y-17.351 E10.12751
G1 X-10 Y-17.4 E10.16994
G1 X10 Y-17.4 E11.16775
G1 X10.768 Y-17.36 E11.20611
G1 X11.528 Y-17.241 E11.24449
G1 X12.271 Y-17.043 E11.28285
G1 X12.99 Y-16.769 E11.32124
G1 X13.676 Y-16.422 E11.3596
G1 X14.323 Y-16.006 E11.39797
G1 X14.923 Y-15.525 E11.43634
G1 X15.47 Y-14.984 E11.47472
G1 X15.958 Y-14.389 E11.51311
G1 X16.381 Y-13.747 E11.55147
G1 X16.736 Y-13.064 E11.58987
G1 X17.017 Y-12.349 E11.6282
G1 X17.223 Y-11.607 E11.66662
G1 X17.351 Y-10.849 E11.70497
G1 X17.4 Y-10 E11.7474
G1 X17.4 Y10 E12.7452
G0 F3600 X17 Y10
G1 F1800 X16.96 Y10.747 E12.78252
G1 X16.841 Y11.485 E12.81982
G1 X16.643 Y12.207 E12.85717
G1 X16.37 Y12.903 E12.89447
G1 X16.023 Y13.566 E12.9318
G1 X15.608 Y14.189 E12.96915
G1 X15.129 Y14.763 E13.00644
G1 X14.592 Y15.284 E13.04377
G1 X14.002 Y15.743 E13.08107
G1 X13.366 Y16.138 E13.11842
G1 X12.692 Y16.462 E13.15573
G1 X11.987 Y16.712 E13.19305
G1 X11.259 Y16.886 E13.23039
G1 X10.517 Y16.981 E13.26771
G1 X10 Y17 E13.29352
G1 X-10 Y17 E14.29132
G1 X-10.747 Y16.96 E14.32865
G1 X-11.485 Y16.841 E14.36594
G1 X-12.207 Y16.643 E14.40329
G1 X-12.903 Y16.37 E14.44059
G1 X-13.566 Y16.023 E14.47792
G1 X-14.189 Y15.608 E14.51527
G1 X-14.763 Y15.129 E14.55257
G1 X-15.284 Y14.592 E14.5899
G1 X-15.743 Y14.002 E14.62719
G1 X-16.138 Y13.366 E14.66454
G1 X-16.462 Y12.692 E14.70185
G1 X-16.712 Y11.987 E14.73917
G1 X-16.886 Y11.259 E14.77651
G1 X-16.981 Y10.517 E14.81383
G1 X-17 Y10 E14.83964
G1 X-17 Y-10 E15.83745
G1 X-16.96 Y-10.747 E15.87477
G1 X-16.841 Y-11.485 E15.91206
G1 X-16.643 Y-12.207 E15.94942
G1 X-16.37 Y-12.903 E15.98671
G1 X-16.023 Y-13.566 E16.02405
G1 X-15.608 Y-14.189 E16.06139
G1 X-15.129 Y-14.763 E16.09869
G1 X-14.592 Y-15.284 E16.13602
G1 X-14.002 Y-15.743 E16.17331
G1 X-13.366 Y-16.138 E16.21067
G1 X-12.692 Y-16.462 E16.24798
G1 X-11.987 Y-16.712 E16.28529
G1 X-11.259 Y-16.886 E16.32264
G1 X-10.517 Y-16.981 E16.35996
G1 X-10 Y-17 E16.38577
G1 X10 Y-17 E17.38357
G1 X10.747 Y-16.96 E17.42089
G1 X11.485 Y-16.841 E17.45819
G1 X12.207 Y-16.643 E17.49554
G1 X12.903 Y-16.37 E17.53284
G1 X13.566 Y-16.023 E17.57017
G1 X14.189 Y-15.608 E17.60752
G1 X14.763 Y-15.129 E17.64482
G1 X15.284 Y-14.592 E17.68214
G1 X15.743 Y-14.002 E17.71944
G1 X16.138 Y-13.366 E17.75679
G1 X16.462 Y-12.692 E17.7941
G1 X16.712 Y-11.987 E17.83142
G1 X16.886 Y-11.259 E17.86876
G1 X16.981 Y-10.517 E17.90608
G1 X17 Y-10 E17.93189
G1 X17 Y10 E18.9297
G0 F3600 X16.6 Y10
G1 F1800 X16.56 Y10.725 E18.96592
G1 X16.441 Y11.442 E19.00218
G1 X16.243 Y12.141 E19.03843
G1 X15.97 Y12.814 E19.07466
G1 X15.625 Y13.453 E19.11089
G1 X15.211 Y14.05 E19.14714
G1 X14.735 Y14.598 E19.18335
G1 X14.201 Y15.091 E19.21961
G1 X13.616 Y15.521 E19.25583
G1 X12.987 Y15.885 E19.29209
G1 X12.322 Y16.178 E19.32834
G1 X11.629 Y16.396 E19.36459
G1 X10.917 Y16.536 E19.40079
G1 X10 Y16.6 E19.44665
G1 X-10 Y16.6 E20.44445
G1 X-10.725 Y16.56 E20.48068
G1 X-11.442 Y16.441 E20.51694
G1 X-12.141 Y16.243 E20.55318
G1 X-12.814 Y15.97 E20.58942
G1 X-13.453 Y15.625 E20.62565
G1 X-14.05 Y15.211 E20.66189
G1 X-14.598 Y14.735 E20.69811
G1 X-15.091 Y14.201 E20.73437
G1 X-15.521 Y13.616 E20.77059
G1 X-15.885 Y12.987 E20.80684
G1 X-16.178 Y12.322 E20.8431
G1 X-16.396 Y11.629 E20.87934
G1 X-16.536 Y10.917 E20.91555
G1 X-16.6 Y10 E20.96141
G1 X-16.6 Y-10 E21.95921
G1 X-16.56 Y-10.725 E21.99544
G1 X-16.441 Y-11.442 E22.0317
G1 X-16.243 Y-12.141 E22.06794
G1 X-15.97 Y-12.814 E22.10417
G1 X-15.625 Y-13.453 E22.1404
G1 X-15.211 Y-14.05 E22.17665
G1 X-14.735 Y-14.598 E22.21286
G1 X-14.201 Y-15.091 E22.24912
G1 X-13.616 Y-15.521 E22.28534
G1 X-12.987 Y-15.885 E22.3216
G1 X-12.322 Y-16.178 E22.35786
G1 X-11.629 Y-16.396 E22.3941
G1 X-10.917 Y-16.536 E22.4303
G1 X-10 Y-16.6 E22.47616
G1 X10 Y-16.6 E23.47397
G1 X10.725 Y-16.56 E23.51019
G1 X11.442 Y-16.441 E23.54645
G1 X12.141 Y-16.243 E23.5827
G1 X12.814 Y-15.97 E23.61893
G1 X13.453 Y-15.625 E23.65516
G1 X14.05 Y-15.211 E23.69141
G1 X14.598 Y-14.735 E23.72762
G1 X15.091 Y-14.201 E23.76388
G1 X15.521 Y-13.616 E23.8001
G1 X15.885 Y-12.987 E23.83636
G1 X16.178 Y-12.322 E23.87261
G1 X16.396 Y-11.629 E23.90886
G1 X16.536 Y-10.917 E23.94506
G1 X16.6 Y-10 E23.99092
G1 X16.6 Y10 E24.98872
G0 F3600 X16.2 Y10
G1 F1800 X16.16 Y10.703 E25.02385
G1 X16.041 Y11.397 E25.05898
G1 X15.843 Y12.072 E25.09408
G1 X15.571 Y12.721 E25.12918
G1 X15.226 Y13.335 E25.16432
G1 X14.815 Y13.906 E25.19942
G1 X14.341 Y14.427 E25.23456
G1 X13.811 Y14.891 E25.2697
G1 X13.232 Y15.291 E25.30481
G1 X12.611 Y15.623 E25.33994
G1 X11.957 Y15.883 E25.37506
G1 X11.277 Y16.067 E25.4102
G1 X10.581 Y16.173 E25.44533
G1 X10 Y16.2 E25.47434
G1 X-10 Y16.2 E26.47215
G1 X-10.703 Y16.16 E26.50728
G1 X-11.397 Y16.041 E26.54241
G1 X-12.072 Y15.843 E26.5775
G1 X-12.721 Y15.571 E26.61261
G1 X-13.335 Y15.226 E26.64775
G1 X-13.906 Y14.815 E26.68285
G1 X-14.427 Y14.341 E26.71799
G1 X-14.891 Y13.811 E26.75313
G1 X-15.291 Y13.232 E26.78824
G1 X-15.623 Y12.611 E26.82337
G1 X-15.883 Y11.957 E26.85848
G1 X-16.067 Y11.277 E26.89363
G1 X-16.173 Y10.581 E26.92875
G1 X-16.2 Y10 E26.95777
G1 X-16.2 Y-10 E27.95557
G1 X-16.16 Y-10.703 E27.9907
G1 X-16.041 Y-11.397 E28.02583
G1 X-15.843 Y-12.072 E28.06093
G1 X-15.571 Y-12.721 E28.09603
G1 X-15.226 Y-13.335 E28.13117
G1 X-14.815 Y-13.906 E28.16627
G1 X-14.341 Y-14.427 E28.20141
G1 X-13.811 Y-14.891 E28.23655
G1 X-13.232 Y-15.291 E28.27166
G1 X-12.611 Y-15.623 E28.30679
G1 X-11.957 Y-15.883 E28.34191
G1 X-11.277 Y-16.067 E28.37705
G1 X-10.581 Y-16.173 E28.41218
G1 X-10 Y-16.2 E28.44119
G1 X10 Y-16.2 E29.439
G1 X10.703 Y-16.16 E29.47413
G1 X11.397 Y-16.041 E29.50926
G1 X12.072 Y-15.843 E29.54435
G1 X12.721 Y-15.571 E29.57946
G1 X13.335 Y-15.226 E29.6146
G1 X13.906 Y-14.815 E29.6497
G1 X14.427 Y-14.341 E29.68484
G1 X14.891 Y-13.811 E29.71998
G1 X15.291 Y-13.232 E29.75509
G1 X15.623 Y-12.611 E29.79022
G1 X15.883 Y-11.957 E29.82533
G1 X16.067 Y-11.277 E29.86048
G1 X16.173 Y-10.581 E29.8956
G1 X16.2 Y-10 E29.92462
G1 X16.2 Y10 E30.92242
G0 F3600 X15.8 Y10
G1 F1800 X15.76 Y10.68 E30.95641
G1 X15.641 Y11.35 E30.99036
G1 X15.444 Y12.002 E31.02434
G1 X15.172 Y12.626 E31.0583
G1 X14.828 Y13.214 E31.09228
G1 X14.418 Y13.758 E31.12627
G1 X13.947 Y14.249 E31.16021
G1 X13.422 Y14.683 E31.1942
G1 X12.85 Y15.052 E31.22816
G1 X12.238 Y15.351 E31.26214
G1 X11.596 Y15.576 E31.29608
G1 X10.931 Y15.725 E31.33008
G1 X10 Y15.8 E31.37668
G1 X-10 Y15.8 E32.37448
G1 X-10.68 Y15.76 E32.40847
G1 X-11.35 Y15.641 E32.44241
G1 X-12.002 Y15.444 E32.4764
G1 X-12.626 Y15.172 E32.51036
G1 X-13.214 Y14.828 E32.54434
G1 X-13.758 Y14.418 E32.57833
G1 X-14.249 Y13.947 E32.61227
G1 X-14.683 Y13.422 E32.64626
G1 X-15.052 Y12.85 E32.68022
G1 X-15.351 Y12.238 E32.7142
G1 X-15.576 Y11.596 E32.74814
G1 X-15.725 Y10.931 E32.78214
G1 X-15.8 Y10 E32.82874
G1 X-15.8 Y-10 E33.82654
G1 X-15.76 Y-10.68 E33.86052
G1 X-15.641 Y-11.35 E33.89447
G1 X-15.444 Y-12.002 E33.92845
G1 X-15.172 Y-12.626 E33.96241
G1 X-14.828 Y-13.214 E33.9964
G1 X-14.418 Y-13.758 E34.03039
G1 X-13.947 Y-14.249 E34.06433
G1 X-13.422 Y-14.683 E34.09831
G1 X-12.85 Y-15.052 E34.13227
G1 X-12.238 Y-15.351 E34.16626
G1 X-11.596 Y-15.576 E34.2002
G1 X-10.931 Y-15.725 E34.2342
G1 X-10 Y-15.8 E34.28079
G1 X10 Y-15.8 E35.2786
G1 X10.68 Y-15.76 E35.31258
G1 X11.35 Y-15.641 E35.34653
G1 X12.002 Y-15.444 E35.38051
G1 X12.626 Y-15.172 E35.41447
G1 X13.214 Y-14.828 E35.44846
G1 X13.758 Y-14.418 E35.48244
G1 X14.249 Y-13.947 E35.51639
G1 X14.683 Y-13.422 E35.55037
G1 X15.052 Y-12.85 E35.58433
G1 X15.351 Y-12.238 E35.61831
G1 X15.576 Y-11.596 E35.65225
G1 X15.725 Y-10.931 E35.68625
G1 X15.8 Y-10 E35.73285
G1 X15.8 Y10 E36.73066
G0 F3600 X15.4 Y10
G1 F1800 X15.36 Y10.656 E36.76344
G1 X15.241 Y11.302 E36.79622
G1 X15.044 Y11.929 E36.829
G1 X14.772 Y12.527 E36.86178
G1 X14.43 Y13.088 E36.89456
G1 X14.022 Y13.603 E36.92734
G1 X13.555 Y14.065 E36.96011
G1 X13.035 Y14.466 E36.99287
G1 X12.471 Y14.802 E37.02563
G1 X11.869 Y15.066 E37.05842
G1 X11.24 Y15.256 E37.0912
G1 X10.593 Y15.367 E37.12395
G1 X10 Y15.4 E37.15358
G1 X-10 Y15.4 E38.15139
G1 X-10.656 Y15.36 E38.18418
G1 X-11.302 Y15.241 E38.21695
G1 X-11.929 Y15.044 E38.24974
G1 X-12.527 Y14.772 E38.28251
G1 X-13.088 Y14.43 E38.31529
G1 X-13.603 Y14.022 E38.34807
G1 X-14.065 Y13.555 E38.38084
G1 X-14.466 Y13.035 E38.41361
G1 X-14.802 Y12.471 E38.44636
G1 X-15.066 Y11.869 E38.47915
G1 X-15.256 Y11.24 E38.51193
G1 X-15.367 Y10.593 E38.54469
G1 X-15.4 Y10 E38.57432
G1 X-15.4 Y-10 E39.57212
G1 X-15.36 Y-10.656 E39.60491
G1 X-15.241 Y-11.302 E39.63768
G1 X-15.044 Y-11.929 E39.67047
G1 X-14.772 Y-12.527 E39.70324
G1 X-14.43 Y-13.088 E39.73602
G1 X-14.022 Y-13.603 E39.7688
G1 X-13.555 Y-14.065 E39.80158
G1 X-13.035 Y-14.466 E39.83434
G1 X-12.471 Y-14.802 E39.86709
G1 X-11.869 Y-15.066 E39.89989
G1 X-11.24 Y-15.256 E39.93267
G1 X-10.593 Y-15.367 E39.96542
G1 X-10 Y-15.4 E39.99505
G1 X10 Y-15.4 E40.99285
G1 X10.656 Y-15.36 E41.02564
G1 X11.302 Y-15.241 E41.05841
G1 X11.929 Y-15.044 E41.0912
G1 X12.527 Y-14.772 E41.12398
G1 X13.088 Y-14.43 E41.15676
G1 X13.603 Y-14.022 E41.18953
G1 X14.065 Y-13.555 E41.22231
G1 X14.466 Y-13.035 E41.25507
G1 X14.802 Y-12.471 E41.28782
G1 X15.066 Y-11.869 E41.32062
G1 X15.256 Y-11.24 E41.3534
G1 X15.367 Y-10.593 E41.38615
G1 X15.4 Y-10 E41.41578
G1 X15.4 Y10 E42.41358
G0 F3600 X15 Y10
G1 F1800 X14.96 Y10.631 E42.44513
G1 X14.841 Y11.252 E42.47667
G1 X14.644 Y11.852 E42.50818
G1 X14.373 Y12.424 E42.53976
G1 X14.033 Y12.956 E42.57126
G1 X13.627 Y13.441 E42.60281
G1 X13.164 Y13.871 E42.63434
G1 X12.65 Y14.24 E42.6659
G1 X12.094 Y14.54 E42.69742
G1 X11.505 Y14.768 E42.72893
G1 X10.891 Y14.92 E42.76049
G1 X10 Y15 E42.80512
G1 X-10 Y15 E43.80293
G1 X-10.631 Y14.96 E43.83447
G1 X-11.252 Y14.841 E43.86602
G1 X-11.852 Y14.644 E43.89752
G1 X-12.424 Y14.373 E43.9291
G1 X-12.956 Y14.033 E43.9606
G1 X-13.441 Y13.627 E43.99215
G1 X-13.871 Y13.164 E44.02368
G1 X-14.24 Y12.65 E44.05525
G1 X-14.54 Y12.094 E44.08677
G1 X-14.768 Y11.505 E44.11828
G1 X-14.92 Y10.891 E44.14983
G1 X-15 Y10 E44.19446
G1 X-15 Y-10 E45.19227
G1 X-14.96 Y-10.631 E45.22381
G1 X-14.841 Y-11.252 E45.25536
G1 X-14.644 Y-11.852 E45.28686
G1 X-14.373 Y-12.424 E45.31844
G1 X-14.033 Y-12.956 E45.34994
G1 X-13.627 Y-13.441 E45.3815
G1 X-13.164 Y-13.871 E45.41302
G1 X-12.65 Y-14.24 E45.44459
G1 X-12.094 Y-14.54 E45.47611
G1 X-11.505 Y-14.768 E45.50762
G1 X-10.891 Y-14.92 E45.53917
G1 X-10 Y-15 E45.58381
G1 X10 Y-15 E46.58161
G1 X10.631 Y-14.96 E46.61315
G1 X11.252 Y-14.841 E46.6447
G1 X11.852 Y-14.644 E46.67621
G1 X12.424 Y-14.373 E46.70778
G1 X12.956 Y-14.033 E46.73928
G1 X13.441 Y-13.627 E46.77084
G1 X13.871 Y-13.164 E46.80236
G1 X14.24 Y-12.65 E46.83393
G1 X14.54 Y-12.094 E46.86545
G1 X14.768 Y-11.505 E46.89696
G1 X14.92 Y-10.891 E46.92852
G1 X15 Y-10 E46.97315
G1 X15 Y10 E47.97095
G0 F3600 X14.6 Y10
G1 F1800 X14.56 Y10.605 E48.0012
G1 X14.441 Y11.199 E48.03143
G1 X14.245 Y11.773 E48.06169
G1 X13.974 Y12.316 E48.09196
G1 X13.635 Y12.819 E48.12222
G1 X13.233 Y13.272 E48.15244
G1 X12.775 Y13.669 E48.18268
G1 X12.268 Y14.002 E48.21294
G1 X11.722 Y14.266 E48.2432
G1 X11.146 Y14.455 E48.27344
G1 X10.55 Y14.567 E48.3037
G1 X10 Y14.6 E48.33119
G1 X-10 Y14.6 E49.32899
G1 X-10.605 Y14.56 E49.35924
G1 X-11.199 Y14.441 E49.38946
G1 X-11.773 Y14.245 E49.41972
G1 X-12.316 Y13.974 E49.45
G1 X-12.819 Y13.635 E49.48026
G1 X-13.272 Y13.233 E49.51048
G1 X-13.669 Y12.775 E49.54072
G1 X-14.002 Y12.268 E49.57098
G1 X-14.266 Y11.722 E49.60124
G1 X-14.455 Y11.146 E49.63148
G1 X-14.567 Y10.55 E49.66174
G1 X-14.6 Y10 E49.68923
G1 X-14.6 Y-10 E50.68703
G1 X-14.56 Y-10.605 E50.71728
G1 X-14.441 Y-11.199 E50.7475
G1 X-14.245 Y-11.773 E50.77776
G1 X-13.974 Y-12.316 E50.80804
G1 X-13.635 Y-12.819 E50.8383
G1 X-13.233 Y-13.272 E50.86852
G1 X-12.775 Y-13.669 E50.89876
G1 X-12.268 Y-14.002 E50.92902
G1 X-11.722 Y-14.266 E50.95928
G1 X-11.146 Y-14.455 E50.98952
G1 X-10.55 Y-14.567 E51.01978
G1 X-10 Y-14.6 E51.04727
G1 X10 Y-14.6 E52.04507
G1 X10.605 Y-14.56 E52.07532
G1 X11.199 Y-14.441 E52.10554
G1 X11.773 Y-14.245 E52.1358
G1 X12.316 Y-13.974 E52.16608
G1 X12.819 Y-13.635 E52.19634
G1 X13.272 Y-13.233 E52.22656
G1 X13.669 Y-12.775 E52.2568
G1 X14.002 Y-12.268 E52.28706
G1 X14.266 Y-11.722 E52.31732
G1 X14.455 Y-11.146 E52.34756
G1 X14.567 Y-10.55 E52.37782
G1 X14.6 Y-10 E52.4053
G1 X14.6 Y10 E53.40311
G0 F3600 X14.2 Y10
G1 F1800 X14.16 Y10.578 E53.43201
G1 X14.041 Y11.145 E53.46092
G1 X13.845 Y11.69 E53.48981
G1 X13.576 Y12.203 E53.51871
G1 X13.239 Y12.674 E53.54761
G1 X12.84 Y13.094 E53.57651
G1 X12.387 Y13.456 E53.60544
G1 X11.889 Y13.751 E53.63432
G1 X11.355 Y13.976 E53.66323
G1 X10.795 Y14.124 E53.69212
G1 X10 Y14.2 E53.73197
